;FLAVOR:Marlin
;TIME:1684
;Filament used: 0.114872m
;Layer height: 0.2
;Generated with Cura_SteamEngine 3.6.0
M104 S200
M105
M109 S200
M82 ;absolute extrusion mode
G21 ;metric values
G90 ;absolute positioning
M82 ;set extruder to absolute mode
M107 ;start with the fan off
G28 ;move XYZ to min endstops
G1 Z15.0 F9000 ;move the platform down 15mm
G1 F9000
;Put printing message on LCD screen
M117 Printing...
G92 E0
;LAYER_COUNT:101
;LAYER:0
M107
G0 F600 X-.25 Y7.22 Z0.1
;TYPE:SKIRT
G1 F150 X-1.47 Y7.102 E0.00922
G1 X-2.081 Y7.002 E0.01388
G1 X-2.538 Y6.874 E0.01745
G1 X-3.534 Y6.539 E0.02536
G1 X-4.107 Y6.304 E0.03002
G1 X-4.557 Y6.053 E0.0339
G1 X-5.676 Y5.35 E0.04384
G1 X-6.179 Y4.988 E0.0485
G1 X-6.663 Y4.527 E0.05353
G1 X-7.552 Y3.556 E0.06344
G1 X-7.94 Y3.073 E0.0681
G1 X-8.283 Y2.505 E0.07309
G1 X-8.904 Y1.294 E0.08333
G1 X-9.151 Y0.726 E0.08799
G1 X-9.297 Y0.24 E0.09181
G1 X-9.526 Y-.7 E0.09909
G1 X-9.633 Y-1.31 E0.10375
G1 X-9.662 Y-1.785 E0.10733
G1 X-9.676 Y-3.101 E0.11723
G1 X-9.642 Y-3.719 E0.12189
G1 X-9.52 Y-4.366 E0.12684
G1 X-9.174 Y-5.689 E0.13713
G1 X-8.979 Y-6.277 E0.14179
G1 X-8.667 Y-6.909 E0.1471
G1 X-8.014 Y-8.019 E0.15679
G1 X-7.5 Y-8.734 E0.16341
G1 X-7.128 Y-9.162 E0.16768
G1 X-6.602 Y-9.68 E0.17323
G1 X-5.842 Y-10.322 E0.18072
G1 X-5.345 Y-10.69 E0.18537
G1 X-5.04 Y-10.871 E0.18804
G1 X-4.16 Y-11.35 E0.19558
G1 X-3.598 Y-11.61 E0.20024
G1 X-3.132 Y-11.764 E0.20393
G1 X-1.868 Y-12.11 E0.21379
G1 X-1.262 Y-12.234 E0.21845
G1 X-.646 Y-12.28 E0.22309
G1 X0.622 Y-12.292 E0.23263
G1 X1.449 Y-12.228 E0.23888
G1 X1.873 Y-12.158 E0.24211
G1 X2.529 Y-12.002 E0.24718
G1 X3.459 Y-11.71 E0.25452
G1 X4.037 Y-11.486 E0.25918
G1 X4.456 Y-11.267 E0.26274
G1 X5.567 Y-10.613 E0.27244
G1 X6.079 Y-10.265 E0.2771
G1 X6.568 Y-9.827 E0.28204
G1 X7.511 Y-8.86 E0.2922
G1 X7.914 Y-8.39 E0.29686
G1 X8.257 Y-7.866 E0.30157
G1 X8.869 Y-6.78 E0.31095
G1 X9.137 Y-6.221 E0.31561
G1 X9.34 Y-5.603 E0.32051
G1 X9.681 Y-4.258 E0.33095
G1 X9.794 Y-3.649 E0.33561
G1 X9.822 Y-2.84 E0.3417
G1 X9.745 Y-1.289 E0.35338
G1 X9.675 Y-.674 E0.35804
G1 X9.525 Y-0.071 E0.36272
G1 X9.213 Y0.909 E0.37046
G1 X8.91 Y1.644 E0.37644
G1 X8.615 Y2.219 E0.3813
G1 X8.297 Y2.751 E0.38596
G1 X8.093 Y3.026 E0.38854
G1 X7.262 Y4.065 E0.39855
G1 X6.844 Y4.523 E0.40322
G1 X6.338 Y4.948 E0.40819
G1 X5.283 Y5.716 E0.41801
G1 X4.76 Y6.047 E0.42266
G1 X4.171 Y6.319 E0.42754
G1 X2.917 Y6.798 E0.43765
G1 X2.325 Y6.981 E0.44231
G1 X1.818 Y7.075 E0.44619
G1 X0.826 Y7.203 E0.45371
G1 X0.208 Y7.242 E0.45837
G1 X-.25 Y7.22 E0.46182
G0 F600 X-.212 Y6.822
G1 F150 X-1.432 Y6.704 E0.47104
G1 X-2.017 Y6.607 E0.47551
G1 X-2.411 Y6.494 E0.47859
G1 X-3.407 Y6.159 E0.4865
G1 X-3.955 Y5.933 E0.49096
G1 X-4.345 Y5.715 E0.49432
G1 X-5.464 Y5.012 E0.50426
G1 X-5.943 Y4.663 E0.50872
G1 X-6.368 Y4.257 E0.51314
G1 X-7.257 Y3.286 E0.52305
G1 X-7.627 Y2.823 E0.52751
G1 X-7.927 Y2.323 E0.5319
G1 X-8.548 Y1.112 E0.54214
G1 X-8.783 Y0.567 E0.5466
G1 X-8.908 Y0.145 E0.54991
G1 X-9.137 Y-.795 E0.55719
G1 X-9.238 Y-1.379 E0.56165
G1 X-9.262 Y-1.789 E0.56474
G1 X-9.276 Y-3.105 E0.57465
G1 X-9.242 Y-3.697 E0.57911
G1 X-9.133 Y-4.265 E0.58346
G1 X-8.787 Y-5.588 E0.59375
G1 X-8.598 Y-6.151 E0.59822
G1 X-8.322 Y-6.706 E0.60288
G1 X-7.669 Y-7.816 E0.61257
G1 X-7.198 Y-8.471 E0.61864
G1 X-6.826 Y-8.899 E0.62291
G1 X-6.344 Y-9.374 E0.628
G1 X-5.584 Y-10.016 E0.63549
G1 X-5.107 Y-10.367 E0.63994
G1 X-4.849 Y-10.52 E0.6422
G1 X-3.969 Y-10.999 E0.64974
G1 X-3.43 Y-11.246 E0.6542
G1 X-3.027 Y-11.378 E0.65739
G1 X-1.763 Y-11.724 E0.66725
G1 X-1.182 Y-11.842 E0.67171
G1 X-.643 Y-11.88 E0.67578
G1 X0.625 Y-11.892 E0.68532
G1 X1.384 Y-11.833 E0.69104
G1 X1.808 Y-11.763 E0.69428
G1 X2.409 Y-11.62 E0.69893
G1 X3.339 Y-11.328 E0.70626
G1 X3.892 Y-11.113 E0.71073
G1 X4.253 Y-10.922 E0.7138
G1 X5.364 Y-10.268 E0.7235
G1 X5.854 Y-9.933 E0.72796
G1 X6.282 Y-9.548 E0.7323
G1 X7.225 Y-8.581 E0.74246
G1 X7.61 Y-8.129 E0.74693
G1 X7.908 Y-7.669 E0.75105
G1 X8.52 Y-6.583 E0.76043
G1 X8.776 Y-6.048 E0.76489
G1 X8.952 Y-5.504 E0.76919
G1 X9.293 Y-4.159 E0.77963
G1 X9.4 Y-3.576 E0.78409
G1 X9.423 Y-2.86 E0.78948
G1 X9.346 Y-1.309 E0.80117
G1 X9.276 Y-.72 E0.80563
G1 X9.144 Y-.192 E0.80973
G1 X8.832 Y0.788 E0.81747
G1 X8.554 Y1.461 E0.82294
G1 X8.259 Y2.036 E0.82781
G1 X7.78 Y2.776 E0.83444
G1 X6.949 Y3.815 E0.84445
G1 X6.548 Y4.252 E0.84891
G1 X6.103 Y4.624 E0.85328
G1 X5.048 Y5.392 E0.8631
G1 X4.546 Y5.708 E0.86756
G1 X4.028 Y5.945 E0.87184
G1 X2.774 Y6.424 E0.88195
G1 X2.207 Y6.598 E0.88641
G1 X1.767 Y6.678 E0.88977
G1 X0.775 Y6.806 E0.8973
G1 X0.183 Y6.842 E0.90176
G1 X-.212 Y6.822 E0.90474
G0 F600 X-.173 Y6.423
G1 F150 X-1.393 Y6.305 E0.91396
G1 X-1.951 Y6.211 E0.91822
G1 X-2.283 Y6.115 E0.92082
G1 X-3.279 Y5.78 E0.92872
G1 X-3.801 Y5.563 E0.93298
G1 X-4.132 Y5.376 E0.93584
G1 X-5.251 Y4.673 E0.94578
G1 X-5.707 Y4.339 E0.95003
G1 X-6.073 Y3.987 E0.95386
G1 X-6.962 Y3.016 E0.96376
G1 X-7.314 Y2.573 E0.96802
G1 X-7.571 Y2.14 E0.97181
G1 X-8.192 Y0.929 E0.98205
G1 X-8.414 Y0.409 E0.9863
G1 X-8.519 Y0.051 E0.98911
G1 X-8.748 Y-.889 E0.99639
G1 X-8.843 Y-1.447 E1.00065
G1 X-8.862 Y-1.793 E1.00325
G1 X-8.876 Y-3.109 E1.01316
G1 X-8.842 Y-3.674 E1.01742
G1 X-8.746 Y-4.164 E1.02117
G1 X-8.4 Y-5.487 E1.03146
G1 X-8.219 Y-6.023 E1.03572
G1 X-7.978 Y-6.503 E1.03976
G1 X-7.325 Y-7.613 E1.04945
G1 X-6.896 Y-8.209 E1.05497
G1 X-6.524 Y-8.637 E1.05924
G1 X-6.086 Y-9.069 E1.06387
G1 X-5.326 Y-9.711 E1.07136
G1 X-4.657 Y-10.168 E1.07745
G1 X-3.777 Y-10.647 E1.08499
G1 X-3.263 Y-10.882 E1.08924
G1 X-2.921 Y-10.992 E1.09195
G1 X-1.657 Y-11.338 E1.10181
G1 X-1.103 Y-11.448 E1.10606
G1 X-.639 Y-11.48 E1.10956
G1 X0.629 Y-11.492 E1.1191
G1 X1.319 Y-11.439 E1.1243
G1 X1.743 Y-11.369 E1.12754
G1 X2.289 Y-11.238 E1.13176
G1 X3.219 Y-10.946 E1.1391
G1 X3.745 Y-10.739 E1.14335
G1 X4.05 Y-10.577 E1.14595
G1 X5.161 Y-9.923 E1.15565
G1 X5.627 Y-9.603 E1.1599
G1 X5.996 Y-9.269 E1.16365
G1 X6.939 Y-8.302 E1.17381
G1 X7.304 Y-7.87 E1.17807
G1 X7.56 Y-7.473 E1.18162
G1 X8.172 Y-6.387 E1.191
G1 X8.414 Y-5.876 E1.19525
G1 X8.564 Y-5.406 E1.19897
G1 X8.905 Y-4.061 E1.20941
G1 X9.005 Y-3.505 E1.21366
G1 X9.023 Y-2.88 E1.21836
G1 X8.946 Y-1.329 E1.23005
G1 X8.878 Y-.767 E1.2343
G1 X8.762 Y-.314 E1.23782
G1 X8.45 Y0.666 E1.24556
G1 X8.198 Y1.279 E1.25055
G1 X7.903 Y1.854 E1.25541
G1 X7.468 Y2.526 E1.26143
G1 X6.637 Y3.565 E1.27145
G1 X6.253 Y3.981 E1.2757
G1 X5.867 Y4.301 E1.27948
G1 X4.812 Y5.069 E1.2893
G1 X4.333 Y5.368 E1.29354
G1 X3.885 Y5.572 E1.29725
G1 X2.631 Y6.051 E1.30735
G1 X2.09 Y6.215 E1.3116
G1 X1.716 Y6.281 E1.31446
G1 X0.724 Y6.409 E1.32199
G1 X0.159 Y6.442 E1.32624
G1 X-.173 Y6.423 E1.32875
G0 F600 X-.135 Y6.025
G1 F150 X-1.355 Y5.907 E1.33797
G1 X-1.883 Y5.816 E1.342
G1 X-2.156 Y5.736 E1.34414
G1 X-3.152 Y5.401 E1.35205
G1 X-3.646 Y5.193 E1.35608
G1 X-3.919 Y5.037 E1.35845
G1 X-5.038 Y4.334 E1.36839
G1 X-5.47 Y4.016 E1.37243
G1 X-5.778 Y3.717 E1.37566
G1 X-6.667 Y2.746 E1.38556
G1 X-6.999 Y2.325 E1.3896
G1 X-7.215 Y1.958 E1.3928
G1 X-7.836 Y0.747 E1.40304
G1 X-8.045 Y0.253 E1.40708
G1 X-8.131 Y-0.044 E1.4094
G1 X-8.36 Y-.984 E1.41668
G1 X-8.447 Y-1.513 E1.42072
G1 X-8.462 Y-1.798 E1.42286
G1 X-8.476 Y-3.114 E1.43277
G1 X-8.442 Y-3.649 E1.4368
G1 X-8.359 Y-4.063 E1.43998
G1 X-8.013 Y-5.386 E1.45026
G1 X-7.839 Y-5.893 E1.4543
G1 X-7.633 Y-6.3 E1.45773
G1 X-6.98 Y-7.41 E1.46742
G1 X-6.594 Y-7.947 E1.4724
G1 X-6.222 Y-8.375 E1.47666
G1 X-5.828 Y-8.763 E1.48082
G1 X-5.068 Y-9.405 E1.48831
G1 X-4.466 Y-9.817 E1.4938
G1 X-3.586 Y-10.296 E1.50134
G1 X-3.097 Y-10.517 E1.50537
G1 X-2.815 Y-10.606 E1.5076
G1 X-1.551 Y-10.952 E1.51746
G1 X-1.025 Y-11.055 E1.52149
G1 X-.635 Y-11.08 E1.52443
G1 X0.633 Y-11.092 E1.53397
G1 X1.253 Y-11.044 E1.53865
G1 X1.677 Y-10.974 E1.54189
G1 X2.169 Y-10.857 E1.54569
G1 X3.099 Y-10.565 E1.55303
G1 X3.598 Y-10.366 E1.55707
G1 X3.847 Y-10.232 E1.5592
G1 X4.958 Y-9.578 E1.5689
G1 X5.399 Y-9.273 E1.57293
G1 X5.709 Y-8.989 E1.57609
G1 X6.652 Y-8.022 E1.58626
G1 X6.997 Y-7.612 E1.59029
G1 X7.211 Y-7.276 E1.59329
G1 X7.823 Y-6.19 E1.60267
G1 X8.051 Y-5.705 E1.6067
G1 X8.177 Y-5.308 E1.60983
G1 X8.518 Y-3.963 E1.62027
G1 X8.61 Y-3.435 E1.6243
G1 X8.624 Y-2.899 E1.62834
G1 X8.547 Y-1.348 E1.64002
G1 X8.48 Y-.816 E1.64406
G1 X8.381 Y-.435 E1.64702
G1 X8.069 Y0.545 E1.65476
G1 X7.842 Y1.096 E1.65924
G1 X7.547 Y1.671 E1.66411
G1 X7.155 Y2.277 E1.66954
G1 X6.324 Y3.316 E1.67955
G1 X5.959 Y3.708 E1.68358
G1 X5.632 Y3.977 E1.68676
G1 X4.577 Y4.745 E1.69658
G1 X4.121 Y5.028 E1.70062
G1 X3.743 Y5.198 E1.70374
G1 X2.489 Y5.677 E1.71384
G1 X1.975 Y5.831 E1.71788
G1 X1.665 Y5.884 E1.72024
G1 X0.673 Y6.012 E1.72777
G1 X0.137 Y6.041 E1.73181
G1 X-.135 Y6.025 E1.73386
G0 F600 X-0.096 Y5.627
G1 F150 X-1.316 Y5.509 E1.74308
G1 X-2.028 Y5.357 E1.74856
G1 X-3.024 Y5.022 E1.75646
G1 X-3.706 Y4.699 E1.76214
G1 X-4.825 Y3.996 E1.77208
G1 X-5.231 Y3.694 E1.77589
G1 X-5.483 Y3.447 E1.77855
G1 X-6.372 Y2.476 E1.78845
G1 X-6.683 Y2.077 E1.79226
G1 X-6.859 Y1.775 E1.79489
G1 X-7.48 Y0.564 E1.80513
G1 X-7.742 Y-.139 E1.81077
G1 X-7.971 Y-1.079 E1.81805
G1 X-8.062 Y-1.802 E1.82354
G1 X-8.076 Y-3.118 E1.83344
G1 X-8.041 Y-3.622 E1.83724
G1 X-7.972 Y-3.962 E1.83985
G1 X-7.626 Y-5.285 E1.85014
G1 X-7.46 Y-5.762 E1.85394
G1 X-7.288 Y-6.098 E1.85678
G1 X-6.635 Y-7.208 E1.86647
G1 X-6.292 Y-7.684 E1.87088
G1 X-5.92 Y-8.112 E1.87515
G1 X-5.57 Y-8.458 E1.87885
G1 X-4.81 Y-9.1 E1.88634
G1 X-4.275 Y-9.466 E1.89122
G1 X-3.395 Y-9.945 E1.89876
G1 X-2.71 Y-10.22 E1.90431
G1 X-1.446 Y-10.566 E1.91417
G1 X-.949 Y-10.661 E1.91798
G1 X-.631 Y-10.68 E1.92037
G1 X0.637 Y-10.692 E1.92992
G1 X1.188 Y-10.649 E1.93407
G1 X1.612 Y-10.579 E1.93731
G1 X2.05 Y-10.475 E1.9407
G1 X2.98 Y-10.183 E1.94803
G1 X3.644 Y-9.888 E1.9535
G1 X4.755 Y-9.234 E1.9632
G1 X5.169 Y-8.944 E1.967
G1 X5.423 Y-8.71 E1.9696
G1 X6.366 Y-7.743 E1.97976
G1 X6.689 Y-7.354 E1.98357
G1 X6.863 Y-7.08 E1.98601
G1 X7.475 Y-5.994 E1.99539
G1 X7.687 Y-5.535 E1.99919
G1 X7.789 Y-5.209 E2.00176
G1 X8.13 Y-3.864 E2.0122
G1 X8.215 Y-3.366 E2.016
G1 X8.224 Y-2.919 E2.01937
G1 X8.147 Y-1.368 E2.03105
G1 X8.082 Y-.867 E2.03485
G1 X8 Y-.556 E2.03727
G1 X7.688 Y0.424 E2.04501
G1 X7.486 Y0.914 E2.049
G1 X7.191 Y1.489 E2.05386
G1 X6.843 Y2.027 E2.05868
G1 X6.012 Y3.066 E2.06869
G1 X5.666 Y3.434 E2.07249
G1 X5.396 Y3.654 E2.07511
G1 X4.341 Y4.422 E2.08493
G1 X3.91 Y4.686 E2.08874
G1 X3.6 Y4.824 E2.09129
G1 X2.346 Y5.303 E2.10139
G1 X1.614 Y5.488 E2.10707
G1 X0.622 Y5.616 E2.1146
G1 X-0.096 Y5.627 E2.12
;MESH:CylinderComplement.stl
G0 F600 X-1.658 Y2.853
G0 X-1.468 Y2.195
G0 X-4.728 Y-1.935
;TYPE:FILL
G1 F150 X-4.728 Y-3.155 E2.12918
G1 X-4.725 Y-3.183 E2.12939
G1 X-4.675 Y-3.484 E2.13169
G1 X-4.596 Y-3.819 E2.13428
G1 X-4.509 Y-4.104 E2.13652
G1 X-4.393 Y-4.413 E2.139
G1 X-4.258 Y-4.706 E2.14143
G1 X-4.1 Y-4.997 E2.14392
G1 X-3.943 Y-5.247 E2.14614
G1 X-3.746 Y-5.516 E2.14865
G1 X-3.537 Y-5.766 E2.1511
G1 X-3.528 Y-5.776 E2.1512
G1 X-3.528 Y0.692 E2.19987
G1 X-3.323 Y0.907 E2.20211
G1 X-3.086 Y1.126 E2.20453
G1 X-2.84 Y1.326 E2.20692
G1 X-2.583 Y1.507 E2.20928
G1 X-2.328 Y1.661 E2.21153
G1 X-2.328 Y-6.744 E2.27477
G1 X-2.306 Y-6.757 E2.27496
G1 X-2.016 Y-6.908 E2.27742
G1 X-1.722 Y-7.037 E2.27983
G1 X-1.426 Y-7.145 E2.28221
G1 X-1.128 Y-7.23 E2.28454
G1 X-1.128 Y2.147 E2.35509
G1 X-1.105 Y2.154 E2.35527
G1 X-.814 Y2.217 E2.35751
G1 X-.477 Y2.268 E2.36008
G1 X-.179 Y2.293 E2.36233
G1 X0.072 Y2.296 E2.36422
G1 X0.072 Y-7.381 E2.43703
G1 X0.147 Y-7.382 E2.43759
G1 X0.476 Y-7.364 E2.44007
G1 X0.796 Y-7.328 E2.44249
G1 X1.105 Y-7.27 E2.44486
G1 X1.272 Y-7.228 E2.44616
G1 X1.272 Y2.145 E2.51668
G1 X1.415 Y2.109 E2.51779
G1 X1.709 Y2.013 E2.52012
G1 X2.026 Y1.886 E2.52269
G1 X2.306 Y1.753 E2.52502
G1 X2.472 Y1.66 E2.52645
G1 X2.472 Y-6.743 E2.58968
G1 X2.586 Y-6.679 E2.59066
G1 X2.852 Y-6.505 E2.59305
G1 X3.105 Y-6.314 E2.59544
G1 X3.349 Y-6.103 E2.59786
G1 X3.588 Y-5.869 E2.60038
G1 X3.672 Y-5.774 E2.60134
G1 X3.672 Y0.691 E2.64998
G1 X3.784 Y0.565 E2.65125
G1 X3.991 Y0.3 E2.65378
G1 X4.168 Y0.037 E2.65616
G1 X4.334 Y-.248 E2.65864
G1 X4.472 Y-.524 E2.66097
G1 X4.595 Y-.818 E2.66336
G1 X4.696 Y-1.114 E2.66572
G1 X4.785 Y-1.435 E2.66822
G1 X4.846 Y-1.746 E2.67061
G1 X4.872 Y-1.944 E2.67211
G1 X4.872 Y-3.137 E2.68109
G0 F600 X4.634 Y-3.106
;MESH:NONMESH
G0 X0.675 Y2.258
;TIME_ELAPSED:145.026926
;LAYER:1
M106 S255
;TYPE:FILL
G0 F900 X0.675 Y2.258 Z0.200000
G1 F225 X-.544 Y2.258 E2.699430
G1 X-.814 Y2.216 E2.703540
G1 X-1.106 Y2.153 E2.708040
G1 X-1.428 Y2.059 E2.712150
G1 X-1.735 Y1.949 E2.716650
G1 X-2.013 Y1.826 E2.720760
G1 X-2.309 Y1.671 E2.725260
G1 X-2.577 Y1.509 E2.729370
G1 X-2.851 Y1.317 E2.733870
G1 X-3.087 Y1.124 E2.737980
G1 X-3.16 Y1.057 E2.742480
G1 X3.302 Y1.058 E2.746590
G1 X3.349 Y1.018 E2.751090
G1 X3.571 Y0.801 E2.755200
G1 X3.798 Y0.548 E2.759700
G1 X3.982 Y0.31 E2.763810
G1 X4.167 Y0.036 E2.768310
G1 X4.271 Y-.141 E2.772420
G1 X-4.131 Y-.142 E2.776920
G1 X-4.265 Y-.392 E2.781030
G1 X-4.394 Y-.674 E2.785530
G1 X-4.51 Y-.982 E2.789640
G1 X-4.597 Y-1.268 E2.794140
G1 X-4.615 Y-1.342 E2.798250
G1 X4.758 Y-1.341 E2.802750
G1 X4.784 Y-1.432 E2.806860
G1 X4.845 Y-1.742 E2.811360
G1 X4.887 Y-2.056 E2.815470
G1 X4.909 Y-2.389 E2.819970
G1 X4.909 Y-2.541 E2.824080
G1 X-4.767 Y-2.542 E2.828580
G1 X-4.757 Y-2.875 E2.832690
G1 X-4.725 Y-3.183 E2.837190
G1 X-4.674 Y-3.486 E2.841300
G1 X-4.613 Y-3.742 E2.845800
G1 X4.76 Y-3.741 E2.849910
G1 X4.697 Y-3.968 E2.854410
G1 X4.596 Y-4.262 E2.858520
G1 X4.473 Y-4.555 E2.863020
G1 X4.336 Y-4.832 E2.867130
G1 X4.272 Y-4.942 E2.871630
G1 X-4.128 Y-4.942 E2.875740
G1 X-4.098 Y-4.999 E2.880240
G1 X-3.94 Y-5.249 E2.884350
G1 X-3.744 Y-5.518 E2.888850
G1 X-3.54 Y-5.761 E2.892960
G1 X-3.317 Y-5.996 E2.897460
G1 X-3.158 Y-6.142 E2.901570
G1 X3.304 Y-6.142 E2.906070
G1 X3.106 Y-6.313 E2.910180
G1 X2.853 Y-6.503 E2.914680
G1 X2.587 Y-6.677 E2.918790
G1 X2.318 Y-6.829 E2.923290
G1 X2.026 Y-6.969 E2.927400
G1 X1.709 Y-7.097 E2.931900
G1 X1.421 Y-7.19 E2.936010
G1 X1.105 Y-7.27 E2.940510
G1 X0.799 Y-7.326 E2.944620
G1 X0.665 Y-7.342 E2.949120
G1 X-.542 Y-7.342 E2.953230
G0 F900 X-.507 Y-7.103
G0 F900 X0.675 Y2.258 Z0.400000
G1 F225 X-.544 Y2.258 E2.957730
G1 X-.814 Y2.216 E2.961840
G1 X-1.106 Y2.153 E2.966340
G1 X-1.428 Y2.059 E2.970450
G1 X-1.735 Y1.949 E2.974950
G1 X-2.013 Y1.826 E2.979060
G1 X-2.309 Y1.671 E2.983560
G1 X-2.577 Y1.509 E2.987670
G1 X-2.851 Y1.317 E2.992170
G1 X-3.087 Y1.124 E2.996280
G1 X-3.16 Y1.057 E3.000780
G1 X3.302 Y1.058 E3.004890
G1 X3.349 Y1.018 E3.009390
G1 X3.571 Y0.801 E3.013500
G1 X3.798 Y0.548 E3.018000
G1 X3.982 Y0.31 E3.022110
G1 X4.167 Y0.036 E3.026610
G1 X4.271 Y-.141 E3.030720
G1 X-4.131 Y-.142 E3.035220
G1 X-4.265 Y-.392 E3.039330
G1 X-4.394 Y-.674 E3.043830
G1 X-4.51 Y-.982 E3.047940
G1 X-4.597 Y-1.268 E3.052440
G1 X-4.615 Y-1.342 E3.056550
G1 X4.758 Y-1.341 E3.061050
G1 X4.784 Y-1.432 E3.065160
G1 X4.845 Y-1.742 E3.069660
G1 X4.887 Y-2.056 E3.073770
G1 X4.909 Y-2.389 E3.078270
G1 X4.909 Y-2.541 E3.082380
G1 X-4.767 Y-2.542 E3.086880
G1 X-4.757 Y-2.875 E3.090990
G1 X-4.725 Y-3.183 E3.095490
G1 X-4.674 Y-3.486 E3.099600
G1 X-4.613 Y-3.742 E3.104100
G1 X4.76 Y-3.741 E3.108210
G1 X4.697 Y-3.968 E3.112710
G1 X4.596 Y-4.262 E3.116820
G1 X4.473 Y-4.555 E3.121320
G1 X4.336 Y-4.832 E3.125430
G1 X4.272 Y-4.942 E3.129930
G1 X-4.128 Y-4.942 E3.134040
G1 X-4.098 Y-4.999 E3.138540
G1 X-3.94 Y-5.249 E3.142650
G1 X-3.744 Y-5.518 E3.147150
G1 X-3.54 Y-5.761 E3.151260
G1 X-3.317 Y-5.996 E3.155760
G1 X-3.158 Y-6.142 E3.159870
G1 X3.304 Y-6.142 E3.164370
G1 X3.106 Y-6.313 E3.168480
G1 X2.853 Y-6.503 E3.172980
G1 X2.587 Y-6.677 E3.177090
G1 X2.318 Y-6.829 E3.181590
G1 X2.026 Y-6.969 E3.185700
G1 X1.709 Y-7.097 E3.190200
G1 X1.421 Y-7.19 E3.194310
G1 X1.105 Y-7.27 E3.198810
G1 X0.799 Y-7.326 E3.202920
G1 X0.665 Y-7.342 E3.207420
G1 X-.542 Y-7.342 E3.211530
G0 F900 X-.507 Y-7.103
G0 F900 X0.675 Y2.258 Z0.600000
G1 F225 X-.544 Y2.258 E3.216030
G1 X-.814 Y2.216 E3.220140
G1 X-1.106 Y2.153 E3.224640
G1 X-1.428 Y2.059 E3.228750
G1 X-1.735 Y1.949 E3.233250
G1 X-2.013 Y1.826 E3.237360
G1 X-2.309 Y1.671 E3.241860
G1 X-2.577 Y1.509 E3.245970
