;FLAVOR:Marlin
;TIME:380
;Filament used: 0.239973m
;Layer height: 0.8
;Generated with Cura_SteamEngine 3.6.0
M104 S200
M105
M109 S200
M82 ;absolute extrusion mode
G21 ;metric values
G90 ;absolute positioning
M82 ;set extruder to absolute mode
M107 ;start with the fan off
G28 ;move XYZ to min endstops
G1 Z15.0 F9000 ;move the platform down 15mm
G1 F9000
;Put printing message on LCD screen
M117 Printing...
G92 E0
;LAYER_COUNT:11
;LAYER:0
M107
G0 F600 X8.778 Y-11.063 Z0.1
;TYPE:SKIRT
G1 F450 X9.167 Y-10.748 E0.00377
G1 X10.339 Y-9.668 E0.01576
G1 X10.687 Y-9.303 E0.01955
G1 X11.686 Y-8.117 E0.03122
G1 X11.986 Y-7.713 E0.03501
G1 X12.847 Y-6.382 E0.04693
G1 X13.093 Y-5.942 E0.05073
G1 X13.769 Y-4.536 E0.06246
G1 X13.957 Y-4.072 E0.06623
G1 X14.455 Y-2.583 E0.07805
G1 X14.583 Y-2.103 E0.08178
G1 X14.892 Y-.568 E0.09356
G1 X14.961 Y-0.063 E0.0974
G1 X15.072 Y1.496 E0.10916
G1 X15.076 Y1.995 E0.11291
G1 X14.991 Y3.574 E0.12481
G1 X14.933 Y4.074 E0.1286
G1 X14.653 Y5.615 E0.14038
G1 X14.532 Y6.103 E0.14417
G1 X14.064 Y7.587 E0.15588
G1 X13.884 Y8.054 E0.15964
G1 X13.231 Y9.475 E0.17141
G1 X12.993 Y9.918 E0.17519
G1 X12.162 Y11.254 E0.18703
G1 X11.869 Y11.664 E0.19082
G1 X10.875 Y12.887 E0.20268
G1 X10.536 Y13.255 E0.20644
G1 X9.408 Y14.334 E0.21819
G1 X9.023 Y14.658 E0.22198
G1 X7.763 Y15.591 E0.23377
G1 X7.341 Y15.864 E0.23755
G1 X5.964 Y16.637 E0.24944
G1 X5.51 Y16.856 E0.25323
G1 X4.078 Y17.437 E0.26486
G1 X3.605 Y17.595 E0.26861
G1 X2.068 Y18.005 E0.28058
G1 X1.612 Y18.098 E0.28408
G1 X0.559 Y18.251 E0.29209
G1 X0.18 Y18.288 E0.29495
G1 X-1.369 Y18.364 E0.30662
G1 X-1.875 Y18.357 E0.31043
G1 X-3.472 Y18.233 E0.32248
G1 X-3.965 Y18.163 E0.32623
G1 X-5.438 Y17.861 E0.33754
G1 X-5.918 Y17.731 E0.34128
G1 X-7.447 Y17.213 E0.35343
G1 X-7.918 Y17.02 E0.35726
G1 X-9.314 Y16.339 E0.36895
G1 X-9.752 Y16.09 E0.37274
G1 X-11.086 Y15.216 E0.38474
G1 X-11.492 Y14.911 E0.38856
G1 X-12.679 Y13.897 E0.4003
G1 X-13.037 Y13.55 E0.40405
G1 X-14.075 Y12.411 E0.41565
G1 X-14.389 Y12.02 E0.41942
G1 X-15.32 Y10.698 E0.43159
G1 X-15.587 Y10.263 E0.43543
G1 X-16.301 Y8.911 E0.44693
G1 X-16.504 Y8.461 E0.45065
G1 X-17.06 Y6.994 E0.46245
G1 X-17.209 Y6.511 E0.46626
G1 X-17.579 Y4.972 E0.47817
G1 X-17.666 Y4.476 E0.48195
G1 X-17.838 Y2.919 E0.49374
G1 X-17.861 Y2.416 E0.49753
G1 X-17.836 Y0.865 E0.5092
G1 X-17.798 Y0.373 E0.51291
G1 X-17.582 Y-1.167 E0.52461
G1 X-17.481 Y-1.659 E0.52839
G1 X-17.069 Y-3.176 E0.54022
G1 X-16.905 Y-3.658 E0.54405
G1 X-16.295 Y-5.132 E0.55606
G1 X-16.074 Y-5.584 E0.55984
G1 X-15.312 Y-6.92 E0.57141
G1 X-15.038 Y-7.337 E0.57517
G1 X-14.089 Y-8.603 E0.58707
G1 X-13.764 Y-8.984 E0.59084
G1 X-12.69 Y-10.095 E0.60247
G1 X-12.317 Y-10.435 E0.60627
G1 X-11.067 Y-11.438 E0.61832
G1 X-10.655 Y-11.728 E0.62211
G1 X-9.35 Y-12.528 E0.63363
G1 X-8.909 Y-12.762 E0.63739
G1 X-7.463 Y-13.417 E0.64933
G1 X-6.995 Y-13.594 E0.6531
G1 X-5.527 Y-14.048 E0.66466
G1 X-5.039 Y-14.166 E0.66844
G1 X-3.478 Y-14.441 E0.68036
G1 X-2.919 Y-14.5 E0.68459
G1 X-.873 Y-14.569 E0.7
G1 X-.27 Y-14.544 E0.70454
G1 X1.309 Y-14.358 E0.7165
G1 X1.805 Y-14.267 E0.72029
G1 X3.324 Y-13.89 E0.73207
G1 X3.799 Y-13.74 E0.73582
G1 X5.244 Y-13.183 E0.74747
G1 X5.703 Y-12.972 E0.75127
G1 X7.111 Y-12.213 E0.76331
G1 X7.535 Y-11.949 E0.76706
G1 X8.778 Y-11.063 E0.77855
G0 F600 X8.546 Y-10.738
G1 F450 X8.896 Y-10.453 E0.78195
G1 X10.068 Y-9.373 E0.79394
G1 X10.381 Y-9.045 E0.79735
G1 X11.38 Y-7.859 E0.80902
G1 X11.65 Y-7.495 E0.81243
G1 X12.511 Y-6.164 E0.82435
G1 X12.732 Y-5.769 E0.82776
G1 X13.408 Y-4.363 E0.8395
G1 X13.578 Y-3.945 E0.84289
G1 X14.076 Y-2.456 E0.85471
G1 X14.191 Y-2.024 E0.85807
G1 X14.5 Y-.489 E0.86985
G1 X14.562 Y-0.035 E0.8733
G1 X14.673 Y1.524 E0.88506
G1 X14.677 Y1.974 E0.88845
G1 X14.592 Y3.553 E0.90034
G1 X14.539 Y4.003 E0.90375
G1 X14.259 Y5.544 E0.91554
G1 X14.15 Y5.983 E0.91894
G1 X13.682 Y7.467 E0.93065
G1 X13.52 Y7.887 E0.93404
G1 X12.867 Y9.308 E0.9458
G1 X12.653 Y9.706 E0.9492
G1 X11.822 Y11.042 E0.96104
G1 X11.559 Y11.412 E0.96446
G1 X10.565 Y12.635 E0.97632
G1 X10.259 Y12.965 E0.9797
G1 X9.131 Y14.044 E0.99145
G1 X8.785 Y14.336 E0.99485
G1 X7.525 Y15.269 E1.00665
G1 X7.145 Y15.515 E1.01006
G1 X5.768 Y16.288 E1.02194
G1 X5.359 Y16.485 E1.02535
G1 X3.927 Y17.066 E1.03698
G1 X3.502 Y17.208 E1.04035
G1 X1.965 Y17.618 E1.05232
G1 X1.555 Y17.703 E1.05547
G1 X0.502 Y17.856 E1.06348
G1 X0.16 Y17.889 E1.06606
G1 X-1.389 Y17.965 E1.07773
G1 X-1.844 Y17.958 E1.08116
G1 X-3.441 Y17.834 E1.09321
G1 X-3.885 Y17.772 E1.09658
G1 X-5.358 Y17.47 E1.1079
G1 X-5.79 Y17.353 E1.11126
G1 X-7.319 Y16.835 E1.12341
G1 X-7.742 Y16.661 E1.12685
G1 X-9.138 Y15.98 E1.13854
G1 X-9.533 Y15.755 E1.14196
G1 X-10.867 Y14.881 E1.15396
G1 X-11.232 Y14.607 E1.15739
G1 X-12.419 Y13.593 E1.16914
G1 X-12.742 Y13.281 E1.17252
G1 X-13.78 Y12.142 E1.18411
G1 X-14.062 Y11.79 E1.18751
G1 X-14.993 Y10.468 E1.19967
G1 X-15.233 Y10.076 E1.20313
G1 X-15.947 Y8.724 E1.21464
G1 X-16.13 Y8.319 E1.21798
G1 X-16.686 Y6.852 E1.22978
G1 X-16.82 Y6.418 E1.2332
G1 X-17.19 Y4.879 E1.24511
G1 X-17.268 Y4.432 E1.24853
G1 X-17.44 Y2.875 E1.26031
G1 X-17.462 Y2.422 E1.26372
G1 X-17.437 Y0.871 E1.2754
G1 X-17.402 Y0.429 E1.27873
G1 X-17.186 Y-1.111 E1.29043
G1 X-17.095 Y-1.555 E1.29384
G1 X-16.683 Y-3.072 E1.30567
G1 X-16.535 Y-3.505 E1.30911
G1 X-15.925 Y-4.979 E1.32112
G1 X-15.726 Y-5.386 E1.32453
G1 X-14.964 Y-6.722 E1.3361
G1 X-14.718 Y-7.097 E1.33947
G1 X-13.769 Y-8.363 E1.35138
G1 X-13.476 Y-8.706 E1.35477
G1 X-12.402 Y-9.817 E1.3664
G1 X-12.067 Y-10.123 E1.36981
G1 X-10.817 Y-11.126 E1.38187
G1 X-10.445 Y-11.387 E1.38529
G1 X-9.14 Y-12.187 E1.39681
G1 X-8.744 Y-12.397 E1.40018
G1 X-7.298 Y-13.052 E1.41212
G1 X-6.877 Y-13.212 E1.41551
G1 X-5.409 Y-13.666 E1.42707
G1 X-4.97 Y-13.772 E1.43047
G1 X-3.409 Y-14.047 E1.4424
G1 X-2.905 Y-14.1 E1.44621
G1 X-.859 Y-14.169 E1.46162
G1 X-.317 Y-14.146 E1.4657
G1 X1.262 Y-13.96 E1.47766
G1 X1.708 Y-13.879 E1.48107
G1 X3.227 Y-13.502 E1.49285
G1 X3.655 Y-13.367 E1.49622
G1 X5.1 Y-12.81 E1.50788
G1 X5.513 Y-12.62 E1.5113
G1 X6.921 Y-11.861 E1.52333
G1 X7.303 Y-11.624 E1.52671
G1 X8.546 Y-10.738 E1.5382
G0 F600 X8.313 Y-10.412
G1 F450 X8.624 Y-10.159 E1.54122
G1 X9.796 Y-9.079 E1.55321
G1 X10.075 Y-8.788 E1.55624
G1 X11.074 Y-7.602 E1.56791
G1 X11.314 Y-7.278 E1.57094
G1 X12.175 Y-5.947 E1.58287
G1 X12.372 Y-5.596 E1.5859
G1 X13.048 Y-4.19 E1.59764
G1 X13.199 Y-3.818 E1.60066
G1 X13.697 Y-2.329 E1.61247
G1 X13.799 Y-1.946 E1.61545
G1 X14.108 Y-.411 E1.62723
G1 X14.163 Y-0.006 E1.63031
G1 X14.274 Y1.553 E1.64207
G1 X14.277 Y1.952 E1.64507
G1 X14.192 Y3.531 E1.65697
G1 X14.145 Y3.931 E1.66
G1 X13.865 Y5.472 E1.67179
G1 X13.769 Y5.862 E1.67481
G1 X13.301 Y7.346 E1.68652
G1 X13.157 Y7.72 E1.68953
G1 X12.504 Y9.141 E1.7013
G1 X12.313 Y9.495 E1.70432
G1 X11.482 Y10.831 E1.71616
G1 X11.248 Y11.159 E1.71919
G1 X10.254 Y12.382 E1.73105
G1 X9.983 Y12.676 E1.73406
G1 X8.855 Y13.755 E1.74581
G1 X8.547 Y14.015 E1.74884
G1 X7.287 Y14.948 E1.76064
G1 X6.949 Y15.166 E1.76366
G1 X5.572 Y15.939 E1.77554
G1 X5.209 Y16.114 E1.77858
G1 X3.777 Y16.695 E1.7902
G1 X3.399 Y16.822 E1.7932
G1 X1.862 Y17.232 E1.80517
G1 X1.497 Y17.307 E1.80798
G1 X0.444 Y17.46 E1.81598
G1 X0.141 Y17.489 E1.81827
G1 X-1.408 Y17.565 E1.82994
G1 X-1.813 Y17.559 E1.83299
G1 X-3.41 Y17.435 E1.84504
G1 X-3.805 Y17.38 E1.84804
G1 X-5.278 Y17.078 E1.85936
G1 X-5.662 Y16.974 E1.86235
G1 X-7.191 Y16.456 E1.8745
G1 X-7.567 Y16.301 E1.87756
G1 X-8.963 Y15.62 E1.88924
G1 X-9.314 Y15.421 E1.89228
G1 X-10.648 Y14.547 E1.90428
G1 X-10.972 Y14.303 E1.90733
G1 X-12.159 Y13.289 E1.91908
G1 X-12.446 Y13.011 E1.92208
G1 X-13.484 Y11.872 E1.93368
G1 X-13.735 Y11.56 E1.93669
G1 X-14.666 Y10.238 E1.94886
G1 X-14.88 Y9.889 E1.95194
G1 X-15.594 Y8.537 E1.96344
G1 X-15.756 Y8.177 E1.96641
G1 X-16.312 Y6.71 E1.97822
G1 X-16.431 Y6.324 E1.98126
G1 X-16.801 Y4.785 E1.99317
G1 X-16.871 Y4.388 E1.9962
G1 X-17.043 Y2.831 E2.00799
G1 X-17.062 Y2.428 E2.01102
G1 X-17.037 Y0.877 E2.02269
G1 X-17.006 Y0.485 E2.02565
G1 X-16.79 Y-1.055 E2.03735
G1 X-16.709 Y-1.45 E2.04039
G1 X-16.297 Y-2.967 E2.05221
G1 X-16.166 Y-3.352 E2.05527
G1 X-15.556 Y-4.826 E2.06728
G1 X-15.379 Y-5.187 E2.0703
G1 X-14.617 Y-6.523 E2.08187
G1 X-14.397 Y-6.857 E2.08488
G1 X-13.448 Y-8.123 E2.09679
G1 X-13.189 Y-8.428 E2.0998
G1 X-12.115 Y-9.539 E2.11143
G1 X-11.817 Y-9.811 E2.11446
G1 X-10.567 Y-10.814 E2.12652
G1 X-10.236 Y-11.046 E2.12956
G1 X-8.931 Y-11.846 E2.14108
G1 X-8.579 Y-12.033 E2.14408
G1 X-7.133 Y-12.688 E2.15602
G1 X-6.758 Y-12.83 E2.15904
G1 X-5.29 Y-13.284 E2.1706
G1 X-4.9 Y-13.378 E2.17362
G1 X-3.339 Y-13.653 E2.18555
G1 X-2.892 Y-13.7 E2.18893
G1 X-.846 Y-13.769 E2.20433
G1 X-.364 Y-13.749 E2.20796
G1 X1.215 Y-13.563 E2.21992
G1 X1.612 Y-13.491 E2.22296
G1 X3.131 Y-13.114 E2.23474
G1 X3.511 Y-12.994 E2.23773
G1 X4.956 Y-12.437 E2.24939
G1 X5.323 Y-12.268 E2.25243
G1 X6.731 Y-11.509 E2.26446
G1 X7.07 Y-11.298 E2.26747
G1 X8.313 Y-10.412 E2.27895
;MESH:circle.stl
G0 F600 X9.229 Y-5.867
G0 X8.702 Y-5.432
G0 X10.599 Y-.923
;TYPE:FILL
G1 F450 X10.599 Y4.71 E2.32134
G1 X10.55 Y4.966 E2.3233
G1 X10.068 Y6.445 E2.335
G1 X9.407 Y7.85 E2.34668
G1 X9.399 Y7.863 E2.3468
G1 X9.399 Y-4.067 E2.43656
G1 X8.585 Y-5.354 E2.44802
G1 X8.199 Y-5.82 E2.45257
G1 X8.199 Y9.612 E2.56869
G1 X7.587 Y10.35 E2.5759
G1 X6.999 Y10.902 E2.58197
G1 X6.999 Y-7.108 E2.71748
G1 X6.468 Y-7.608 E2.72297
G1 X5.799 Y-8.094 E2.72919
G1 X5.799 Y11.887 E2.87953
G1 X5.196 Y12.323 E2.88513
G1 X4.599 Y12.651 E2.89026
G1 X4.599 Y-8.857 E3.05209
G1 X3.865 Y-9.262 E3.0584
G1 X3.399 Y-9.447 E3.06217
G1 X3.399 Y13.24 E3.23287
G1 X2.401 Y13.635 E3.24095
G1 X2.199 Y13.687 E3.24251
G1 X2.199 Y-9.893 E3.41994
G1 X0.999 Y-10.201 E3.42926
G1 X0.999 Y13.993 E3.6113
G1 X0.898 Y14.018 E3.61208
G1 X-.201 Y14.157 E3.62042
G1 X-.201 Y-10.366 E3.80493
G1 X-.614 Y-10.419 E3.80807
G1 X-1.401 Y-10.419 E3.81399
G1 X-1.401 Y14.21 E3.9993
G1 X-2.188 Y14.21 E4.00522
G1 X-2.601 Y14.157 E4.00836
G1 X-2.601 Y-10.366 E4.19287
G1 X-3.698 Y-10.227 E4.20119
G1 X-3.801 Y-10.201 E4.20199
G1 X-3.801 Y13.992 E4.38403
G1 X-5.001 Y13.685 E4.39335
G1 X-5.001 Y-9.895 E4.57077
G0 F600 X-5.104 Y-9.868
G1 F450 X-5.704 Y-9.645 E4.5804
G0 F600 X-6.201 Y-9.449
G1 F450 X-6.201 Y13.239 E4.75111
G1 X-6.672 Y13.052 E4.75492
G1 X-7.401 Y12.65 E4.76119
G1 X-7.401 Y-8.859 E4.92302
G1 X-7.998 Y-8.531 E4.92815
G1 X-8.601 Y-8.095 E4.93375
G1 X-8.601 Y11.885 E5.08408
G1 X-9.27 Y11.399 E5.0903
G1 X-9.801 Y10.9 E5.09579
G1 X-9.801 Y-7.109 E5.23129
G1 X-10.392 Y-6.553 E5.2374
G1 X-11.001 Y-5.82 E5.24457
G1 X-11.001 Y9.612 E5.36068
G1 X-11.387 Y9.145 E5.36524
G1 X-12.201 Y7.859 E5.37669
G1 X-12.201 Y-4.071 E5.46645
G1 X-12.209 Y-4.058 E5.46657
G1 X-12.87 Y-2.654 E5.47825
G1 X-13.351 Y-1.18 E5.48991
G1 X-13.401 Y-.919 E5.49191
G1 X-13.401 Y4.714 E5.5343
G0 F600 X-13.164 Y4.671
;MESH:NONMESH
G0 X-4.179 Y-10.105
;TIME_ELAPSED:102.318494
;LAYER:1
M106 S255
;TYPE:FILL
G0 F900 X-4.179 Y-10.105 Z0.200000
G1 F675 X1.378 Y-10.105 E5.868790
G1 X2.411 Y-9.84 E5.932990
G1 X3.859 Y-9.266 E6.026740
G1 X4.515 Y-8.905 E6.090940
G1 X-7.316 Y-8.905 E6.184690
G1 X-8.011 Y-8.523 E6.248890
G1 X-9.137 Y-7.705 E6.342640
G1 X6.337 Y-7.705 E6.406840
G0 F900 X6.396 Y-7.661
G0 F900 X-4.179 Y-10.105 Z0.400000
G1 F675 X1.378 Y-10.105 E6.500590
G1 X2.411 Y-9.84 E6.564790
G1 X3.859 Y-9.266 E6.658540
G1 X4.515 Y-8.905 E6.722740
G1 X-7.316 Y-8.905 E6.816490
G1 X-8.011 Y-8.523 E6.880690
G1 X-9.137 Y-7.705 E6.974440
G1 X6.337 Y-7.705 E7.038640
G0 F900 X6.396 Y-7.661
G0 F900 X-4.179 Y-10.105 Z0.600000
G1 F675 X1.378 Y-10.105 E7.132390
G1 X2.411 Y-9.84 E7.196590
G1 X3.859 Y-9.266 E7.290340
G1 X4.515 Y-8.905 E7.354540
G1 X-7.316 Y-8.905 E7.448290
G1 X-8.011 Y-8.523 E7.512490
G1 X-9.137 Y-7.705 E7.606240
G1 X6.337 Y-7.705 E7.670440
G0 F900 X6.396 Y-7.661
;******* Adding Gel layer below *******
M400
G0 F450 X-46.903500 Y-33.755000
M400
G0 X-55.597500 Y-33.755000 M400
M400
G0 X-58.076500 Y-32.555000
M400
G0 X-44.424000 Y-32.555000
;Gel layer added*****************
M400
G1 F675 X7.027 Y-7.081 E7.90367
G1 X7.615 Y-6.524 E7.9573
G0 F900 X7.632 Y-6.504
G1 F675 X-10.433 Y-6.505 E9.0447
G1 X-11.384 Y-5.358 E9.13439
G1 X-11.417 Y-5.305 E9.13815
G1 X8.617 Y-5.304 E10.34407
G1 X9.377 Y-4.104 E10.42957
G1 X-12.178 Y-4.105 E11.72705
G1 X-12.215 Y-4.047 E11.73119
G1 X-12.751 Y-2.905 E11.80713
G1 X9.95 Y-2.904 E13.17359
G1 X10.073 Y-2.642 E13.19101
G1 X10.379 Y-1.704 E13.2504
G1 X-13.179 Y-1.705 E14.66844
G1 X-13.354 Y-1.17 E14.70233
G1 X-13.48 Y-.505 E14.74307
G1 X10.679 Y-.504 E16.19729
G1 X10.839 Y0.337 E16.24882
G1 X10.862 Y0.695 E16.27041
G1 X-13.663 Y0.694 E17.74667
G1 X-13.738 Y1.894 E17.81904
G1 X10.937 Y1.895 E19.30432
G1 X10.861 Y3.095 E19.3767
G1 X-13.664 Y3.094 E20.85295
G1 X-13.641 Y3.452 E20.87454
G1 X-13.481 Y4.294 E20.92613
G1 X10.678 Y4.295 E22.38036
G1 X10.552 Y4.961 E22.42116
G1 X10.378 Y5.495 E22.45496
G1 X-13.181 Y5.494 E23.87307
G1 X-12.875 Y6.434 E23.93257
G1 X-12.753 Y6.694 E23.94986
G1 X9.95 Y6.695 E25.31644
G1 X9.413 Y7.84 E25.39257
G1 X9.378 Y7.895 E25.39649
G1 X-12.181 Y7.894 E26.69421
G1 X-11.419 Y9.095 E26.77982
G1 X8.616 Y9.095 E27.98581
G1 X8.579 Y9.154 E27.99
G1 X7.632 Y10.295 E28.07925
G1 X-10.436 Y10.295 E29.16683
G1 X-10.403 Y10.334 E29.16991
G1 X-9.262 Y11.406 E29.26415
G1 X-9.14 Y11.495 E29.27324
G1 X6.336 Y11.495 E30.2048
G1 X5.205 Y12.317 E30.28896
G1 X4.517 Y12.695 E30.33621
G1 X-7.32 Y12.695 E31.04872
G1 X-6.661 Y13.057 E31.09398
G1 X-5.213 Y13.632 E31.18776
G1 X-4.185 Y13.895 E31.25163
G1 X1.382 Y13.895 E31.58673
G0 F900 X1.325 Y13.663
;MESH:NONMESH
G0 X10.599 Y-.923
;TIME_ELAPSED:142.154241
;LAYER:2
;TYPE:FILL
G0 F1200 X10.599 Y-.923 Z0.800000
G1 F900 X10.599 Y4.715 E31.749630
G1 X10.552 Y4.962 E31.764760
G1 X10.073 Y6.435 E31.858000
G1 X9.413 Y7.841 E31.873130
G1 X9.399 Y7.864 E31.966370
G1 X9.399 Y-4.07 E31.981500
G1 X8.582 Y-5.359 E32.074740
G1 X8.199 Y-5.821 E32.089870
G1 X8.199 Y9.613 E32.183110
G1 X7.601 Y10.334 E32.198240
G1 X6.999 Y10.9 E32.291480
G1 X6.999 Y-7.108 E32.306610
G1 X6.457 Y-7.618 E32.399850
G1 X5.799 Y-8.095 E32.414980
G1 X5.799 Y11.887 E32.508220
G1 X5.206 Y12.317 E32.523350
G1 X4.599 Y12.651 E32.616590
G1 X4.599 Y-8.859 E32.631720
G1 X3.86 Y-9.266 E32.724960
G1 X3.399 Y-9.448 E32.740090
G1 X3.399 Y13.241 E32.833330
G0 F1200 X2.905 Y13.436
G0 F1200 X10.599 Y-.923 Z1.000000
G1 F900 X10.599 Y4.715 E32.926570
G1 X10.552 Y4.962 E32.941700
G1 X10.073 Y6.435 E33.034940
G1 X9.413 Y7.841 E33.050070
G1 X9.399 Y7.864 E33.143310
G1 X9.399 Y-4.07 E33.158440
G1 X8.582 Y-5.359 E33.251680
G1 X8.199 Y-5.821 E33.266810
G1 X8.199 Y9.613 E33.360050
G1 X7.601 Y10.334 E33.375180
G1 X6.999 Y10.9 E33.468420
G1 X6.999 Y-7.108 E33.483550
G1 X6.457 Y-7.618 E33.576790
G1 X5.799 Y-8.095 E33.591920
G1 X5.799 Y11.887 E33.685160
G1 X5.206 Y12.317 E33.700290
G1 X4.599 Y12.651 E33.793530
G1 X4.599 Y-8.859 E33.808660
G1 X3.86 Y-9.266 E33.901900
G1 X3.399 Y-9.448 E33.917030
G1 X3.399 Y13.241 E34.010270
G0 F1200 X2.905 Y13.436
G0 F1200 X10.599 Y-.923 Z1.200000
G1 F900 X10.599 Y4.715 E34.103510
G1 X10.552 Y4.962 E34.118640
G1 X10.073 Y6.435 E34.211880
G1 X9.413 Y7.841 E34.227010
G1 X9.399 Y7.864 E34.320250
G1 X9.399 Y-4.07 E34.335380
G1 X8.582 Y-5.359 E34.428620
G1 X8.199 Y-5.821 E34.443750
G1 X8.199 Y9.613 E34.536990
G1 X7.601 Y10.334 E34.552120
G1 X6.999 Y10.9 E34.645360
G1 X6.999 Y-7.108 E34.660490
G1 X6.457 Y-7.618 E34.753730
G1 X5.799 Y-8.095 E34.768860
G1 X5.799 Y11.887 E34.862100
G1 X5.206 Y12.317 E34.877230
G1 X4.599 Y12.651 E34.970470
G1 X4.599 Y-8.859 E34.985600
G1 X3.86 Y-9.266 E35.078840
G1 X3.399 Y-9.448 E35.093970
G1 X3.399 Y13.241 E35.187210
G0 F1200 X2.905 Y13.436
;******* Adding Gel layer below *******
M400
G0 F450 X-39.851000 Y-17.960500
M400
G0 X-39.851000 Y-26.746500 M400
M400
G0 X-41.051000 Y-29.195500
M400
G0 X-41.051000 Y-15.511500 M400
M400
G0 X-42.251000 Y-13.993500
M400
G0 X-42.251000 Y-30.714500 M400
M400
G0 X-43.451000 Y-31.851500
M400
G0 X-43.451000 Y-12.856500 M400
M400
G0 X-44.651000 Y-11.981000
M400
G0 X-44.651000 Y-32.727000 M400
M400
G0 X-45.851000 Y-33.403500
M400
G0 X-45.851000 Y-11.304000
