;FLAVOR:Marlin
;TIME:302
;Filament used: 0.197908m
;Layer height: 2
;Generated with Cura_SteamEngine 3.6.0
M104 S200
M105
M109 S200
M82 ;absolute extrusion mode
G21 ;metric values
G90 ;absolute positioning
M82 ;set extruder to absolute mode
M107 ;start with the fan off
G28 ;move XYZ to min endstops
G1 Z15.0 F9000 ;move the platform down 15mm
G1 F9000
;Put printing message on LCD screen
M117 Printing...
G92 E0
;LAYER_COUNT:5
;LAYER:0
M107
G0 F600 X8.518 Y-14.133 Z0.1
;TYPE:SKIRT
G1 F240 X8.944 Y-13.868 E0.0044
G1 X10.217 Y-12.96 E0.01813
G1 X10.608 Y-12.642 E0.02255
G1 X11.76 Y-11.578 E0.03632
G1 X12.105 Y-11.217 E0.0407
G1 X13.106 Y-10.029 E0.05434
G1 X13.405 Y-9.625 E0.05875
G1 X14.269 Y-8.29 E0.07271
G1 X14.516 Y-7.849 E0.07715
G1 X15.193 Y-6.44 E0.09087
G1 X15.381 Y-5.979 E0.09524
G1 X15.881 Y-4.487 E0.10905
G1 X16.01 Y-4.003 E0.11345
G1 X16.316 Y-2.479 E0.1271
G1 X16.384 Y-1.98 E0.13152
G1 X16.499 Y-.388 E0.14553
G1 X16.503 Y0.12 E0.14999
G1 X16.417 Y1.68 E0.1637
G1 X16.359 Y2.174 E0.16807
G1 X16.079 Y3.718 E0.18184
G1 X15.959 Y4.204 E0.18624
G1 X15.492 Y5.689 E0.1999
G1 X15.31 Y6.16 E0.20434
G1 X14.642 Y7.613 E0.21837
G1 X14.402 Y8.058 E0.22281
G1 X13.584 Y9.37 E0.23638
G1 X13.294 Y9.777 E0.24077
G1 X12.287 Y11.016 E0.25479
G1 X11.947 Y11.384 E0.25919
G1 X10.828 Y12.454 E0.27278
G1 X10.444 Y12.778 E0.27719
G1 X9.176 Y13.717 E0.29104
G1 X8.755 Y13.989 E0.29544
G1 X7.388 Y14.757 E0.3092
G1 X6.936 Y14.975 E0.31361
G1 X5.48 Y15.567 E0.3274
G1 X4.998 Y15.728 E0.33186
G1 X3.471 Y16.133 E0.34573
G1 X2.982 Y16.231 E0.35011
G1 X1.43 Y16.441 E0.36386
G1 X0.93 Y16.477 E0.36826
G1 X-.637 Y16.491 E0.38201
G1 X-1.142 Y16.463 E0.38645
G1 X-2.726 Y16.276 E0.40046
G1 X-3.224 Y16.185 E0.4049
G1 X-4.733 Y15.809 E0.41855
G1 X-5.205 Y15.66 E0.4229
G1 X-6.655 Y15.101 E0.43654
G1 X-7.113 Y14.89 E0.44096
G1 X-8.518 Y14.133 E0.45497
G1 X-8.944 Y13.868 E0.45938
G1 X-10.217 Y12.96 E0.4731
G1 X-10.608 Y12.642 E0.47753
G1 X-11.762 Y11.576 E0.49132
G1 X-12.107 Y11.215 E0.4957
G1 X-13.106 Y10.029 E0.50931
G1 X-13.405 Y9.625 E0.51373
G1 X-14.27 Y8.288 E0.52771
G1 X-14.517 Y7.847 E0.53214
G1 X-15.194 Y6.438 E0.54586
G1 X-15.382 Y5.976 E0.55024
G1 X-15.882 Y4.483 E0.56406
G1 X-16.011 Y3.998 E0.56847
G1 X-16.316 Y2.475 E0.5821
G1 X-16.384 Y1.979 E0.5865
G1 X-16.499 Y0.389 E0.60049
G1 X-16.503 Y-.12 E0.60496
G1 X-16.417 Y-1.68 E0.61868
G1 X-16.359 Y-2.174 E0.62304
G1 X-16.079 Y-3.718 E0.63682
G1 X-15.959 Y-4.204 E0.64121
G1 X-15.489 Y-5.698 E0.65496
G1 X-15.306 Y-6.171 E0.65941
G1 X-14.641 Y-7.615 E0.67337
G1 X-14.402 Y-8.058 E0.67779
G1 X-13.584 Y-9.37 E0.69136
G1 X-13.294 Y-9.777 E0.69575
G1 X-12.287 Y-11.016 E0.70976
G1 X-11.947 Y-11.384 E0.71416
G1 X-10.828 Y-12.454 E0.72775
G1 X-10.444 Y-12.778 E0.73216
G1 X-9.176 Y-13.717 E0.74601
G1 X-8.755 Y-13.989 E0.75041
G1 X-7.388 Y-14.757 E0.76417
G1 X-6.936 Y-14.975 E0.76858
G1 X-5.48 Y-15.567 E0.78238
G1 X-4.998 Y-15.728 E0.78684
G1 X-3.471 Y-16.133 E0.80071
G1 X-2.982 Y-16.231 E0.80508
G1 X-1.43 Y-16.441 E0.81883
G1 X-.93 Y-16.477 E0.82323
G1 X0.637 Y-16.491 E0.83699
G1 X1.142 Y-16.463 E0.84143
G1 X2.726 Y-16.276 E0.85543
G1 X3.223 Y-16.186 E0.85986
G1 X4.73 Y-15.811 E0.8735
G1 X5.203 Y-15.661 E0.87785
G1 X6.653 Y-15.102 E0.89149
G1 X7.111 Y-14.891 E0.89592
G1 X8.518 Y-14.133 E0.90995
G0 F600 X8.328 Y-13.781
G1 F240 X8.711 Y-13.543 E0.91391
G1 X9.984 Y-12.635 E0.92763
G1 X10.337 Y-12.349 E0.93162
G1 X11.489 Y-11.285 E0.94539
G1 X11.799 Y-10.96 E0.94933
G1 X12.8 Y-9.772 E0.96297
G1 X13.069 Y-9.408 E0.96694
G1 X13.933 Y-8.073 E0.9809
G1 X14.156 Y-7.676 E0.9849
G1 X14.833 Y-6.267 E0.99862
G1 X15.001 Y-5.852 E1.00255
G1 X15.501 Y-4.36 E1.01636
G1 X15.618 Y-3.925 E1.02032
G1 X15.924 Y-2.401 E1.03396
G1 X15.985 Y-1.951 E1.03795
G1 X16.1 Y-.359 E1.05196
G1 X16.104 Y0.098 E1.05597
G1 X16.018 Y1.658 E1.06969
G1 X15.965 Y2.102 E1.07361
G1 X15.685 Y3.646 E1.08739
G1 X15.577 Y4.084 E1.09135
G1 X15.11 Y5.569 E1.10501
G1 X14.947 Y5.993 E1.109
G1 X14.279 Y7.446 E1.12304
G1 X14.063 Y7.847 E1.12703
G1 X13.245 Y9.159 E1.14061
G1 X12.984 Y9.525 E1.14455
G1 X11.977 Y10.764 E1.15857
G1 X11.671 Y11.095 E1.16253
G1 X10.552 Y12.165 E1.17612
G1 X10.206 Y12.456 E1.18008
G1 X8.938 Y13.395 E1.19394
G1 X8.559 Y13.641 E1.1979
G1 X7.192 Y14.409 E1.21167
G1 X6.785 Y14.605 E1.21563
G1 X5.329 Y15.197 E1.22943
G1 X4.896 Y15.342 E1.23344
G1 X3.369 Y15.747 E1.2473
G1 X2.929 Y15.834 E1.25124
G1 X1.377 Y16.044 E1.26499
G1 X0.926 Y16.077 E1.26896
G1 X-.641 Y16.091 E1.28272
G1 X-1.095 Y16.066 E1.28671
G1 X-2.679 Y15.879 E1.30071
G1 X-3.127 Y15.797 E1.30471
G1 X-4.636 Y15.421 E1.31836
G1 X-5.061 Y15.287 E1.32227
G1 X-6.511 Y14.728 E1.33591
G1 X-6.924 Y14.538 E1.3399
G1 X-8.329 Y13.781 E1.35391
G1 X-8.711 Y13.543 E1.35786
G1 X-9.984 Y12.635 E1.37159
G1 X-10.337 Y12.348 E1.37558
G1 X-11.491 Y11.282 E1.38937
G1 X-11.801 Y10.957 E1.39332
G1 X-12.8 Y9.771 E1.40693
G1 X-13.07 Y9.408 E1.4109
G1 X-13.935 Y8.071 E1.42488
G1 X-14.157 Y7.674 E1.42887
G1 X-14.834 Y6.265 E1.44259
G1 X-15.003 Y5.849 E1.44653
G1 X-15.503 Y4.356 E1.46036
G1 X-15.619 Y3.92 E1.46432
G1 X-15.924 Y2.397 E1.47795
G1 X-15.985 Y1.95 E1.48191
G1 X-16.1 Y0.36 E1.49591
G1 X-16.104 Y-0.098 E1.49993
G1 X-16.018 Y-1.658 E1.51364
G1 X-15.965 Y-2.102 E1.51757
G1 X-15.685 Y-3.646 E1.53134
G1 X-15.577 Y-4.084 E1.5353
G1 X-15.107 Y-5.578 E1.54905
G1 X-14.943 Y-6.004 E1.55306
G1 X-14.278 Y-7.448 E1.56701
G1 X-14.063 Y-7.847 E1.57099
G1 X-13.245 Y-9.159 E1.58456
G1 X-12.984 Y-9.525 E1.58851
G1 X-11.977 Y-10.764 E1.60252
G1 X-11.671 Y-11.095 E1.60648
G1 X-10.552 Y-12.165 E1.62007
G1 X-10.206 Y-12.456 E1.62404
G1 X-8.938 Y-13.395 E1.63789
G1 X-8.559 Y-13.641 E1.64186
G1 X-7.192 Y-14.409 E1.65562
G1 X-6.785 Y-14.605 E1.65959
G1 X-5.329 Y-15.197 E1.67338
G1 X-4.896 Y-15.342 E1.67739
G1 X-3.369 Y-15.747 E1.69126
G1 X-2.929 Y-15.834 E1.6952
G1 X-1.377 Y-16.044 E1.70895
G1 X-.926 Y-16.077 E1.71292
G1 X0.641 Y-16.091 E1.72667
G1 X1.095 Y-16.066 E1.73066
G1 X2.679 Y-15.879 E1.74466
G1 X3.126 Y-15.797 E1.74865
G1 X4.633 Y-15.422 E1.76229
G1 X5.059 Y-15.288 E1.76621
G1 X6.509 Y-14.729 E1.77985
G1 X6.921 Y-14.539 E1.78383
G1 X8.328 Y-13.781 E1.79786
G0 F600 X8.139 Y-13.429
G1 F240 X8.479 Y-13.217 E1.80138
G1 X9.752 Y-12.309 E1.8151
G1 X10.065 Y-12.055 E1.81864
G1 X11.217 Y-10.991 E1.83241
G1 X11.493 Y-10.702 E1.83592
G1 X12.494 Y-9.514 E1.84955
G1 X12.733 Y-9.191 E1.85308
G1 X13.597 Y-7.856 E1.86704
G1 X13.795 Y-7.503 E1.87059
G1 X14.472 Y-6.094 E1.88431
G1 X14.622 Y-5.725 E1.88781
G1 X15.122 Y-4.233 E1.90162
G1 X15.225 Y-3.846 E1.90514
G1 X15.531 Y-2.322 E1.91878
G1 X15.586 Y-1.923 E1.92232
G1 X15.701 Y-.331 E1.93633
G1 X15.704 Y0.076 E1.9399
G1 X15.618 Y1.636 E1.95362
G1 X15.572 Y2.031 E1.95711
G1 X15.292 Y3.575 E1.97088
G1 X15.196 Y3.964 E1.9744
G1 X14.729 Y5.449 E1.98807
G1 X14.583 Y5.826 E1.99162
G1 X13.915 Y7.279 E2.00565
G1 X13.723 Y7.635 E2.0092
G1 X12.905 Y8.947 E2.02278
G1 X12.673 Y9.272 E2.02628
G1 X11.666 Y10.511 E2.0403
G1 X11.395 Y10.806 E2.04381
G1 X10.276 Y11.876 E2.0574
G1 X9.968 Y12.135 E2.06094
G1 X8.7 Y13.074 E2.07479
G1 X8.363 Y13.292 E2.07831
G1 X6.996 Y14.06 E2.09207
G1 X6.634 Y14.234 E2.0956
G1 X5.178 Y14.826 E2.1094
G1 X4.793 Y14.955 E2.11296
G1 X3.266 Y15.36 E2.12683
G1 X2.875 Y15.438 E2.13033
G1 X1.323 Y15.648 E2.14408
G1 X0.923 Y15.677 E2.1476
G1 X-.644 Y15.691 E2.16135
G1 X-1.048 Y15.669 E2.16491
G1 X-2.632 Y15.482 E2.17891
G1 X-3.031 Y15.409 E2.18247
G1 X-4.54 Y15.033 E2.19612
G1 X-4.917 Y14.914 E2.19959
G1 X-6.367 Y14.355 E2.21323
G1 X-6.734 Y14.186 E2.21678
G1 X-8.139 Y13.429 E2.23079
G1 X-8.479 Y13.217 E2.23431
G1 X-9.752 Y12.309 E2.24803
G1 X-10.065 Y12.055 E2.25157
G1 X-11.219 Y10.989 E2.26536
G1 X-11.495 Y10.7 E2.26887
G1 X-12.494 Y9.514 E2.28248
G1 X-12.734 Y9.19 E2.28602
G1 X-13.599 Y7.853 E2.3
G1 X-13.796 Y7.501 E2.30354
G1 X-14.473 Y6.092 E2.31726
G1 X-14.623 Y5.722 E2.32077
G1 X-15.123 Y4.229 E2.33459
G1 X-15.227 Y3.841 E2.33811
G1 X-15.532 Y2.318 E2.35175
G1 X-15.586 Y1.921 E2.35527
G1 X-15.701 Y0.331 E2.36926
G1 X-15.704 Y-0.076 E2.37283
G1 X-15.618 Y-1.636 E2.38655
G1 X-15.572 Y-2.031 E2.39004
G1 X-15.292 Y-3.575 E2.40381
G1 X-15.196 Y-3.964 E2.40733
G1 X-14.726 Y-5.458 E2.42108
G1 X-14.58 Y-5.837 E2.42464
G1 X-13.915 Y-7.281 E2.4386
G1 X-13.723 Y-7.635 E2.44213
G1 X-12.905 Y-8.947 E2.45571
G1 X-12.673 Y-9.272 E2.45921
G1 X-11.666 Y-10.511 E2.47323
G1 X-11.395 Y-10.806 E2.47674
G1 X-10.276 Y-11.876 E2.49033
G1 X-9.968 Y-12.135 E2.49387
G1 X-8.7 Y-13.074 E2.50772
G1 X-8.363 Y-13.292 E2.51124
G1 X-6.996 Y-14.06 E2.52501
G1 X-6.634 Y-14.234 E2.52853
G1 X-5.178 Y-14.826 E2.54233
G1 X-4.793 Y-14.955 E2.54589
G1 X-3.266 Y-15.36 E2.55976
G1 X-2.875 Y-15.438 E2.56326
G1 X-1.323 Y-15.648 E2.57701
G1 X-.923 Y-15.677 E2.58053
G1 X0.644 Y-15.691 E2.59428
G1 X1.048 Y-15.669 E2.59784
G1 X2.632 Y-15.482 E2.61184
G1 X3.03 Y-15.409 E2.61539
G1 X4.537 Y-15.034 E2.62902
G1 X4.915 Y-14.915 E2.6325
G1 X6.365 Y-14.356 E2.64614
G1 X6.732 Y-14.187 E2.64969
G1 X8.139 Y-13.429 E2.66372
;MESH:circle.stl
G0 F600 X8.382 Y-10.181
G0 X7.98 Y-9.628
G0 X12 Y-2.952
;TYPE:FILL
G1 F240 X12 Y2.947 E2.7155
G0 F600 X11.987 Y3.012
G1 F240 X11.733 Y3.818 E2.72461
G1 X11.162 Y5.259 E2.74132
G1 X10.416 Y6.615 E2.758
G0 F600 X10 Y7.27
G1 F240 X10 Y-7.271 E2.88564
G1 X9.027 Y-8.449 E2.89905
G1 X8 Y-9.414 E2.91142
G1 X8 Y9.415 E3.07671
G0 F600 X7.937 Y9.473
G1 F240 X7.242 Y9.99 E3.08622
G1 X6.305 Y10.615 E3.09858
G0 F600 X6 Y10.783
G1 F240 X6 Y-10.782 E3.28788
G1 X5.278 Y-11.18 E3.29512
G1 X4 Y-11.688 E3.30719
G1 X4 Y11.689 E3.5124
G1 X3.811 Y11.763 E3.51418
G1 X2.305 Y12.147 E3.52783
G1 X2 Y12.186 E3.53053
G1 X2 Y-12.184 E3.74445
G1 X0.788 Y-12.339 E3.75518
G1 X0.00 Y-12.339 E3.76209
G1 X0.00 Y12.339 E3.97872
G1 X-.788 Y12.339 E3.98564
G1 X-2 Y12.184 E3.99637
G1 X-2 Y-12.186 E4.21029
G1 X-2.305 Y-12.147 E4.21299
G1 X-3.811 Y-11.763 E4.22664
G1 X-4 Y-11.689 E4.22842
G1 X-4 Y11.688 E4.43363
G1 X-5.278 Y11.18 E4.4457
G1 X-6 Y10.782 E4.45294
G1 X-6 Y-10.783 E4.64224
G1 X-6.61 Y-10.448 E4.64835
G0 F600 X-7.242 Y-9.99
G1 F240 X-7.937 Y-9.473 E4.66356
G0 F600 X-8 Y-9.415
G1 F240 X-8 Y9.413 E4.82883
G1 X-9.027 Y8.449 E4.8412
G1 X-10 Y7.271 E4.85461
G1 X-10 Y-7.27 E4.98226
G1 X-10.829 Y-5.966 E4.99582
G1 X-11.492 Y-4.559 E5.00947
G1 X-11.974 Y-3.082 E5.02311
G1 X-12 Y-2.946 E5.02433
G1 X-12 Y2.952 E5.0761
G0 F600 X-11.763 Y2.909
;MESH:NONMESH
G0 X2.881 Y12
;TIME_ELAPSED:148.874441
;LAYER:1
M106 S255
;TYPE:FILL
;MESH:NONMESH
G0 F900 X2.881 Y12 Z0.200000
G1 F360 X-2.882 Y12 E6.087880
G1 X-3.819 Y11.76 E6.257700
G1 X-5.271 Y11.184 E6.531940
G1 X-6.619 Y10.442 E6.701760
G1 X-7.228 Y10 E6.976000
G1 X7.227 Y10 E7.145820
G1 X7.88 Y9.526 E7.420060
G1 X9.014 Y8.464 E7.589880
G1 X9.397 Y8 E7.864120
G1 X-9.399 Y7.999 E8.033940
G1 X-10.003 Y7.268 E8.308180
G1 X-10.808 Y5.999 E8.478000
G1 X10.806 Y6 E8.752240
G1 X10.835 Y5.955 E8.922060
G1 X11.496 Y4.549 E9.196300
G1 X11.674 Y4 E9.366120
G1 X-11.676 Y3.999 E9.640360
G1 X-11.977 Y3.072 E9.810180
G1 X-12.182 Y1.999 E10.084420
G1 X12.181 Y2 E10.254240
G1 X12.265 Y1.559 E10.528480
G1 X12.363 Y0.00 E10.698300
G1 X-12.363 Y0.00 E10.972540
G1 X-12.265 Y-1.559 E11.142360
G1 X-12.181 Y-2 E11.416600
G1 X12.182 Y-1.999 E11.586420
G1 X11.977 Y-3.072 E11.860660
G1 X11.676 Y-3.999 E12.030480
G1 X-11.674 Y-4 E12.304720
G1 X-11.496 Y-4.549 E12.474540
G1 X-10.835 Y-5.955 E12.748780
G1 X-10.806 Y-6 E12.918600
G1 X10.808 Y-5.999 E13.192840
G1 X10.003 Y-7.268 E13.362660
G1 X9.399 Y-7.999 E13.636900
G1 X-9.397 Y-8 E13.806720
G1 X-9.014 Y-8.464 E14.080960
G1 X-7.88 Y-9.526 E14.250780
G1 X-7.227 Y-10 E14.525020
G1 X7.228 Y-10 E14.694840
G1 X6.619 Y-10.442 E14.969080
G1 X5.271 Y-11.184 E15.138900
G1 X3.819 Y-11.76 E15.413140
G1 X2.882 Y-12 E15.582960
G1 X-2.881 Y-12 E15.857200
G0 F900 X-2.823 Y-11.768
G0 X-12 Y2.952
G0 F900 X2.881 Y12 Z0.400000
G1 F360 X-2.882 Y12 E16.131440
G1 X-3.819 Y11.76 E16.301260
G1 X-5.271 Y11.184 E16.575500
G1 X-6.619 Y10.442 E16.745320
G1 X-7.228 Y10 E17.019560
G1 X7.227 Y10 E17.189380
G1 X7.88 Y9.526 E17.463620
G1 X9.014 Y8.464 E17.633440
G1 X9.397 Y8 E17.907680
G1 X-9.399 Y7.999 E18.077500
G1 X-10.003 Y7.268 E18.351740
G1 X-10.808 Y5.999 E18.521560
G1 X10.806 Y6 E18.795800
G1 X10.835 Y5.955 E18.965620
G1 X11.496 Y4.549 E19.239860
G1 X11.674 Y4 E19.409680
G1 X-11.676 Y3.999 E19.683920
G1 X-11.977 Y3.072 E19.853740
G1 X-12.182 Y1.999 E20.127980
G1 X12.181 Y2 E20.297800
G1 X12.265 Y1.559 E20.572040
G1 X12.363 Y0.00 E20.741860
G1 X-12.363 Y0.00 E21.016100
G1 X-12.265 Y-1.559 E21.185920
G1 X-12.181 Y-2 E21.460160
G1 X12.182 Y-1.999 E21.629980
G1 X11.977 Y-3.072 E21.904220
G1 X11.676 Y-3.999 E22.074040
G1 X-11.674 Y-4 E22.348280
G1 X-11.496 Y-4.549 E22.518100
G1 X-10.835 Y-5.955 E22.792340
G1 X-10.806 Y-6 E22.962160
G1 X10.808 Y-5.999 E23.236400
G1 X10.003 Y-7.268 E23.406220
G1 X9.399 Y-7.999 E23.680460
G1 X-9.397 Y-8 E23.850280
G1 X-9.014 Y-8.464 E24.124520
G1 X-7.88 Y-9.526 E24.294340
G1 X-7.227 Y-10 E24.568580
G1 X7.228 Y-10 E24.738400
G1 X6.619 Y-10.442 E25.012640
G1 X5.271 Y-11.184 E25.182460
G1 X3.819 Y-11.76 E25.456700
G1 X2.882 Y-12 E25.626520
G1 X-2.881 Y-12 E25.900760
G0 F900 X-2.823 Y-11.768
G0 X-12 Y2.952
G0 F900 X2.881 Y12 Z0.600000
G1 F360 X-2.882 Y12 E26.175000
G1 X-3.819 Y11.76 E26.344820
G1 X-5.271 Y11.184 E26.619060
G1 X-6.619 Y10.442 E26.788880
G1 X-7.228 Y10 E27.063120
G1 X7.227 Y10 E27.232940
G1 X7.88 Y9.526 E27.507180
G1 X9.014 Y8.464 E27.677000
G1 X9.397 Y8 E27.951240
G1 X-9.399 Y7.999 E28.121060
G1 X-10.003 Y7.268 E28.395300
G1 X-10.808 Y5.999 E28.565120
G1 X10.806 Y6 E28.839360
G1 X10.835 Y5.955 E29.009180
G1 X11.496 Y4.549 E29.283420
G1 X11.674 Y4 E29.453240
G1 X-11.676 Y3.999 E29.727480
G1 X-11.977 Y3.072 E29.897300
G1 X-12.182 Y1.999 E30.171540
G1 X12.181 Y2 E30.341360
G1 X12.265 Y1.559 E30.615600
G1 X12.363 Y0.00 E30.785420
G1 X-12.363 Y0.00 E31.059660
G1 X-12.265 Y-1.559 E31.229480
G1 X-12.181 Y-2 E31.503720
G1 X12.182 Y-1.999 E31.673540
G1 X11.977 Y-3.072 E31.947780
G1 X11.676 Y-3.999 E32.117600
G1 X-11.674 Y-4 E32.391840
G1 X-11.496 Y-4.549 E32.561660
G1 X-10.835 Y-5.955 E32.835900
G1 X-10.806 Y-6 E33.005720
G1 X10.808 Y-5.999 E33.279960
G1 X10.003 Y-7.268 E33.449780
G1 X9.399 Y-7.999 E33.724020
G1 X-9.397 Y-8 E33.893840
G1 X-9.014 Y-8.464 E34.168080
G1 X-7.88 Y-9.526 E34.337900
G1 X-7.227 Y-10 E34.612140
G1 X7.228 Y-10 E34.781960
G1 X6.619 Y-10.442 E35.056200
G1 X5.271 Y-11.184 E35.226020
G1 X3.819 Y-11.76 E35.500260
G1 X2.882 Y-12 E35.670080
G1 X-2.881 Y-12 E35.944320
G0 F900 X-2.823 Y-11.768
G0 X-12 Y2.952
G0 F900 X2.881 Y12 Z0.800000
G1 F360 X-2.882 Y12 E36.218560
G1 X-3.819 Y11.76 E36.388380
G1 X-5.271 Y11.184 E36.662620
G1 X-6.619 Y10.442 E36.832440
G1 X-7.228 Y10 E37.106680
G1 X7.227 Y10 E37.276500
G1 X7.88 Y9.526 E37.550740
G1 X9.014 Y8.464 E37.720560
G1 X9.397 Y8 E37.994800
G1 X-9.399 Y7.999 E38.164620
G1 X-10.003 Y7.268 E38.438860
G1 X-10.808 Y5.999 E38.608680
G1 X10.806 Y6 E38.882920
G1 X10.835 Y5.955 E39.052740
G1 X11.496 Y4.549 E39.326980
G1 X11.674 Y4 E39.496800
G1 X-11.676 Y3.999 E39.771040
G1 X-11.977 Y3.072 E39.940860
G1 X-12.182 Y1.999 E40.215100
G1 X12.181 Y2 E40.384920
G1 X12.265 Y1.559 E40.659160
G1 X12.363 Y0.00 E40.828980
G1 X-12.363 Y0.00 E41.103220
G1 X-12.265 Y-1.559 E41.273040
G1 X-12.181 Y-2 E41.547280
G1 X12.182 Y-1.999 E41.717100
G1 X11.977 Y-3.072 E41.991340
G1 X11.676 Y-3.999 E42.161160
G1 X-11.674 Y-4 E42.435400
G1 X-11.496 Y-4.549 E42.605220
G1 X-10.835 Y-5.955 E42.879460
G1 X-10.806 Y-6 E43.049280
G1 X10.808 Y-5.999 E43.323520
G1 X10.003 Y-7.268 E43.493340
G1 X9.399 Y-7.999 E43.767580
G1 X-9.397 Y-8 E43.937400
G1 X-9.014 Y-8.464 E44.211640
G1 X-7.88 Y-9.526 E44.381460
G1 X-7.227 Y-10 E44.655700
G1 X7.228 Y-10 E44.825520
G1 X6.619 Y-10.442 E45.099760
G1 X5.271 Y-11.184 E45.269580
G1 X3.819 Y-11.76 E45.543820
G1 X2.882 Y-12 E45.713640
G1 X-2.881 Y-12 E45.987880
G0 F900 X-2.823 Y-11.768
G0 X-12 Y2.952
G0 F900 X2.881 Y12 Z1.000000
G1 F360 X-2.882 Y12 E46.262120
G1 X-3.819 Y11.76 E46.431940
G1 X-5.271 Y11.184 E46.706180
G1 X-6.619 Y10.442 E46.876000
G1 X-7.228 Y10 E47.150240
G1 X7.227 Y10 E47.320060
G1 X7.88 Y9.526 E47.594300
G1 X9.014 Y8.464 E47.764120
G1 X9.397 Y8 E48.038360
