;FLAVOR:Marlin
;TIME:2324
;Filament used: 1.19451m
;Layer height: 0.8
;Generated with Cura_SteamEngine 3.6.0
M104 S200
M105
M109 S200
M82 ;absolute extrusion mode
G21 ;metric values
G90 ;absolute positioning
M82 ;set extruder to absolute mode
M107 ;start with the fan off
G28 ;move XYZ to min endstops
G1 Z15.0 F9000 ;move the platform down 15mm
G1 F9000
;Put printing message on LCD screen
M117 Printing...
G92 E0
;LAYER_COUNT:20
;LAYER:0
M107
G0 F600 X9.854 Y-26.799 Z0.1
;TYPE:SKIRT
G1 F300 X10.042 Y-26.73 E0.00151
G1 X11.881 Y-25.992 E0.01642
G1 X12.247 Y-25.821 E0.01946
G1 X14.502 Y-24.607 E0.03873
G1 X14.758 Y-24.455 E0.04097
G1 X16.166 Y-23.539 E0.0536
G1 X16.33 Y-23.426 E0.0551
G1 X17.962 Y-22.231 E0.07032
G1 X18.276 Y-21.972 E0.07339
G1 X20.177 Y-20.218 E0.09285
G1 X20.463 Y-19.922 E0.09594
G1 X22.874 Y-17.124 E0.12373
G1 X23.168 Y-16.731 E0.12743
G1 X24.538 Y-14.616 E0.14639
G1 X24.692 Y-14.356 E0.14866
G1 X25.53 Y-12.788 E0.16204
G1 X25.62 Y-12.607 E0.16356
G1 X26.456 Y-10.806 E0.1785
G1 X26.605 Y-10.433 E0.18152
G1 X27.419 Y-8.002 E0.20081
G1 X27.526 Y-7.607 E0.20389
G1 X28.294 Y-3.992 E0.2317
G1 X28.364 Y-3.5 E0.23544
G1 X28.548 Y-.917 E0.25492
G1 X28.557 Y-.615 E0.25719
G1 X28.536 Y1.046 E0.26969
G1 X28.528 Y1.243 E0.27118
G1 X28.391 Y3.272 E0.28648
G1 X28.341 Y3.672 E0.28951
G1 X27.884 Y6.19 E0.30877
G1 X27.788 Y6.588 E0.31185
G1 X26.716 Y10.136 E0.33974
G1 X26.541 Y10.6 E0.34347
G1 X25.476 Y12.915 E0.36264
G1 X25.338 Y13.182 E0.3649
G1 X24.485 Y14.69 E0.37794
G1 X24.382 Y14.862 E0.37945
G1 X23.306 Y16.539 E0.39444
G1 X23.071 Y16.864 E0.39746
G1 X21.468 Y18.839 E0.41659
G1 X21.268 Y19.066 E0.41887
G1 X20.057 Y20.325 E0.43202
G1 X19.916 Y20.463 E0.4335
G1 X18.47 Y21.81 E0.44837
G1 X18.158 Y22.07 E0.45142
G1 X16.088 Y23.602 E0.4708
G1 X15.835 Y23.773 E0.4731
G1 X14.365 Y24.679 E0.48609
G1 X14.196 Y24.777 E0.48756
G1 X12.456 Y25.723 E0.50246
G1 X12.09 Y25.895 E0.50551
G1 X9.78 Y26.833 E0.52427
G1 X9.507 Y26.932 E0.52645
G1 X7.81 Y27.466 E0.53984
G1 X7.606 Y27.523 E0.54143
G1 X5.656 Y28.013 E0.55656
G1 X5.261 Y28.09 E0.55959
G1 X2.722 Y28.433 E0.57886
G1 X2.423 Y28.46 E0.58112
G1 X0.737 Y28.546 E0.59383
G1 X0.538 Y28.551 E0.59532
G1 X-1.475 Y28.542 E0.61047
G1 X-1.881 Y28.517 E0.61353
G1 X-4.463 Y28.212 E0.63309
G1 X-4.867 Y28.141 E0.63618
G1 X-8.441 Y27.298 E0.66381
G1 X-8.91 Y27.153 E0.6675
G1 X-11.258 Y26.248 E0.68644
G1 X-11.529 Y26.131 E0.68866
G1 X-13.115 Y25.365 E0.70191
G1 X-13.299 Y25.269 E0.70347
G1 X-15.052 Y24.294 E0.71856
G1 X-15.393 Y24.079 E0.7216
G1 X-17.476 Y22.593 E0.74085
G1 X-17.794 Y22.337 E0.74392
G1 X-20.545 Y19.86 E0.77177
G1 X-20.89 Y19.504 E0.7755
G1 X-22.541 Y17.543 E0.79479
G1 X-22.727 Y17.302 E0.79708
G1 X-23.73 Y15.883 E0.81016
G1 X-23.839 Y15.719 E0.81164
G1 X-24.889 Y14.046 E0.8265
G1 X-25.084 Y13.693 E0.82954
G1 X-26.181 Y11.414 E0.84857
G1 X-26.298 Y11.143 E0.85079
G1 X-26.922 Y9.517 E0.86389
G1 X-26.99 Y9.324 E0.86543
G1 X-27.6 Y7.417 E0.8805
G1 X-27.701 Y7.026 E0.88354
G1 X-28.202 Y4.52 E0.90276
G1 X-28.249 Y4.222 E0.90503
G1 X-28.445 Y2.505 E0.91804
G1 X-28.462 Y2.307 E0.91953
G1 X-28.578 Y0.319 E0.93452
G1 X-28.579 Y-0.086 E0.93756
G1 X-28.442 Y-2.608 E0.95657
G1 X-28.414 Y-2.898 E0.95876
G1 X-28.182 Y-4.604 E0.97171
G1 X-28.149 Y-4.807 E0.97326
G1 X-27.764 Y-6.784 E0.98842
G1 X-27.663 Y-7.18 E0.99149
G1 X-26.881 Y-9.657 E1.01104
G1 X-26.736 Y-10.039 E1.01411
G1 X-25.236 Y-13.403 E1.04182
G1 X-25.004 Y-13.84 E1.04555
G1 X-23.657 Y-16.003 E1.06472
G1 X-23.488 Y-16.251 E1.06698
G1 X-22.442 Y-17.655 E1.08015
G1 X-22.318 Y-17.812 E1.08166
G1 X-21.052 Y-19.328 E1.09652
G1 X-20.778 Y-19.621 E1.09954
G1 X-18.93 Y-21.389 E1.11878
G1 X-18.7 Y-21.591 E1.12108
G1 X-17.344 Y-22.684 E1.13419
G1 X-17.187 Y-22.803 E1.13567
G1 X-15.583 Y-23.957 E1.15054
G1 X-15.243 Y-24.174 E1.15357
G1 X-13.021 Y-25.421 E1.17274
G1 X-12.752 Y-25.558 E1.17501
G1 X-11.172 Y-26.278 E1.18808
G1 X-10.989 Y-26.355 E1.18957
G1 X-9.126 Y-27.083 E1.20462
G1 X-8.742 Y-27.209 E1.20766
G1 X-6.333 Y-27.85 E1.22642
G1 X-6.048 Y-27.914 E1.22862
G1 X-4.317 Y-28.227 E1.24185
G1 X-4.112 Y-28.257 E1.24341
G1 X-2.114 Y-28.501 E1.25856
G1 X-1.709 Y-28.528 E1.26161
G1 X0.875 Y-28.55 E1.28106
G1 X1.285 Y-28.53 E1.28414
G1 X4.954 Y-28.142 E1.3119
G1 X5.441 Y-28.056 E1.31562
G1 X7.905 Y-27.445 E1.33473
G1 X8.192 Y-27.361 E1.33698
G1 X9.854 Y-26.799 E1.35018
G0 F600 X9.726 Y-26.42
G1 F300 X9.893 Y-26.359 E1.35151
G1 X11.732 Y-25.621 E1.36642
G1 X12.057 Y-25.469 E1.36912
G1 X14.312 Y-24.255 E1.38839
G1 X14.54 Y-24.119 E1.39039
G1 X15.948 Y-23.203 E1.40303
G1 X16.094 Y-23.103 E1.40436
G1 X17.726 Y-21.908 E1.41958
G1 X18.005 Y-21.678 E1.4223
G1 X19.906 Y-19.924 E1.44176
G1 X20.16 Y-19.661 E1.44451
G1 X22.571 Y-16.863 E1.47231
G1 X22.833 Y-16.514 E1.47559
G1 X24.203 Y-14.399 E1.49455
G1 X24.339 Y-14.167 E1.49657
G1 X25.177 Y-12.599 E1.50995
G1 X25.258 Y-12.438 E1.51131
G1 X26.094 Y-10.637 E1.52625
G1 X26.225 Y-10.306 E1.52892
G1 X27.039 Y-7.875 E1.54821
G1 X27.135 Y-7.524 E1.55095
G1 X27.903 Y-3.909 E1.57876
G1 X27.965 Y-3.471 E1.58209
G1 X28.149 Y-.888 E1.60157
G1 X28.157 Y-.621 E1.60358
G1 X28.136 Y1.04 E1.61608
G1 X28.129 Y1.216 E1.61741
G1 X27.992 Y3.245 E1.63271
G1 X27.948 Y3.6 E1.6354
G1 X27.491 Y6.118 E1.65465
G1 X27.405 Y6.473 E1.6574
G1 X26.333 Y10.021 E1.68529
G1 X26.177 Y10.432 E1.6886
G1 X25.112 Y12.747 E1.70777
G1 X24.99 Y12.985 E1.70978
G1 X24.137 Y14.493 E1.72282
G1 X24.045 Y14.646 E1.72416
G1 X22.969 Y16.323 E1.73916
G1 X22.761 Y16.612 E1.74183
G1 X21.158 Y18.587 E1.76097
G1 X20.979 Y18.788 E1.763
G1 X19.768 Y20.047 E1.77614
G1 X19.643 Y20.17 E1.77746
G1 X18.197 Y21.517 E1.79233
G1 X17.92 Y21.748 E1.79505
G1 X15.85 Y23.28 E1.81442
G1 X15.625 Y23.432 E1.81646
G1 X14.155 Y24.338 E1.82946
G1 X14.004 Y24.425 E1.83077
G1 X12.264 Y25.371 E1.84567
G1 X11.94 Y25.525 E1.84837
G1 X9.63 Y26.463 E1.86713
G1 X9.387 Y26.55 E1.86907
G1 X7.69 Y27.084 E1.88246
G1 X7.509 Y27.136 E1.88387
G1 X5.559 Y27.626 E1.899
G1 X5.207 Y27.693 E1.9017
G1 X2.668 Y28.036 E1.92098
G1 X2.403 Y28.061 E1.92298
G1 X0.717 Y28.147 E1.93568
G1 X0.54 Y28.151 E1.93701
G1 X-1.473 Y28.142 E1.95216
G1 X-1.834 Y28.12 E1.95488
G1 X-4.416 Y27.815 E1.97444
G1 X-4.776 Y27.752 E1.97719
G1 X-8.35 Y26.909 E2.00482
G1 X-8.766 Y26.78 E2.0081
G1 X-11.114 Y25.875 E2.02703
G1 X-11.355 Y25.771 E2.02901
G1 X-12.941 Y25.005 E2.04226
G1 X-13.104 Y24.92 E2.04364
G1 X-14.857 Y23.945 E2.05874
G1 X-15.16 Y23.753 E2.06144
G1 X-17.243 Y22.267 E2.08069
G1 X-17.526 Y22.04 E2.08342
G1 X-20.277 Y19.563 E2.11127
G1 X-20.584 Y19.246 E2.11459
G1 X-22.235 Y17.285 E2.13388
G1 X-22.4 Y17.071 E2.13591
G1 X-23.403 Y15.652 E2.14899
G1 X-23.5 Y15.506 E2.15031
G1 X-24.55 Y13.833 E2.16517
G1 X-24.723 Y13.52 E2.16786
G1 X-25.82 Y11.241 E2.18689
G1 X-25.925 Y11 E2.18887
G1 X-26.549 Y9.374 E2.20197
G1 X-26.609 Y9.202 E2.20334
G1 X-27.219 Y7.295 E2.21841
G1 X-27.309 Y6.947 E2.22111
G1 X-27.81 Y4.441 E2.24034
G1 X-27.851 Y4.177 E2.24235
G1 X-28.047 Y2.46 E2.25536
G1 X-28.063 Y2.283 E2.25669
G1 X-28.179 Y0.295 E2.27168
G1 X-28.179 Y-0.065 E2.27438
G1 X-28.042 Y-2.587 E2.29339
G1 X-28.018 Y-2.844 E2.29533
G1 X-27.786 Y-4.55 E2.30829
G1 X-27.756 Y-4.731 E2.30967
G1 X-27.371 Y-6.708 E2.32482
G1 X-27.282 Y-7.059 E2.32755
G1 X-26.5 Y-9.536 E2.34709
G1 X-26.371 Y-9.876 E2.34983
G1 X-24.871 Y-13.24 E2.37754
G1 X-24.664 Y-13.629 E2.38085
G1 X-23.317 Y-15.792 E2.40003
G1 X-23.167 Y-16.012 E2.40203
G1 X-22.121 Y-17.416 E2.4152
G1 X-22.011 Y-17.555 E2.41654
G1 X-20.745 Y-19.071 E2.4314
G1 X-20.501 Y-19.332 E2.43409
G1 X-18.653 Y-21.1 E2.45333
G1 X-18.449 Y-21.279 E2.45537
G1 X-17.093 Y-22.372 E2.46848
G1 X-16.954 Y-22.479 E2.4698
G1 X-15.35 Y-23.633 E2.48467
G1 X-15.047 Y-23.826 E2.48737
G1 X-12.825 Y-25.073 E2.50654
G1 X-12.586 Y-25.194 E2.50856
G1 X-11.006 Y-25.914 E2.52162
G1 X-10.844 Y-25.983 E2.52295
G1 X-8.981 Y-26.711 E2.538
G1 X-8.639 Y-26.822 E2.5407
G1 X-6.23 Y-27.463 E2.55946
G1 X-5.976 Y-27.52 E2.56142
G1 X-4.245 Y-27.833 E2.57465
G1 X-4.064 Y-27.86 E2.57603
G1 X-2.066 Y-28.104 E2.59117
G1 X-1.705 Y-28.128 E2.5939
G1 X0.879 Y-28.15 E2.61334
G1 X1.243 Y-28.132 E2.61608
G1 X4.912 Y-27.744 E2.64384
G1 X5.345 Y-27.668 E2.64715
G1 X7.809 Y-27.057 E2.66625
G1 X8.064 Y-26.982 E2.66825
G1 X9.726 Y-26.42 E2.68145
;MESH:circle.stl
G0 F600 X10.896 Y-23.235
G0 X10.645 Y-22.598
G0 X24 Y-6.358
;TYPE:FILL
G1 F300 X24 Y6.361 E2.77715
G1 X23.091 Y9.151 E2.79923
G1 X22 Y11.471 E2.81852
G1 X22 Y-11.471 E2.99114
G1 X21.772 Y-11.957 E2.99518
G1 X20.098 Y-14.597 E3.0187
G1 X20 Y-14.715 E3.01986
G1 X20 Y14.717 E3.24131
G1 X18.1 Y17.011 E3.26372
G1 X18 Y17.105 E3.26475
G1 X18 Y-17.101 E3.52213
G1 X16 Y-18.981 E3.54278
G1 X16 Y18.982 E3.82842
G1 X15.822 Y19.148 E3.83025
G1 X14 Y20.471 E3.8472
G1 X14 Y-20.469 E4.15524
G1 X13.313 Y-20.969 E4.16163
G1 X12 Y-21.691 E4.1729
G1 X12 Y21.693 E4.49934
G1 X10.573 Y22.476 E4.51158
G1 X10 Y22.703 E4.51622
G1 X10 Y-22.701 E4.85785
G1 X8 Y-23.495 E4.87404
G1 X8 Y23.495 E5.2276
G1 X7.665 Y23.627 E5.23031
G1 X6 Y24.054 E5.24325
G1 X6 Y-24.052 E5.60521
G1 X4.66 Y-24.397 E5.61562
G1 X4 Y-24.48 E5.62062
G1 X4 Y24.482 E5.98902
G1 X2 Y24.735 E6.00419
G1 X2 Y-24.735 E6.37642
G1 X1.572 Y-24.79 E6.37966
G1 X0.00 Y-24.79 E6.39149
G1 X0.00 Y24.79 E6.76454
G1 X-1.572 Y24.79 E6.77637
G1 X-2 Y24.735 E6.77962
G1 X-2 Y-24.735 E7.15184
G1 X-4 Y-24.482 E7.16701
G1 X-4 Y24.48 E7.53541
G1 X-4.66 Y24.397 E7.54041
G1 X-6 Y24.052 E7.55083
G1 X-6 Y-24.054 E7.91279
G1 X-7.665 Y-23.627 E7.92572
G1 X-8 Y-23.495 E7.92843
G1 X-8 Y23.495 E8.28199
G1 X-10 Y22.701 E8.29818
G1 X-10 Y-22.703 E8.63981
G1 X-10.573 Y-22.476 E8.64445
G1 X-12 Y-21.693 E8.6567
G1 X-12 Y21.691 E8.98313
G1 X-13.313 Y20.969 E8.9944
G1 X-14 Y20.469 E9.0008
G1 X-14 Y-20.471 E9.30884
G1 X-15.822 Y-19.148 E9.32578
G1 X-16 Y-18.982 E9.32761
G1 X-16 Y18.981 E9.61325
G1 X-18 Y17.101 E9.63391
G1 X-18 Y-17.105 E9.89128
G1 X-18.1 Y-17.011 E9.89231
G1 X-20 Y-14.717 E9.91472
G1 X-20 Y14.715 E10.13618
G1 X-20.098 Y14.597 E10.13733
G1 X-21.772 Y11.957 E10.16085
G1 X-22 Y11.471 E10.16489
G1 X-22 Y-11.471 E10.33751
G1 X-23.091 Y-9.151 E10.3568
G1 X-24 Y-6.363 E10.37887
G1 X-24 Y6.358 E10.47458
G0 F600 X-23.772 Y6.284
;MESH:NONMESH
G0 X6.208 Y24
;TIME_ELAPSED:287.338087
;LAYER:1
M106 S255
;TYPE:FILL
;MESH:NONMESH
G0 F900 X6.208 Y24 Z0.200000
G1 F450 X-6.209 Y24 E11.222010
G1 X-7.674 Y23.624 E11.313050
G1 X-10.582 Y22.472 E11.501330
G1 X-11.441 Y22 E11.592370
G1 X11.44 Y22 E11.780650
G1 X13.304 Y20.975 E11.871690
G1 X14.646 Y20 E12.059970
G1 X-14.647 Y20 E12.151010
G1 X-15.828 Y19.142 E12.339290
G1 X-17.044 Y18 E12.430330
G1 X17.044 Y18 E12.618610
G1 X18.114 Y16.995 E12.709650
G1 X18.937 Y16 E12.897930
G1 X-18.938 Y15.999 E12.988970
G1 X-20.092 Y14.605 E13.177250
G1 X-20.477 Y13.999 E13.268290
G1 X20.476 Y14 E13.456570
G1 X21.746 Y12 E13.547610
G1 X-21.748 Y11.999 E13.735890
G1 X-21.768 Y11.966 E13.826930
G1 X-22.693 Y9.999 E14.015210
G1 X22.691 Y10 E14.106250
G1 X23.096 Y9.139 E14.294530
G1 X23.466 Y8 E14.385570
G1 X-23.468 Y7.999 E14.573850
G0 F900 X-23.764 Y7.086
G1 F450 X-24.078 Y6.086 E14.762130
G0 F900 X-24.095 Y5.999
G1 F450 X24.094 Y6 E14.950410
G1 X24.474 Y4 E15.041450
G1 X-24.476 Y3.999 E15.229730
G1 X-24.642 Y3.123 E15.320770
G1 X-24.713 Y1.999 E15.509050
G1 X24.712 Y2 E15.600090
G1 X24.838 Y0.00 E15.788370
G1 X-24.838 Y0.00 E15.879410
G1 X-24.712 Y-2 E16.067690
G1 X24.713 Y-1.999 E16.158730
G1 X24.642 Y-3.123 E16.347010
G1 X24.476 Y-3.999 E16.438050
G1 X-24.474 Y-4 E16.626330
G1 X-24.094 Y-6 E16.717370
G1 X24.095 Y-5.999 E16.905650
G0 F900 X24.078 Y-6.086
G1 F450 X23.764 Y-7.086 E17.093930
G0 F900 X23.468 Y-7.999
G1 F450 X-23.466 Y-8 E17.282210
G1 X-23.096 Y-9.139 E17.373250
G1 X-22.691 Y-10 E17.561530
G1 X22.693 Y-9.999 E17.652570
G1 X21.768 Y-11.966 E17.840850
G1 X21.748 Y-11.999 E17.931890
G1 X-21.746 Y-12 E18.120170
G1 X-20.476 Y-14 E18.211210
G1 X20.477 Y-13.999 E18.399490
G1 X20.092 Y-14.605 E18.490530
G1 X18.938 Y-15.999 E18.678810
G1 X-18.937 Y-16 E18.769850
G1 X-18.114 Y-16.995 E18.958130
G1 X-17.044 Y-18 E19.049170
G1 X17.044 Y-18 E19.237450
G1 X15.828 Y-19.142 E19.328490
G1 X14.647 Y-20 E19.516770
G1 X-14.646 Y-20 E19.607810
G1 X-13.304 Y-20.975 E19.796090
G1 X-11.44 Y-22 E19.887130
G1 X11.441 Y-22 E20.075410
G1 X10.582 Y-22.472 E20.166450
G1 X7.674 Y-23.624 E20.354730
G1 X6.209 Y-24 E20.445770
G1 X-6.208 Y-24 E20.634050
G0 F900 X-6.15 Y-23.768
G0 X-24 Y6.362
G0 F900 X6.208 Y24 Z0.400000
G1 F450 X-6.209 Y24 E20.822330
G1 X-7.674 Y23.624 E20.913370
G1 X-10.582 Y22.472 E21.101650
G1 X-11.441 Y22 E21.192690
G1 X11.44 Y22 E21.380970
G1 X13.304 Y20.975 E21.472010
G1 X14.646 Y20 E21.660290
G1 X-14.647 Y20 E21.751330
G1 X-15.828 Y19.142 E21.939610
G1 X-17.044 Y18 E22.030650
G1 X17.044 Y18 E22.218930
G1 X18.114 Y16.995 E22.309970
G1 X18.937 Y16 E22.498250
G1 X-18.938 Y15.999 E22.589290
G1 X-20.092 Y14.605 E22.777570
G1 X-20.477 Y13.999 E22.868610
G1 X20.476 Y14 E23.056890
G1 X21.746 Y12 E23.147930
G1 X-21.748 Y11.999 E23.336210
G1 X-21.768 Y11.966 E23.427250
G1 X-22.693 Y9.999 E23.615530
G1 X22.691 Y10 E23.706570
G1 X23.096 Y9.139 E23.894850
G1 X23.466 Y8 E23.985890
G1 X-23.468 Y7.999 E24.174170
G0 F900 X-23.764 Y7.086
G1 F450 X-24.078 Y6.086 E24.362450
G0 F900 X-24.095 Y5.999
G1 F450 X24.094 Y6 E24.550730
G1 X24.474 Y4 E24.641770
G1 X-24.476 Y3.999 E24.830050
G1 X-24.642 Y3.123 E24.921090
G1 X-24.713 Y1.999 E25.109370
G1 X24.712 Y2 E25.200410
G1 X24.838 Y0.00 E25.388690
G1 X-24.838 Y0.00 E25.479730
G1 X-24.712 Y-2 E25.668010
G1 X24.713 Y-1.999 E25.759050
G1 X24.642 Y-3.123 E25.947330
G1 X24.476 Y-3.999 E26.038370
G1 X-24.474 Y-4 E26.226650
G1 X-24.094 Y-6 E26.317690
G1 X24.095 Y-5.999 E26.505970
G0 F900 X24.078 Y-6.086
G1 F450 X23.764 Y-7.086 E26.694250
G0 F900 X23.468 Y-7.999
G1 F450 X-23.466 Y-8 E26.882530
G1 X-23.096 Y-9.139 E26.973570
G1 X-22.691 Y-10 E27.161850
G1 X22.693 Y-9.999 E27.252890
G1 X21.768 Y-11.966 E27.441170
G1 X21.748 Y-11.999 E27.532210
G1 X-21.746 Y-12 E27.720490
G1 X-20.476 Y-14 E27.811530
G1 X20.477 Y-13.999 E27.999810
G1 X20.092 Y-14.605 E28.090850
G1 X18.938 Y-15.999 E28.279130
G1 X-18.937 Y-16 E28.370170
G1 X-18.114 Y-16.995 E28.558450
G1 X-17.044 Y-18 E28.649490
G1 X17.044 Y-18 E28.837770
G1 X15.828 Y-19.142 E28.928810
G1 X14.647 Y-20 E29.117090
G1 X-14.646 Y-20 E29.208130
G1 X-13.304 Y-20.975 E29.396410
G1 X-11.44 Y-22 E29.487450
G1 X11.441 Y-22 E29.675730
G1 X10.582 Y-22.472 E29.766770
G1 X7.674 Y-23.624 E29.955050
G1 X6.209 Y-24 E30.046090
G1 X-6.208 Y-24 E30.234370
G0 F900 X-6.15 Y-23.768
G0 X-24 Y6.362
G0 F900 X6.208 Y24 Z0.600000
G1 F450 X-6.209 Y24 E30.422650
G1 X-7.674 Y23.624 E30.513690
G1 X-10.582 Y22.472 E30.701970
G1 X-11.441 Y22 E30.793010
G1 X11.44 Y22 E30.981290
G1 X13.304 Y20.975 E31.072330
G1 X14.646 Y20 E31.260610
G1 X-14.647 Y20 E31.351650
G1 X-15.828 Y19.142 E31.539930
G1 X-17.044 Y18 E31.630970
G1 X17.044 Y18 E31.819250
G1 X18.114 Y16.995 E31.910290
G1 X18.937 Y16 E32.098570
G1 X-18.938 Y15.999 E32.189610
G1 X-20.092 Y14.605 E32.377890
G1 X-20.477 Y13.999 E32.468930
G1 X20.476 Y14 E32.657210
G1 X21.746 Y12 E32.748250
G1 X-21.748 Y11.999 E32.936530
G1 X-21.768 Y11.966 E33.027570
G1 X-22.693 Y9.999 E33.215850
G1 X22.691 Y10 E33.306890
G1 X23.096 Y9.139 E33.495170
G1 X23.466 Y8 E33.586210
G1 X-23.468 Y7.999 E33.774490
G0 F900 X-23.764 Y7.086
G1 F450 X-24.078 Y6.086 E33.962770
G0 F900 X-24.095 Y5.999
G1 F450 X24.094 Y6 E34.151050
G1 X24.474 Y4 E34.242090
G1 X-24.476 Y3.999 E34.430370
G1 X-24.642 Y3.123 E34.521410
G1 X-24.713 Y1.999 E34.709690
G1 X24.712 Y2 E34.800730
G1 X24.838 Y0.00 E34.989010
G1 X-24.838 Y0.00 E35.080050
G1 X-24.712 Y-2 E35.268330
G1 X24.713 Y-1.999 E35.359370
G1 X24.642 Y-3.123 E35.547650
G1 X24.476 Y-3.999 E35.638690
G1 X-24.474 Y-4 E35.826970
G1 X-24.094 Y-6 E35.918010
G1 X24.095 Y-5.999 E36.106290
G0 F900 X24.078 Y-6.086
G1 F450 X23.764 Y-7.086 E36.294570
G0 F900 X23.468 Y-7.999
G1 F450 X-23.466 Y-8 E36.482850
G1 X-23.096 Y-9.139 E36.573890
G1 X-22.691 Y-10 E36.762170
G1 X22.693 Y-9.999 E36.853210
G1 X21.768 Y-11.966 E37.041490
G1 X21.748 Y-11.999 E37.132530
G1 X-21.746 Y-12 E37.320810
G1 X-20.476 Y-14 E37.411850
G1 X20.477 Y-13.999 E37.600130
