;FLAVOR:Marlin
;TIME:378
;Filament used: 0.0634436m
;Layer height: 0.2
;Generated with Cura_SteamEngine 3.6.0
M104 S200
M105
M109 S200
M82 ;absolute extrusion mode
G21 ;metric values
G90 ;absolute positioning
M82 ;set extruder to absolute mode
M107 ;start with the fan off
G28 ;move XYZ to min endstops
G1 Z15.0 F9000 ;move the platform down 15mm
G1 F9000
;Put printing message on LCD screen
M117 Printing...
G92 E0
G1 F1500 E-6.5
;LAYER_COUNT:25
;LAYER:0
M107
G0 F600 X4.991 Y-9.39 Z0.3
;TYPE:SKIRT
G1 F1500 E0
G1 F450 X5.583 Y-9.35 E0.01339
G1 X6.164 Y-9.231 E0.02678
G1 X6.723 Y-9.035 E0.04015
G1 X7.252 Y-8.765 E0.05356
G1 X7.739 Y-8.427 E0.06694
G1 X8.176 Y-8.026 E0.08033
G1 X8.555 Y-7.57 E0.09371
G1 X8.87 Y-7.068 E0.10709
G1 X9.114 Y-6.527 E0.12049
G1 X9.283 Y-5.959 E0.13386
G1 X9.374 Y-5.373 E0.14725
G1 X9.391 Y-4.99 E0.1559
G1 X9.391 Y4.991 E0.3812
G1 X9.351 Y5.583 E0.39459
G1 X9.232 Y6.163 E0.40796
G1 X9.036 Y6.723 E0.42135
G1 X8.766 Y7.251 E0.43474
G1 X8.428 Y7.738 E0.44812
G1 X8.027 Y8.175 E0.46151
G1 X7.572 Y8.555 E0.47489
G1 X7.069 Y8.869 E0.48827
G1 X6.529 Y9.114 E0.50166
G1 X5.96 Y9.283 E0.51506
G1 X5.375 Y9.374 E0.52842
G1 X4.991 Y9.391 E0.5371
G1 X-4.991 Y9.391 E0.76242
G1 X-5.583 Y9.351 E0.77581
G1 X-6.163 Y9.232 E0.78917
G1 X-6.723 Y9.036 E0.80257
G1 X-7.251 Y8.766 E0.81595
G1 X-7.738 Y8.428 E0.82933
G1 X-8.175 Y8.027 E0.84272
G1 X-8.555 Y7.572 E0.8561
G1 X-8.869 Y7.069 E0.86949
G1 X-9.114 Y6.529 E0.88287
G1 X-9.283 Y5.96 E0.89627
G1 X-9.374 Y5.375 E0.90964
G1 X-9.391 Y4.991 E0.91831
G1 X-9.391 Y-4.991 E1.14363
G1 X-9.351 Y-5.583 E1.15703
G1 X-9.232 Y-6.163 E1.17039
G1 X-9.036 Y-6.723 E1.18378
G1 X-8.766 Y-7.251 E1.19717
G1 X-8.428 Y-7.738 E1.21055
G1 X-8.027 Y-8.175 E1.22394
G1 X-7.572 Y-8.555 E1.23732
G1 X-7.069 Y-8.869 E1.2507
G1 X-6.529 Y-9.114 E1.26409
G1 X-5.96 Y-9.283 E1.27749
G1 X-5.375 Y-9.374 E1.29085
G1 X-4.991 Y-9.391 E1.29953
G1 X4.991 Y-9.39 E1.52485
G0 F600 X4.991 Y-8.99
G1 F450 X5.555 Y-8.95 E1.53761
G1 X6.108 Y-8.831 E1.55038
G1 X6.638 Y-8.635 E1.56314
G1 X7.136 Y-8.366 E1.57591
G1 X7.59 Y-8.03 E1.58866
G1 X7.993 Y-7.634 E1.60141
G1 X8.336 Y-7.184 E1.61419
G1 X8.612 Y-6.69 E1.62696
G1 X8.815 Y-6.163 E1.63971
G1 X8.942 Y-5.612 E1.65247
G1 X8.991 Y-4.99 E1.66656
G1 X8.991 Y4.991 E1.89185
G1 X8.951 Y5.555 E1.90462
G1 X8.832 Y6.108 E1.91738
G1 X8.636 Y6.638 E1.93014
G1 X8.368 Y7.135 E1.94289
G1 X8.032 Y7.59 E1.95565
G1 X7.635 Y7.993 E1.96842
G1 X7.185 Y8.335 E1.98118
G1 X6.692 Y8.611 E1.99393
G1 X6.164 Y8.815 E2.00671
G1 X5.614 Y8.942 E2.01945
G1 X4.991 Y8.991 E2.03356
G1 X-4.991 Y8.991 E2.25888
G1 X-5.555 Y8.951 E2.27164
G1 X-6.108 Y8.832 E2.28441
G1 X-6.638 Y8.636 E2.29717
G1 X-7.135 Y8.368 E2.30991
G1 X-7.59 Y8.032 E2.32268
G1 X-7.993 Y7.635 E2.33545
G1 X-8.335 Y7.185 E2.34821
G1 X-8.611 Y6.692 E2.36096
G1 X-8.815 Y6.164 E2.37374
G1 X-8.942 Y5.614 E2.38648
G1 X-8.991 Y4.991 E2.40059
G1 X-8.991 Y-4.991 E2.62591
G1 X-8.951 Y-5.555 E2.63867
G1 X-8.832 Y-6.108 E2.65144
G1 X-8.636 Y-6.638 E2.66419
G1 X-8.368 Y-7.135 E2.67694
G1 X-8.032 Y-7.59 E2.68971
G1 X-7.635 Y-7.993 E2.70248
G1 X-7.185 Y-8.335 E2.71523
G1 X-6.692 Y-8.611 E2.72799
G1 X-6.164 Y-8.815 E2.74076
G1 X-5.614 Y-8.942 E2.75351
G1 X-4.991 Y-8.991 E2.76761
G1 X4.991 Y-8.99 E2.99293
G0 F600 X4.991 Y-8.59
G1 F450 X5.526 Y-8.55 E3.00504
G1 X6.049 Y-8.431 E3.01715
G1 X6.548 Y-8.236 E3.02924
G1 X7.013 Y-7.968 E3.04136
G1 X7.433 Y-7.635 E3.05346
G1 X7.799 Y-7.243 E3.06556
G1 X8.103 Y-6.8 E3.07769
G1 X8.337 Y-6.318 E3.08978
G1 X8.497 Y-5.806 E3.10189
G1 X8.58 Y-5.276 E3.114
G1 X8.591 Y-4.99 E3.12046
G1 X8.591 Y4.991 E3.34576
G1 X8.551 Y5.526 E3.35787
G1 X8.432 Y6.049 E3.36998
G1 X8.237 Y6.548 E3.38207
G1 X7.969 Y7.013 E3.39419
G1 X7.636 Y7.433 E3.40628
G1 X7.244 Y7.799 E3.41839
G1 X6.802 Y8.102 E3.43049
G1 X6.319 Y8.337 E3.44261
G1 X5.808 Y8.497 E3.4547
G1 X5.278 Y8.58 E3.46681
G1 X4.991 Y8.591 E3.47329
G1 X-4.991 Y8.591 E3.69861
G1 X-5.526 Y8.551 E3.71072
G1 X-6.049 Y8.432 E3.72283
G1 X-6.548 Y8.237 E3.73492
G1 X-7.013 Y7.969 E3.74704
G1 X-7.433 Y7.636 E3.75914
G1 X-7.799 Y7.244 E3.77124
G1 X-8.102 Y6.802 E3.78334
G1 X-8.337 Y6.319 E3.79546
G1 X-8.497 Y5.808 E3.80755
G1 X-8.58 Y5.278 E3.81966
G1 X-8.591 Y4.991 E3.82614
G1 X-8.591 Y-4.991 E4.05146
G1 X-8.551 Y-5.526 E4.06357
G1 X-8.432 Y-6.049 E4.07568
G1 X-8.237 Y-6.548 E4.08777
G1 X-7.969 Y-7.013 E4.09989
G1 X-7.636 Y-7.433 E4.11199
G1 X-7.244 Y-7.799 E4.12409
G1 X-6.802 Y-8.102 E4.13619
G1 X-6.319 Y-8.337 E4.14831
G1 X-5.808 Y-8.497 E4.1604
G1 X-5.278 Y-8.58 E4.17251
G1 X-4.991 Y-8.591 E4.17899
G1 X4.991 Y-8.59 E4.40431
G0 F600 X4.991 Y-8.19
G1 F450 X5.495 Y-8.15 E4.41572
G1 X5.987 Y-8.031 E4.42715
G1 X6.453 Y-7.836 E4.43855
G1 X6.883 Y-7.571 E4.44995
G1 X7.266 Y-7.24 E4.46138
G1 X7.592 Y-6.854 E4.47279
G1 X7.853 Y-6.421 E4.4842
G1 X8.043 Y-5.952 E4.49562
G1 X8.156 Y-5.46 E4.50702
G1 X8.191 Y-4.99 E4.51765
G1 X8.191 Y4.991 E4.74295
G1 X8.151 Y5.495 E4.75436
G1 X8.032 Y5.986 E4.76577
G1 X7.838 Y6.453 E4.77718
G1 X7.572 Y6.883 E4.7886
G1 X7.242 Y7.266 E4.80001
G1 X6.855 Y7.592 E4.81143
G1 X6.422 Y7.853 E4.82284
G1 X5.954 Y8.043 E4.83424
G1 X5.461 Y8.156 E4.84566
G1 X4.991 Y8.191 E4.8563
G1 X-4.991 Y8.191 E5.08162
G1 X-5.495 Y8.151 E5.09303
G1 X-5.986 Y8.032 E5.10444
G1 X-6.453 Y7.838 E5.11585
G1 X-6.883 Y7.572 E5.12726
G1 X-7.266 Y7.242 E5.13868
G1 X-7.592 Y6.855 E5.1501
G1 X-7.853 Y6.422 E5.16151
G1 X-8.043 Y5.954 E5.17291
G1 X-8.156 Y5.461 E5.18433
G1 X-8.191 Y4.991 E5.19497
G1 X-8.191 Y-4.991 E5.42029
G1 X-8.151 Y-5.495 E5.4317
G1 X-8.032 Y-5.986 E5.4431
G1 X-7.838 Y-6.453 E5.45452
G1 X-7.572 Y-6.883 E5.46593
G1 X-7.242 Y-7.266 E5.47734
G1 X-6.855 Y-7.592 E5.48877
G1 X-6.422 Y-7.853 E5.50018
G1 X-5.954 Y-8.043 E5.51158
G1 X-5.461 Y-8.156 E5.523
G1 X-4.991 Y-8.191 E5.53363
G1 X4.991 Y-8.19 E5.75896
G1 F1500 E-0.74104
;MESH:rectangle_w_hole_5mm_height.STL
G0 F600 X4.991 Y-5.665
G0 X4.991 Y-4.98
G0 X4.8 Y-4.9
G0 X4.8 Y-5.04
;TYPE:FILL
G1 F1500 E5.75896
G1 F450 X4.8 Y5.04 E5.98649
G0 F600 X5.04 Y4.8
G1 F450 X-5.04 Y4.8 E6.21402
G0 F600 X-4.8 Y5.04
G1 F450 X-4.8 Y-5.04 E6.44155
G0 F600 X-5.04 Y-4.8
G1 F450 X5.04 Y-4.8 E6.66909
G1 X5.14 Y-4.8
G0 F600 X4.9 Y-4.8
G0 X4.9 Y-3.599
G0 X5.04 Y-3.599
G1 F450 X-5.04 Y-3.6 E6.89662
G1 X-5.14 Y-3.6
G0 F600 X-4.9 Y-3.6
G0 X-4.9 Y-2.4
G0 X-5.04 Y-2.4
G1 F450 X-.517 Y-2.4 E6.99871
G0 F600 X0.00 Y-2.452
G1 F450 X0.00 Y-5.04 E7.05713
G1 X0.00 Y-5.14
G0 F600 X0.00 Y-4.9
G0 X1.2 Y-4.9
G0 X1.2 Y-5.04
G1 F450 X1.2 Y-2.144 E7.1225
G0 F600 X0.532 Y-2.4
G1 F450 X5.04 Y-2.399 E7.22426
G1 X5.14 Y-2.399
G0 F600 X4.9 Y-2.399
G0 X4.9 Y-1.199
G0 X5.04 Y-1.199
G1 F450 X2.138 Y-1.199 E7.28977
G0 F600 X2.4 Y-.507
G1 F450 X2.4 Y-5.04 E7.39209
G1 X2.4 Y-5.14
G0 F600 X2.4 Y-4.9
G0 X3.6 Y-4.9
G0 X3.6 Y-5.04
G1 F450 X3.6 Y5.04 E7.61962
G1 X3.6 Y5.14
G0 F600 X3.6 Y4.9
G0 X2.4 Y4.9
G0 X2.4 Y5.04
G1 F450 X2.4 Y0.502 E7.72206
G0 F600 X2.459 Y0.00
G1 F450 X5.04 Y0.00 E7.78032
G1 X5.14 Y0.00
G0 F600 X4.9 Y0.00
G0 X4.9 Y1.2
G0 X5.04 Y1.2
G1 F450 X2.138 Y1.2 E7.84582
G1 X2.038 Y1.2
G0 F600 X2.235 Y1.313
G0 X1.26 Y2.27
G0 X1.2 Y2.143
G1 F450 X1.2 Y5.04 E7.91121
G1 X1.2 Y5.14
G0 F600 X1.2 Y4.9
G0 X0.00 Y4.9
G0 X0.00 Y5.04
G1 F450 X0.00 Y2.452 E7.96963
G0 F600 X0.517 Y2.4
G1 F450 X5.04 Y2.4 E8.07173
G1 X5.14 Y2.4
G0 F600 X4.9 Y2.4
G0 X4.9 Y3.6
G0 X5.04 Y3.6
G1 F450 X-5.04 Y3.599 E8.29926
G1 X-5.14 Y3.599
G0 F600 X-4.9 Y3.599
G0 X-4.9 Y2.399
G0 X-5.04 Y2.399
G1 F450 X-.532 Y2.4 E8.40102
G0 F600 X-1.2 Y2.144
G1 F450 X-1.2 Y5.04 E8.46639
G1 X-1.2 Y5.14
G0 F600 X-1.2 Y4.9
G0 X-2.4 Y4.9
G0 X-2.4 Y5.04
G1 F450 X-2.4 Y0.505 E8.56876
G0 F600 X-2.46 Y0.00
G1 F450 X-5.04 Y0.00 E8.62699
G1 X-5.14 Y0.00
G0 F600 X-4.9 Y0.00
G0 X-4.9 Y1.199
G0 X-5.04 Y1.199
G1 F450 X-2.138 Y1.199 E8.6925
G1 X-2.038 Y1.199
G0 F600 X-2.235 Y1.312
G0 X-2.481 Y0.483
G0 X-2.536 Y-.534
G0 X-2.4 Y-.503
G1 F450 X-2.4 Y-5.04 E8.79491
G1 X-2.4 Y-5.14
G0 F600 X-2.4 Y-4.9
G0 X-3.6 Y-4.9
G0 X-3.6 Y-5.04
G1 F450 X-3.6 Y5.04 E9.02244
G1 X-3.6 Y5.14
G0 F600 X-3.6 Y4.9
G0 X-4.9 Y-1.2
G0 X-5.04 Y-1.2
G1 F450 X-2.138 Y-1.2 E9.08795
G1 X-2.038 Y-1.2
G0 F600 X-2.235 Y-1.313
G0 X-1.26 Y-2.27
G0 X-1.2 Y-2.143
G1 F450 X-1.2 Y-5.04 E9.15334
G1 X-1.2 Y-5.14
G0 F600 X-1.2 Y-4.6
;MESH:NONMESH
G0 X1.273 Y-2.28
G0 X2.26 Y-1.269
G0 X2.138 Y-1.199
;TIME_ELAPSED:67.785544
;LAYER:1
M106 S255
;MESH:rectangle_w_hole_5mm_height.STL
G0 F900 X2.138 Y-1.199 Z0.5
;TYPE:FILL
G1 F675 X5.04 Y-1.199 E9.19701
G1 X5.14 Y-1.199
G0 F900 X4.9 Y-1.199
G0 X4.9 Y0.00
G0 X5.04 Y0.00
G1 F675 X2.457 Y0.00 E9.23588
G0 F900 X2.4 Y-.502
G1 F675 X2.4 Y-5.04 E9.30417
G1 X2.4 Y-5.14
G0 F900 X2.4 Y-4.9
G0 X3.6 Y-4.9
G0 X3.6 Y-5.04
G1 F675 X3.599 Y5.04 E9.45586
G1 X3.599 Y5.14
G0 F900 X3.599 Y4.9
G0 X2.399 Y4.9
G0 X2.399 Y5.04
G1 F675 X2.4 Y0.508 E9.52406
G0 F900 X2.14 Y1.2
G1 F675 X5.04 Y1.2 E9.5677
G1 X5.14 Y1.2
G0 F900 X4.9 Y1.2
G0 X4.9 Y2.4
G0 X5.04 Y2.4
G1 F675 X0.532 Y2.4 E9.63554
G0 F900 X0.00 Y2.453
G1 F675 X0.00 Y5.04 E9.67447
G1 X0.00 Y5.14
G0 F900 X0.00 Y4.9
G0 X1.199 Y4.9
G0 X1.199 Y5.04
G1 F675 X1.199 Y2.145 E9.71804
G1 X1.199 Y2.045
G0 F900 X1.326 Y2.233
G0 X0.564 Y2.475
G0 X-.553 Y2.537
G0 X-.531 Y2.4
G1 F675 X-5.04 Y2.399 E9.78589
G1 X-5.14 Y2.399
G0 F900 X-4.9 Y2.399
G0 X-4.9 Y3.599
G0 X-5.04 Y3.599
G1 F675 X5.04 Y3.6 E9.93758
G1 X5.14 Y3.6
G0 F900 X4.9 Y3.6
G0 X4.9 Y4.8
G0 X5.04 Y4.8
G1 F675 X-5.04 Y4.8 E10.08927
G0 F900 X-4.8 Y5.039
G1 F675 X-4.799 Y-5.04 E10.24094
G0 F900 X-5.04 Y-4.8
G1 F675 X5.04 Y-4.8 E10.39263
G0 F900 X4.8 Y-5.039
G1 F675 X4.799 Y5.04 E10.5443
G1 X4.799 Y5.14
G0 F900 X4.799 Y4.9
G0 X-1.2 Y4.9
G0 X-1.2 Y5.04
G1 F675 X-1.2 Y2.145 E10.58787
G1 X-1.2 Y2.045
G0 F900 X-1.327 Y2.232
G0 X-2.261 Y1.268
G0 X-2.14 Y1.199
G1 F675 X-5.04 Y1.199 E10.63151
G1 X-5.14 Y1.199
G0 F900 X-4.9 Y1.199
G0 X-4.9 Y0.00
G0 X-5.04 Y0.00
G1 F675 X-2.461 Y0.00 E10.67032
G0 F900 X-2.4 Y0.506
G1 F675 X-2.4 Y5.04 E10.73855
G1 X-2.4 Y5.14
G0 F900 X-2.4 Y4.9
G0 X-3.6 Y4.9
G0 X-3.6 Y5.04
G1 F675 X-3.599 Y-5.04 E10.89023
G1 X-3.599 Y-5.14
G0 F900 X-3.599 Y-4.9
G0 X-2.399 Y-4.9
G0 X-2.399 Y-5.04
G1 F675 X-2.4 Y-.507 E10.95845
G0 F900 X-2.14 Y-1.2
G1 F675 X-5.04 Y-1.2 E11.00209
G1 X-5.14 Y-1.2
G0 F900 X-4.9 Y-1.2
G0 X-4.9 Y-2.4
G0 X-5.04 Y-2.4
G1 F675 X-.532 Y-2.4 E11.06993
G0 F900 X0.00 Y-2.453
G1 F675 X0.00 Y-5.04 E11.10886
G1 X0.00 Y-5.14
G0 F900 X0.00 Y-4.9
G0 X-1.199 Y-4.9
G0 X-1.199 Y-5.04
G1 F675 X-1.199 Y-2.145 E11.15242
G1 X-1.199 Y-2.045
G0 F900 X-1.326 Y-2.233
G0 X-.564 Y-2.475
G0 X0.553 Y-2.537
G0 X0.531 Y-2.4
G1 F675 X5.04 Y-2.399 E11.22028
G1 X5.14 Y-2.399
G0 F900 X4.9 Y-2.399
G0 X4.9 Y-3.599
G0 X5.04 Y-3.599
G1 F675 X-5.04 Y-3.6 E11.37197
G1 X-5.14 Y-3.6
G0 F900 X-4.9 Y-3.6
G0 X1.2 Y-4.9
G0 X1.2 Y-5.04
G1 F675 X1.2 Y-2.145 E11.41553
G1 X1.2 Y-2.045
G0 F900 X1.496 Y-2.481
;MESH:NONMESH
G0 X2.272 Y-1.128
G0 X2.48 Y-.48
G0 X2.536 Y0.538
G0 X2.4 Y0.506
;TIME_ELAPSED:84.633480
;LAYER:2
;MESH:rectangle_w_hole_5mm_height.STL
G0 F1200 X2.4 Y0.506 Z0.7
;TYPE:FILL
G1 F900 X2.4 Y5.04 E11.48376
G1 X2.4 Y5.14
G0 F1200 X2.4 Y4.9
G0 X3.6 Y4.9
G0 X3.6 Y5.04
G1 F900 X3.6 Y-5.04 E11.63545
G1 X3.6 Y-5.14
G0 F1200 X3.6 Y-4.9
G0 X2.4 Y-4.9
G0 X2.4 Y-5.04
G1 F900 X2.4 Y-.509 E11.70363
G0 F1200 X2.461 Y0.00
G1 F900 X5.04 Y0.00 E11.74244
G1 X5.14 Y0.00
G0 F1200 X4.9 Y0.00
G0 X4.9 Y-1.199
G0 X5.04 Y-1.199
G1 F900 X2.14 Y-1.199 E11.78608
G1 X2.04 Y-1.199
G0 F1200 X2.236 Y-1.312
G0 X2.511 Y-.378
G0 X2.511 Y0.302
G0 X2.26 Y1.27
G0 X2.14 Y1.2
G1 F900 X5.04 Y1.2 E11.82972
G1 X5.14 Y1.2
G0 F1200 X4.9 Y1.2
G0 X4.9 Y2.4
G0 X5.04 Y2.4
G1 F900 X0.532 Y2.4 E11.89756
G0 F1200 X0.00 Y2.453
G1 F900 X0.00 Y5.04 E11.93649
G1 X0.00 Y5.14
G0 F1200 X0.00 Y4.9
G0 X1.2 Y4.9
G0 X1.2 Y5.04
G1 F900 X1.2 Y2.145 E11.98006
G1 X1.2 Y2.045
G0 F1200 X1.327 Y2.233
G0 X0.564 Y2.475
G0 X-.553 Y2.537
G0 X-.531 Y2.4
G1 F900 X-5.04 Y2.399 E12.04791
G1 X-5.14 Y2.399
G0 F1200 X-4.9 Y2.399
G0 X-4.9 Y3.599
G0 X-5.04 Y3.599
G1 F900 X5.04 Y3.6 E12.1996
G1 X5.14 Y3.6
G0 F1200 X4.9 Y3.6
G0 X4.9 Y4.8
G0 X5.04 Y4.8
G1 F900 X-5.04 Y4.8 E12.35129
G0 F1200 X-4.8 Y5.04
G1 F900 X-4.8 Y-5.04 E12.50298
G0 F1200 X-5.04 Y-4.8
G1 F900 X5.04 Y-4.8 E12.65466
G0 F1200 X4.8 Y-5.04
G1 F900 X4.8 Y5.04 E12.80635
G1 X4.8 Y5.14
G0 F1200 X4.8 Y4.9
G0 X-1.2 Y4.9
G0 X-1.2 Y5.04
G1 F900 X-1.2 Y2.146 E12.8499
G1 X-1.2 Y2.046
G0 F1200 X-1.327 Y2.232
G0 X-2.261 Y1.268
G0 X-2.14 Y1.199
G1 F900 X-5.04 Y1.199 E12.89354
G1 X-5.14 Y1.199
G0 F1200 X-4.9 Y1.199
G0 X-4.9 Y0.00
G0 X-5.04 Y0.00
G1 F900 X-2.461 Y0.00 E12.93235
G0 F1200 X-2.4 Y0.507
G1 F900 X-2.4 Y5.04 E13.00057
G1 X-2.4 Y5.14
G0 F1200 X-2.4 Y4.9
G0 X-3.6 Y4.9
G0 X-3.6 Y5.04
G1 F900 X-3.6 Y-5.04 E13.15226
G1 X-3.6 Y-5.14
G0 F1200 X-3.6 Y-4.9
G0 X-2.4 Y-4.9
G0 X-2.4 Y-5.04
G1 F900 X-2.4 Y-.508 E13.22046
G0 F1200 X-2.14 Y-1.2
G1 F900 X-5.04 Y-1.2 E13.2641
G1 X-5.14 Y-1.2
G0 F1200 X-4.9 Y-1.2
G0 X-4.9 Y-2.4
G0 X-5.04 Y-2.4
G1 F900 X-.532 Y-2.4 E13.33193
G0 F1200 X0.00 Y-2.453
G1 F900 X0.00 Y-5.04 E13.37087
G1 X0.00 Y-5.14
G0 F1200 X0.00 Y-4.9
G0 X1.2 Y-4.9
G0 X1.2 Y-5.04
G1 F900 X1.2 Y-2.146 E13.41442
G0 F1200 X0.531 Y-2.4
G1 F900 X5.04 Y-2.399 E13.48227
G1 X5.14 Y-2.399
G0 F1200 X4.9 Y-2.399
G0 X4.9 Y-3.599
G0 X5.04 Y-3.599
G1 F900 X-5.04 Y-3.6 E13.63396
G1 X-5.14 Y-3.6
G0 F1200 X-4.9 Y-3.6
G0 X-1.2 Y-4.9
G0 X-1.2 Y-5.04
G1 F900 X-1.2 Y-2.145 E13.67752
G1 X-1.2 Y-2.045
G0 F1200 X-1.496 Y-2.482
;MESH:NONMESH
G0 X0.19 Y-2.532
G0 X0.927 Y-2.364
G0 X1.583 Y-1.986
G0 X2.099 Y-1.43
G0 X2.427 Y-.748
G0 X2.49 Y-.325
G0 X2.536 Y0.537
G0 X2.4 Y0.505
;TIME_ELAPSED:97.392919
;LAYER:3
;MESH:rectangle_w_hole_5mm_height.STL
G0 X2.4 Y0.505 Z0.9
;TYPE:FILL
G1 F900 X2.399 Y5.04 E13.74577
G1 X2.399 Y5.14
G0 F1200 X2.399 Y4.9
G0 X3.599 Y4.9
G0 X3.599 Y5.04
G1 F900 X3.6 Y-5.04 E13.89746
G1 X3.6 Y-5.14
G0 F1200 X3.6 Y-4.9
G0 X2.4 Y-4.9
G0 X2.4 Y-5.04
G1 F900 X2.4 Y-.508 E13.96565
G0 F1200 X2.461 Y0.00
G1 F900 X5.04 Y0.00 E14.00446
G1 X5.14 Y0.00
G0 F1200 X4.9 Y0.00
G0 X4.9 Y-1.199
G0 X5.04 Y-1.199
G1 F900 X2.14 Y-1.199 E14.04811
G1 X2.04 Y-1.199
G0 F1200 X2.236 Y-1.312
G0 X2.511 Y-.378
G0 X2.511 Y0.302
G0 X2.26 Y1.27
G0 X2.14 Y1.2
G1 F900 X5.04 Y1.2 E14.09175
G1 X5.14 Y1.2
G0 F1200 X4.9 Y1.2
G0 X4.9 Y2.4
G0 X5.04 Y2.4
G1 F900 X0.532 Y2.4 E14.15958
G0 F1200 X0.00 Y2.453
G1 F900 X0.00 Y5.04 E14.19851
G1 X0.00 Y5.14
G0 F1200 X0.00 Y4.9
G0 X1.199 Y4.9
G0 X1.199 Y5.04
G1 F900 X1.199 Y2.145 E14.24208
G1 X1.199 Y2.045
G0 F1200 X1.326 Y2.233
G0 X0.564 Y2.475
G0 X-.553 Y2.537
G0 X-.531 Y2.4
G1 F900 X-5.04 Y2.399 E14.30993
G1 X-5.14 Y2.399
G0 F1200 X-4.9 Y2.399
G0 X-4.9 Y3.599
G0 X-5.04 Y3.599
G1 F900 X5.04 Y3.6 E14.46162
G1 X5.14 Y3.6
G0 F1200 X4.9 Y3.6
G0 X4.9 Y4.8
G0 X5.04 Y4.8
G1 F900 X-5.04 Y4.8 E14.61331
G0 F1200 X-4.8 Y5.039
G1 F900 X-4.799 Y-5.04 E14.76498
G0 F1200 X-5.04 Y-4.8
G1 F900 X5.04 Y-4.8 E14.91667
G0 F1200 X4.8 Y-5.039
G1 F900 X4.799 Y5.04 E15.06834
G1 X4.799 Y5.14
G0 F1200 X4.799 Y4.9
G0 X-1.2 Y4.9
G0 X-1.2 Y5.04
G1 F900 X-1.2 Y2.145 E15.11191
G1 X-1.2 Y2.045
G0 F1200 X-1.327 Y2.232
G0 X-2.261 Y1.268
G0 X-2.14 Y1.199
G1 F900 X-5.04 Y1.199 E15.15555
G1 X-5.14 Y1.199
G0 F1200 X-4.9 Y1.199
G0 X-4.9 Y0.00
G0 X-5.04 Y0.00
G1 F900 X-2.461 Y0.00 E15.19436
G0 F1200 X-2.4 Y0.506
G1 F900 X-2.4 Y5.04 E15.26259
G1 X-2.4 Y5.14
G0 F1200 X-2.4 Y4.9
G0 X-3.6 Y4.9
G0 X-3.6 Y5.04
G1 F900 X-3.599 Y-5.04 E15.41428
G1 X-3.599 Y-5.14
G0 F1200 X-3.599 Y-4.9
G0 X-2.399 Y-4.9
G0 X-2.399 Y-5.04
G1 F900 X-2.4 Y-.507 E15.48249
G0 F1200 X-2.14 Y-1.2
G1 F900 X-5.04 Y-1.2 E15.52613
G1 X-5.14 Y-1.2
G0 F1200 X-4.9 Y-1.2
G0 X-4.9 Y-2.4
G0 X-5.04 Y-2.4
G1 F900 X-.532 Y-2.4 E15.59397
G0 F1200 X0.00 Y-2.453
G1 F900 X0.00 Y-5.04 E15.6329
G1 X0.00 Y-5.14
G0 F1200 X0.00 Y-4.9
G0 X-1.199 Y-4.9
G0 X-1.199 Y-5.04
G1 F900 X-1.199 Y-2.145 E15.67647
G1 X-1.199 Y-2.045
G0 F1200 X-1.326 Y-2.233
G0 X-.564 Y-2.475
G0 X0.553 Y-2.537
G0 X0.531 Y-2.4
G1 F900 X5.04 Y-2.399 E15.74432
G1 X5.14 Y-2.399
G0 F1200 X4.9 Y-2.399
G0 X4.9 Y-3.599
G0 X5.04 Y-3.599
G1 F900 X-5.04 Y-3.6 E15.89601
G1 X-5.14 Y-3.6
G0 F1200 X-4.9 Y-3.6
G0 X1.2 Y-4.9
G0 X1.2 Y-5.04
G1 F900 X1.2 Y-2.145 E15.93957
G1 X1.2 Y-2.045
G0 F1200 X1.496 Y-2.481
;MESH:NONMESH
G0 X2.288 Y-1.102
G0 X2.468 Y-.517
G0 X2.536 Y0.538
G0 X2.4 Y0.506
;TIME_ELAPSED:110.216969
;LAYER:4
