;FLAVOR:Marlin
;TIME:137
;Filament used: 0.0114468m
;Layer height: 0.8
;Generated with Cura_SteamEngine 3.6.0
M104 S200
M105
M109 S200
M82 ;absolute extrusion mode
G21 ;metric values
G90 ;absolute positioning
M82 ;set extruder to absolute mode
M107 ;start with the fan off
G28 ;move XYZ to min endstops
G1 Z15.0 F9000 ;move the platform down 15mm
G1 F9000
;Put printing message on LCD screen
M117 Printing...
G92 E0
G1 F1500 E-6.5
;LAYER_COUNT:14
;LAYER:0
M107
G0 F600 X2.602 Y7.199 Z0.3
;TYPE:SKIRT
G1 F1500 E0
G1 F150 X1.997 Y7.42 E0.01454
G1 X1.368 Y7.565 E0.02911
G1 X0.783 Y7.628 E0.04239
G1 X0.001 Y7.668 E0.06007
G1 X-.644 Y7.661 E0.07463
G1 X-1.283 Y7.574 E0.08918
G1 X-1.783 Y7.449 E0.10082
G1 X-2.681 Y7.175 E0.12201
G1 X-3.284 Y6.949 E0.13655
G1 X-3.855 Y6.65 E0.15109
G1 X-4.173 Y6.441 E0.15968
G1 X-4.704 Y6.064 E0.17438
G1 X-5.206 Y5.659 E0.18894
G1 X-5.56 Y5.302 E0.20029
G1 X-5.856 Y4.973 E0.21028
G1 X-6.256 Y4.468 E0.22482
G1 X-6.486 Y4.107 E0.23449
G1 X-6.78 Y3.601 E0.2477
G1 X-7.069 Y3.025 E0.26224
G1 X-7.318 Y2.293 E0.2797
G1 X-7.511 Y1.548 E0.29707
G1 X-7.634 Y0.915 E0.31162
G1 X-7.677 Y0.272 E0.32617
G1 X-7.656 Y-.224 E0.33738
G1 X-7.572 Y-1.154 E0.35845
G1 X-7.474 Y-1.791 E0.373
G1 X-7.298 Y-2.411 E0.38755
G1 X-7.012 Y-3.075 E0.40387
G1 X-6.56 Y-3.949 E0.42608
G1 X-6.229 Y-4.502 E0.44063
G1 X-5.657 Y-5.197 E0.46095
G1 X-5.335 Y-5.526 E0.47134
G1 X-4.857 Y-5.958 E0.48588
G1 X-4.551 Y-6.183 E0.49445
G1 X-4.078 Y-6.506 E0.50738
G1 X-3.525 Y-6.836 E0.52192
G1 X-2.934 Y-7.095 E0.53648
G1 X-2.546 Y-7.22 E0.54569
G1 X-1.573 Y-7.492 E0.56849
G1 X-.943 Y-7.627 E0.58303
G1 X-.3 Y-7.682 E0.5976
G1 X0.278 Y-7.664 E0.61066
G1 X1.047 Y-7.597 E0.62808
G1 X1.685 Y-7.502 E0.64264
G1 X2.425 Y-7.285 E0.66005
G1 X2.976 Y-7.078 E0.67333
G1 X3.564 Y-6.814 E0.68788
G1 X4.115 Y-6.48 E0.70243
G1 X4.43 Y-6.243 E0.71132
G1 X5.215 Y-5.604 E0.73417
G1 X5.689 Y-5.167 E0.74872
G1 X6.105 Y-4.674 E0.76329
G1 X6.549 Y-3.964 E0.78219
G1 X7.014 Y-3.067 E0.80499
G1 X7.274 Y-2.478 E0.81953
G1 X7.46 Y-1.86 E0.8341
G1 X7.56 Y-1.295 E0.84705
G1 X7.651 Y-.538 E0.86426
G1 X7.688 Y0.106 E0.87882
G1 X7.627 Y0.875 E0.89623
G1 X7.537 Y1.459 E0.90957
G1 X7.4 Y2.089 E0.92412
G1 X7.126 Y2.832 E0.942
G1 X6.799 Y3.546 E0.95973
G1 X6.495 Y4.115 E0.97429
G1 X6.122 Y4.641 E0.98884
G1 X5.802 Y5.003 E0.99975
G1 X5.171 Y5.653 E1.0202
G1 X4.694 Y6.087 E1.03475
G1 X4.167 Y6.458 E1.0493
G1 X3.525 Y6.795 E1.06567
G1 X2.602 Y7.199 E1.08841
G0 F600 X2.442 Y6.832
G1 F150 X1.859 Y7.043 E1.10241
G1 X1.255 Y7.178 E1.11638
G1 X0.762 Y7.229 E1.12757
G1 X-0.02 Y7.269 E1.14524
G1 X-.639 Y7.26 E1.15921
G1 X-1.252 Y7.172 E1.17319
G1 X-1.666 Y7.066 E1.18284
G1 X-2.564 Y6.792 E1.20403
G1 X-3.143 Y6.573 E1.21801
G1 X-3.942 Y6.115 E1.23879
G1 X-4.473 Y5.738 E1.25349
G1 X-4.954 Y5.347 E1.26749
G1 X-5.262 Y5.034 E1.2774
G1 X-5.558 Y4.705 E1.28739
G1 X-5.942 Y4.219 E1.30137
G1 X-6.14 Y3.906 E1.30973
G1 X-6.434 Y3.4 E1.32294
G1 X-6.71 Y2.846 E1.33691
G1 X-6.931 Y2.193 E1.35247
G1 X-7.124 Y1.448 E1.36984
G1 X-7.24 Y0.839 E1.38384
G1 X-7.277 Y0.221 E1.39781
G1 X-7.258 Y-.188 E1.40705
G1 X-7.174 Y-1.118 E1.42813
G1 X-7.078 Y-1.73 E1.44212
G1 X-6.905 Y-2.324 E1.45608
G1 X-6.657 Y-2.891 E1.47005
G1 X-6.205 Y-3.765 E1.49226
G1 X-5.885 Y-4.296 E1.50626
G1 X-5.371 Y-4.917 E1.52445
G1 X-5.049 Y-5.246 E1.53484
G1 X-4.589 Y-5.66 E1.54881
G1 X-4.326 Y-5.853 E1.55618
G1 X-3.853 Y-6.176 E1.56911
G1 X-3.32 Y-6.491 E1.58308
G1 X-2.751 Y-6.736 E1.59706
G1 X-2.438 Y-6.835 E1.60448
G1 X-1.465 Y-7.107 E1.62728
G1 X-.859 Y-7.235 E1.64126
G1 X-.242 Y-7.284 E1.65523
G1 X0.244 Y-7.266 E1.66621
G1 X1.013 Y-7.199 E1.68363
G1 X1.625 Y-7.105 E1.69761
G1 X2.284 Y-6.91 E1.71312
G1 X2.835 Y-6.703 E1.72641
G1 X3.4 Y-6.449 E1.74039
G1 X3.927 Y-6.123 E1.75438
G1 X4.177 Y-5.933 E1.76147
G1 X4.962 Y-5.294 E1.78432
G1 X5.416 Y-4.872 E1.79831
G1 X5.812 Y-4.396 E1.81229
G1 X6.193 Y-3.78 E1.82863
G1 X6.658 Y-2.883 E1.85144
G1 X6.907 Y-2.316 E1.86542
G1 X7.081 Y-1.722 E1.87939
G1 X7.163 Y-1.247 E1.89027
G1 X7.254 Y-.49 E1.90748
G1 X7.288 Y0.129 E1.92148
G1 X7.232 Y0.814 E1.93699
G1 X7.142 Y1.398 E1.95033
G1 X7.008 Y2.003 E1.96432
G1 X6.762 Y2.666 E1.98028
G1 X6.435 Y3.38 E1.998
G1 X6.141 Y3.925 E2.01198
G1 X5.78 Y4.428 E2.02596
G1 X5.515 Y4.724 E2.03493
G1 X4.884 Y5.374 E2.05537
G1 X4.425 Y5.79 E2.06936
G1 X3.916 Y6.143 E2.08334
G1 X3.365 Y6.428 E2.09734
G1 X2.442 Y6.832 E2.12009
G0 F600 X2.281 Y6.466
G1 F150 X1.723 Y6.666 E2.13347
G1 X1.143 Y6.79 E2.14685
G1 X0.742 Y6.829 E2.15595
G1 X-0.04 Y6.869 E2.17362
G1 X-.633 Y6.86 E2.18701
G1 X-1.219 Y6.77 E2.20039
G1 X-1.549 Y6.683 E2.2081
G1 X-2.447 Y6.409 E2.22929
G1 X-3.001 Y6.199 E2.24266
G1 X-3.71 Y5.789 E2.26115
G1 X-4.241 Y5.412 E2.27585
G1 X-4.7 Y5.037 E2.28923
G1 X-4.965 Y4.767 E2.29777
G1 X-5.261 Y4.438 E2.30776
G1 X-5.627 Y3.971 E2.32115
G1 X-5.794 Y3.705 E2.32824
G1 X-6.088 Y3.199 E2.34145
G1 X-6.351 Y2.668 E2.35483
G1 X-6.543 Y2.092 E2.36853
G1 X-6.736 Y1.347 E2.3859
G1 X-6.846 Y0.765 E2.39927
G1 X-6.876 Y0.173 E2.41265
G1 X-6.859 Y-.152 E2.42
G1 X-6.775 Y-1.082 E2.44108
G1 X-6.682 Y-1.667 E2.45445
G1 X-6.511 Y-2.235 E2.46784
G1 X-6.301 Y-2.707 E2.4795
G1 X-5.849 Y-3.581 E2.50171
G1 X-5.542 Y-4.088 E2.51509
G1 X-5.086 Y-4.638 E2.53122
G1 X-4.764 Y-4.967 E2.54161
G1 X-4.1 Y-5.523 E2.56116
G1 X-3.627 Y-5.846 E2.57408
G1 X-3.116 Y-6.146 E2.58746
G1 X-2.331 Y-6.45 E2.60646
G1 X-1.358 Y-6.722 E2.62927
G1 X-.777 Y-6.842 E2.64266
G1 X-.186 Y-6.884 E2.65603
G1 X0.209 Y-6.867 E2.66496
G1 X0.978 Y-6.8 E2.68238
G1 X1.564 Y-6.709 E2.69577
G1 X2.143 Y-6.536 E2.70941
G1 X2.694 Y-6.329 E2.72269
G1 X3.234 Y-6.083 E2.73609
G1 X3.925 Y-5.622 E2.75484
G1 X4.71 Y-4.983 E2.77769
G1 X5.143 Y-4.579 E2.79106
G1 X5.519 Y-4.12 E2.80445
G1 X5.838 Y-3.596 E2.8183
G1 X6.303 Y-2.699 E2.8411
G1 X6.54 Y-2.155 E2.8545
G1 X6.702 Y-1.585 E2.86787
G1 X6.766 Y-1.199 E2.8767
G1 X6.857 Y-.442 E2.89392
G1 X6.887 Y0.15 E2.9073
G1 X6.837 Y0.753 E2.92095
G1 X6.747 Y1.337 E2.93429
G1 X6.617 Y1.916 E2.94769
G1 X6.398 Y2.499 E2.96174
G1 X6.071 Y3.213 E2.97947
G1 X5.789 Y3.734 E2.99284
G1 X5.439 Y4.213 E3.00623
G1 X5.228 Y4.446 E3.01333
G1 X4.597 Y5.096 E3.03378
G1 X4.156 Y5.492 E3.04716
G1 X3.666 Y5.826 E3.06054
G1 X3.204 Y6.062 E3.07225
G1 X2.281 Y6.466 E3.095
G0 F600 X2.121 Y6.099
G1 F150 X1.588 Y6.289 E3.10777
G1 X1.034 Y6.401 E3.12053
G1 X0.721 Y6.43 E3.12762
G1 X-0.061 Y6.47 E3.1453
G1 X-.626 Y6.459 E3.15805
G1 X-1.432 Y6.301 E3.17659
G1 X-2.33 Y6.027 E3.19779
G1 X-2.858 Y5.824 E3.21056
G1 X-3.479 Y5.463 E3.22677
G1 X-4.01 Y5.086 E3.24147
G1 X-4.446 Y4.727 E3.25422
G1 X-4.668 Y4.499 E3.2614
G1 X-4.964 Y4.17 E3.27139
G1 X-5.449 Y3.505 E3.28997
G1 X-5.743 Y2.999 E3.30318
G1 X-5.991 Y2.491 E3.31594
G1 X-6.156 Y1.992 E3.3278
G1 X-6.349 Y1.247 E3.34518
G1 X-6.452 Y0.691 E3.35794
G1 X-6.461 Y-.116 E3.37616
G1 X-6.377 Y-1.046 E3.39724
G1 X-6.286 Y-1.604 E3.41
G1 X-6.118 Y-2.144 E3.42276
G1 X-5.946 Y-2.523 E3.43216
G1 X-5.494 Y-3.397 E3.45437
G1 X-5.199 Y-3.88 E3.46714
G1 X-4.8 Y-4.358 E3.4812
G1 X-4.478 Y-4.687 E3.49159
G1 X-3.875 Y-5.192 E3.50934
G1 X-3.402 Y-5.515 E3.52227
G1 X-2.914 Y-5.8 E3.53503
G1 X-2.223 Y-6.064 E3.55173
G1 X-1.25 Y-6.336 E3.57453
G1 X-.696 Y-6.45 E3.5873
G1 X-.132 Y-6.484 E3.60005
G1 X0.174 Y-6.469 E3.60697
G1 X0.943 Y-6.402 E3.62439
G1 X1.502 Y-6.313 E3.63717
G1 X2.003 Y-6.161 E3.64899
G1 X2.554 Y-5.954 E3.66227
G1 X3.068 Y-5.719 E3.67503
G1 X3.672 Y-5.312 E3.69147
G1 X4.457 Y-4.673 E3.71432
G1 X4.869 Y-4.286 E3.72708
G1 X5.223 Y-3.845 E3.73984
G1 X5.483 Y-3.412 E3.75124
G1 X5.948 Y-2.515 E3.77405
G1 X6.172 Y-1.996 E3.78681
G1 X6.321 Y-1.45 E3.79959
G1 X6.368 Y-1.151 E3.80642
G1 X6.459 Y-.394 E3.82363
G1 X6.487 Y0.17 E3.83638
G1 X6.441 Y0.692 E3.8482
G1 X6.351 Y1.276 E3.86154
G1 X6.226 Y1.828 E3.87432
G1 X6.035 Y2.333 E3.8865
G1 X5.708 Y3.047 E3.90423
G1 X5.437 Y3.543 E3.91699
G1 X4.941 Y4.167 E3.93498
G1 X4.31 Y4.817 E3.95543
G1 X3.889 Y5.194 E3.96819
G1 X3.418 Y5.508 E3.98097
G1 X3.044 Y5.695 E3.9904
G1 X2.121 Y6.099 E4.01315
G0 F600 X1.961 Y5.733
G1 F150 X1.455 Y5.911 E4.02526
G1 X0.701 Y6.03 E4.04249
G1 X-0.081 Y6.07 E4.06016
G1 X-.617 Y6.058 E4.07226
G1 X-1.316 Y5.918 E4.08835
G1 X-2.214 Y5.644 E4.10955
G1 X-2.713 Y5.45 E4.12163
G1 X-3.247 Y5.136 E4.13562
G1 X-3.778 Y4.759 E4.15032
G1 X-4.37 Y4.232 E4.16821
G1 X-4.666 Y3.903 E4.1782
G1 X-5.103 Y3.304 E4.19493
G1 X-5.397 Y2.798 E4.20814
G1 X-5.631 Y2.315 E4.22026
G1 X-5.769 Y1.892 E4.2303
G1 X-5.962 Y1.147 E4.24767
G1 X-6.057 Y0.619 E4.25978
G1 X-6.062 Y-0.08 E4.27556
G1 X-5.978 Y-1.01 E4.29664
G1 X-5.891 Y-1.539 E4.30874
G1 X-5.725 Y-2.049 E4.32085
G1 X-5.591 Y-2.34 E4.32808
G1 X-5.139 Y-3.214 E4.35029
G1 X-4.858 Y-3.67 E4.36238
G1 X-4.514 Y-4.078 E4.37443
G1 X-4.192 Y-4.407 E4.38482
G1 X-3.649 Y-4.862 E4.40081
G1 X-3.176 Y-5.185 E4.41374
G1 X-2.712 Y-5.454 E4.42584
G1 X-2.115 Y-5.679 E4.44024
G1 X-1.142 Y-5.951 E4.46305
G1 X-.616 Y-6.057 E4.47516
G1 X0.139 Y-6.07 E4.49221
G1 X0.908 Y-6.003 E4.50963
G1 X1.438 Y-5.917 E4.52175
G1 X1.862 Y-5.787 E4.53176
G1 X2.413 Y-5.58 E4.54505
G1 X2.9 Y-5.355 E4.55716
G1 X3.42 Y-5.002 E4.57134
G1 X4.205 Y-4.363 E4.59419
G1 X4.594 Y-3.994 E4.60629
G1 X4.925 Y-3.572 E4.6184
G1 X5.128 Y-3.228 E4.62742
G1 X5.593 Y-2.331 E4.65022
G1 X5.804 Y-1.838 E4.66233
G1 X5.971 Y-1.104 E4.67932
G1 X6.062 Y-.347 E4.69653
G1 X6.086 Y0.189 E4.70864
G1 X6.046 Y0.631 E4.71866
G1 X5.956 Y1.215 E4.732
G1 X5.835 Y1.738 E4.74412
G1 X5.671 Y2.166 E4.75446
G1 X5.344 Y2.88 E4.77219
G1 X5.085 Y3.35 E4.7843
G1 X4.654 Y3.889 E4.79988
G1 X4.023 Y4.539 E4.82033
G1 X3.622 Y4.894 E4.83242
G1 X3.172 Y5.187 E4.84454
G1 X2.884 Y5.329 E4.85179
G1 X1.961 Y5.733 E4.87453
G0 F600 X1.8 Y5.366
G1 F150 X1.322 Y5.532 E4.88595
G1 X0.68 Y5.631 E4.90061
G1 X-.102 Y5.671 E4.91829
G1 X-.607 Y5.657 E4.92969
G1 X-1.199 Y5.536 E4.94333
G1 X-2.097 Y5.262 E4.96453
G1 X-2.567 Y5.076 E4.97593
G1 X-3.016 Y4.81 E4.98771
G1 X-3.547 Y4.433 E5.00241
G1 X-4.073 Y3.964 E5.01832
G1 X-4.369 Y3.635 E5.02831
G1 X-4.757 Y3.103 E5.04318
G1 X-5.051 Y2.597 E5.05638
G1 X-5.27 Y2.141 E5.0678
G1 X-5.382 Y1.792 E5.07608
G1 X-5.575 Y1.047 E5.09345
G1 X-5.662 Y0.549 E5.10486
G1 X-5.664 Y-0.044 E5.11825
G1 X-5.58 Y-.974 E5.13932
G1 X-5.495 Y-1.472 E5.15073
G1 X-5.235 Y-2.156 E5.16725
G1 X-4.783 Y-3.03 E5.18946
G1 X-4.516 Y-3.459 E5.20086
G1 X-4.228 Y-3.798 E5.2109
G1 X-3.906 Y-4.127 E5.22129
G1 X-3.424 Y-4.532 E5.23551
G1 X-2.951 Y-4.855 E5.24843
G1 X-2.512 Y-5.106 E5.25985
G1 X-2.008 Y-5.294 E5.27199
G1 X-1.035 Y-5.566 E5.2948
G1 X-.538 Y-5.663 E5.30623
G1 X0.105 Y-5.672 E5.32074
G1 X0.874 Y-5.605 E5.33817
G1 X1.372 Y-5.521 E5.34957
G1 X1.721 Y-5.413 E5.35781
G1 X2.272 Y-5.206 E5.3711
G1 X2.73 Y-4.991 E5.38252
G1 X3.167 Y-4.692 E5.39447
G1 X3.952 Y-4.053 E5.41732
G1 X4.318 Y-3.704 E5.42874
G1 X4.624 Y-3.301 E5.44016
G1 X4.773 Y-3.044 E5.44686
G1 X5.238 Y-2.147 E5.46967
G1 X5.434 Y-1.681 E5.48108
G1 X5.574 Y-1.056 E5.49554
G1 X5.665 Y-.299 E5.51275
G1 X5.686 Y0.206 E5.52416
G1 X5.651 Y0.57 E5.53241
G1 X5.561 Y1.154 E5.54575
G1 X5.444 Y1.646 E5.55717
G1 X5.307 Y1.999 E5.56571
G1 X4.98 Y2.713 E5.58344
G1 X4.734 Y3.155 E5.59486
G1 X4.367 Y3.61 E5.60805
G1 X3.736 Y4.26 E5.6285
G1 X3.356 Y4.594 E5.63992
G1 X2.723 Y4.962 E5.65645
G1 X1.8 Y5.366 E5.67919
G1 F1500 E-0.82081
;MESH:5mmOD_2.5mmID_10mmHeight.STL
G0 F600 X1.015 Y2.995
G0 X0.831 Y2.338
G0 X0.146 Y-.68
;TYPE:FILL
G1 F1500 E5.67919
G1 F150 X0.232 Y-.656 E5.68121
G1 X0.318 Y-.619 E5.68332
G1 X0.403 Y-.567 E5.68557
G1 X0.473 Y-.51 E5.68761
G1 X0.538 Y-.441 E5.68975
G1 X0.598 Y-.357 E5.69208
G1 X0.636 Y-.283 E5.69396
G1 X0.67 Y-.186 E5.69628
G1 X0.69 Y-0.092 E5.69845
G1 X0.696 Y0.00 E5.70053
G1 X0.69 Y0.092 E5.70261
G1 X0.67 Y0.186 E5.70478
G1 X0.636 Y0.283 E5.7071
G1 X0.598 Y0.357 E5.70897
G1 X0.538 Y0.441 E5.71131
G1 X0.473 Y0.51 E5.71344
G1 X0.403 Y0.567 E5.71548
G1 X0.318 Y0.619 E5.71773
G1 X0.232 Y0.656 E5.71985
G1 X0.146 Y0.68 E5.72186
G1 X0.046 Y0.694 E5.72414
G1 X-0.046 Y0.694 E5.72622
G1 X-.146 Y0.68 E5.7285
G1 X-.232 Y0.656 E5.73051
G1 X-.318 Y0.619 E5.73262
G1 X-.403 Y0.567 E5.73487
G1 X-.473 Y0.51 E5.73691
G1 X-.538 Y0.441 E5.73905
G1 X-.598 Y0.357 E5.74138
G1 X-.636 Y0.283 E5.74326
G1 X-.67 Y0.186 E5.74558
G1 X-.69 Y0.092 E5.74775
G1 X-.696 Y0.00 E5.74983
G1 X-.69 Y-0.092 E5.75191
G1 X-.67 Y-.186 E5.75408
G1 X-.636 Y-.283 E5.7564
G1 X-.598 Y-.357 E5.75828
G1 X-.538 Y-.441 E5.76061
G1 X-.473 Y-.51 E5.76275
G1 X-.403 Y-.567 E5.76479
G1 X-.318 Y-.619 E5.76703
G1 X-.232 Y-.656 E5.76915
G1 X-.146 Y-.68 E5.77116
G1 X-0.046 Y-.694 E5.77344
G1 X0.046 Y-.694 E5.77552
G1 X0.146 Y-.68 E5.7778
G0 F600 X0.35 Y-1.662
G1 F150 X0.564 Y-1.602 E5.78282
G1 X0.785 Y-1.506 E5.78825
G1 X0.98 Y-1.387 E5.79341
G1 X1.156 Y-1.244 E5.79853
G1 X1.317 Y-1.071 E5.80386
G1 X1.453 Y-.88 E5.80916
G1 X1.557 Y-.678 E5.81429
G1 X1.635 Y-.458 E5.81955
G1 X1.683 Y-.229 E5.82484
G1 X1.698 Y0.00 E5.83002
G1 X1.683 Y0.229 E5.8352
G1 X1.635 Y0.458 E5.84048
G1 X1.557 Y0.678 E5.84575
G1 X1.453 Y0.88 E5.85088
G1 X1.317 Y1.071 E5.85617
G1 X1.156 Y1.244 E5.8615
G1 X0.98 Y1.387 E5.86662
G1 X0.785 Y1.506 E5.87178
G1 X0.564 Y1.602 E5.87722
G1 X0.35 Y1.662 E5.88223
G1 X0.114 Y1.694 E5.88761
G1 X-.114 Y1.694 E5.89276
G1 X-.35 Y1.662 E5.89813
G1 X-.564 Y1.602 E5.90315
G1 X-.785 Y1.506 E5.90859
G1 X-.98 Y1.387 E5.91374
G1 X-1.156 Y1.244 E5.91886
G1 X-1.317 Y1.071 E5.9242
G1 X-1.453 Y0.88 E5.92949
G1 X-1.557 Y0.678 E5.93462
G1 X-1.635 Y0.458 E5.93989
G1 X-1.683 Y0.229 E5.94517
G1 X-1.698 Y0.00 E5.95035
G1 X-1.683 Y-.229 E5.95553
G1 X-1.635 Y-.458 E5.96081
G1 X-1.557 Y-.678 E5.96608
G1 X-1.453 Y-.88 E5.97121
G1 X-1.317 Y-1.071 E5.9765
G1 X-1.156 Y-1.244 E5.98184
G1 X-.98 Y-1.387 E5.98695
G1 X-.785 Y-1.506 E5.99211
G1 X-.564 Y-1.602 E5.99755
G1 X-.35 Y-1.662 E6.00257
G1 X-.114 Y-1.694 E6.00794
G1 X0.114 Y-1.694 E6.01309
G1 X0.35 Y-1.662 E6.01846
;MESH:NONMESH
G0 F600 X0.146 Y-.68
;TIME_ELAPSED:116.322794
;LAYER:1
M106 S255
;MESH:5mmOD_2.5mmID_10mmHeight.STL
G0 F900 X0.146 Y-.68 Z1.1
;TYPE:FILL
G1 F225 X0.232 Y-.656 E6.02384
G1 X0.318 Y-.619 E6.02947
G1 X0.403 Y-.567 E6.03547
G1 X0.473 Y-.51 E6.04091
G1 X0.538 Y-.441 E6.04661
G1 X0.598 Y-.357 E6.05283
G1 X0.636 Y-.283 E6.05783
G1 X0.67 Y-.186 E6.06402
G1 X0.69 Y-0.092 E6.06981
G1 X0.696 Y0.00 E6.07535
G1 X0.69 Y0.092 E6.0809
G1 X0.67 Y0.186 E6.08669
G1 X0.636 Y0.283 E6.09288
G1 X0.598 Y0.357 E6.09788
G1 X0.538 Y0.441 E6.1041
G1 X0.473 Y0.51 E6.1098
G1 X0.403 Y0.567 E6.11524
G1 X0.318 Y0.619 E6.12124
G1 X0.232 Y0.656 E6.12687
G1 X0.146 Y0.68 E6.13225
G1 X0.046 Y0.694 E6.13832
G1 X-0.046 Y0.694 E6.14386
G1 X-.146 Y0.68 E6.14994
G1 X-.232 Y0.656 E6.15531
G1 X-.318 Y0.619 E6.16095
G1 X-.403 Y0.567 E6.16695
G1 X-.473 Y0.51 E6.17238
G1 X-.538 Y0.441 E6.17809
G1 X-.598 Y0.357 E6.1843
G1 X-.636 Y0.283 E6.18931
G1 X-.67 Y0.186 E6.1955
G1 X-.69 Y0.092 E6.20128
G1 X-.696 Y0.00 E6.20683
G1 X-.69 Y-0.092 E6.21238
G1 X-.67 Y-.186 E6.21816
G1 X-.636 Y-.283 E6.22435
G1 X-.598 Y-.357 E6.22936
G1 X-.538 Y-.441 E6.23557
G1 X-.473 Y-.51 E6.24128
G1 X-.403 Y-.567 E6.24671
G1 X-.318 Y-.619 E6.25271
G1 X-.232 Y-.656 E6.25835
G1 X-.146 Y-.68 E6.26372
G1 X-0.046 Y-.694 E6.2698
G1 X0.046 Y-.694 E6.27534
G1 X0.146 Y-.68 E6.28141
G0 F900 X0.35 Y-1.662
G1 F225 X0.564 Y-1.602 E6.29479
G1 X0.785 Y-1.506 E6.3093
G1 X0.98 Y-1.387 E6.32305
G1 X1.156 Y-1.244 E6.3367
G1 X1.317 Y-1.071 E6.35092
G1 X1.453 Y-.88 E6.36504
G1 X1.557 Y-.678 E6.37871
G1 X1.635 Y-.458 E6.39276
G1 X1.683 Y-.229 E6.40685
G1 X1.698 Y0.00 E6.42066
G1 X1.683 Y0.229 E6.43447
G1 X1.635 Y0.458 E6.44856
G1 X1.557 Y0.678 E6.46261
G1 X1.453 Y0.88 E6.47628
G1 X1.317 Y1.071 E6.4904
G1 X1.156 Y1.244 E6.50462
G1 X0.98 Y1.387 E6.51827
G1 X0.785 Y1.506 E6.53202
G1 X0.564 Y1.602 E6.54653
G1 X0.35 Y1.662 E6.55991
G1 X0.114 Y1.694 E6.57424
G1 X-.114 Y1.694 E6.58797
G1 X-.35 Y1.662 E6.6023
G1 X-.564 Y1.602 E6.61568
G1 X-.785 Y1.506 E6.63018
G1 X-.98 Y1.387 E6.64393
G1 X-1.156 Y1.244 E6.65758
G1 X-1.317 Y1.071 E6.67181
G1 X-1.453 Y0.88 E6.68592
G1 X-1.557 Y0.678 E6.6996
G1 X-1.635 Y0.458 E6.71365
G1 X-1.683 Y0.229 E6.72773
G1 X-1.698 Y0.00 E6.74155
G1 X-1.683 Y-.229 E6.75536
G1 X-1.635 Y-.458 E6.76945
G1 X-1.557 Y-.678 E6.7835
G1 X-1.453 Y-.88 E6.79717
G1 X-1.317 Y-1.071 E6.81129
