;FLAVOR:Marlin
;TIME:109
;Filament used: 0.00567874m
;Layer height: 0.8
;Generated with Cura_SteamEngine 3.6.0
M104 S200
M105
M109 S200
M82 ;absolute extrusion mode
G21 ;metric values
G90 ;absolute positioning
M82 ;set extruder to absolute mode
M107 ;start with the fan off
G28 ;move XYZ to min endstops
G1 Z15.0 F9000 ;move the platform down 15mm
G1 F9000
;Put printing message on LCD screen
M117 Printing...
G92 E0
G1 F1500 E-6.5
;LAYER_COUNT:7
;LAYER:0
M107
G0 F600 X3.5 Y6.806 Z0.3
;TYPE:SKIRT
G1 F1500 E0
G1 F150 X2.564 Y7.211 E0.02302
G1 X1.958 Y7.43 E0.03757
G1 X1.329 Y7.572 E0.05212
G1 X0.56 Y7.639 E0.06955
G1 X-.375 Y7.65 E0.09065
G1 X-1.019 Y7.617 E0.10521
G1 X-1.963 Y7.421 E0.12697
G1 X-2.549 Y7.241 E0.14081
G1 X-3.152 Y7.014 E0.15535
G1 X-3.723 Y6.714 E0.16991
G1 X-4.019 Y6.519 E0.17791
G1 X-4.793 Y5.973 E0.19929
G1 X-5.296 Y5.57 E0.21384
G1 X-5.745 Y5.107 E0.2284
G1 X-6.032 Y4.74 E0.23892
G1 X-6.445 Y4.16 E0.25499
G1 X-6.786 Y3.613 E0.26954
G1 X-7.138 Y2.801 E0.28952
G1 X-7.382 Y2.075 E0.30681
G1 X-7.549 Y1.452 E0.32137
G1 X-7.638 Y0.813 E0.33593
G1 X-7.652 Y0.332 E0.34679
G1 X-7.637 Y-.579 E0.36736
G1 X-7.587 Y-1.221 E0.38189
G1 X-7.457 Y-1.853 E0.39646
G1 X-7.342 Y-2.221 E0.40516
G1 X-7.107 Y-2.888 E0.42112
G1 X-6.856 Y-3.482 E0.43568
G1 X-6.533 Y-4.039 E0.45021
G1 X-6.207 Y-4.478 E0.46256
G1 X-5.554 Y-5.266 E0.48566
G1 X-5.113 Y-5.736 E0.5002
G1 X-4.616 Y-6.148 E0.51478
G1 X-4.165 Y-6.443 E0.52694
G1 X-3.548 Y-6.802 E0.54306
G1 X-2.972 Y-7.091 E0.5576
G1 X-2.446 Y-7.282 E0.57023
G1 X-2.012 Y-7.414 E0.58047
G1 X-1.385 Y-7.563 E0.59502
G1 X-.966 Y-7.618 E0.60456
G1 X-.411 Y-7.668 E0.61714
G1 X0.234 Y-7.686 E0.6317
G1 X0.955 Y-7.611 E0.64807
G1 X1.69 Y-7.482 E0.66491
G1 X2.317 Y-7.331 E0.67947
G1 X2.92 Y-7.104 E0.69401
G1 X3.369 Y-6.876 E0.70538
G1 X4.208 Y-6.397 E0.72719
G1 X4.747 Y-6.043 E0.74174
G1 X5.238 Y-5.625 E0.7563
G1 X5.666 Y-5.16 E0.77056
G1 X6.216 Y-4.483 E0.79025
G1 X6.591 Y-3.958 E0.80482
G1 X6.938 Y-3.302 E0.82157
G1 X7.106 Y-2.921 E0.83097
G1 X7.329 Y-2.316 E0.84552
G1 X7.488 Y-1.613 E0.86179
G1 X7.627 Y-.709 E0.88244
G1 X7.685 Y-0.067 E0.89699
G1 X7.663 Y0.577 E0.91153
G1 X7.571 Y1.172 E0.92512
G1 X7.383 Y2.048 E0.94535
G1 X7.209 Y2.669 E0.9599
G1 X6.89 Y3.399 E0.97789
G1 X6.682 Y3.79 E0.98788
G1 X6.344 Y4.339 E1.00244
G1 X5.849 Y4.942 E1.02005
G1 X5.193 Y5.628 E1.04147
G1 X4.72 Y6.065 E1.05601
G1 X4.196 Y6.441 E1.07057
G1 X3.5 Y6.806 E1.08831
G0 F600 X3.341 Y6.439
G1 F150 X2.405 Y6.844 E1.11133
G1 X1.822 Y7.053 E1.12531
G1 X1.217 Y7.185 E1.13928
G1 X0.555 Y7.239 E1.15428
G1 X-.38 Y7.25 E1.17538
G1 X-.998 Y7.217 E1.18935
G1 X-1.845 Y7.038 E1.2089
G1 X-2.431 Y6.858 E1.22273
G1 X-3.01 Y6.639 E1.23671
G1 X-3.789 Y6.192 E1.25698
G1 X-4.563 Y5.646 E1.27836
G1 X-5.045 Y5.257 E1.29234
G1 X-5.473 Y4.81 E1.30631
G1 X-5.706 Y4.508 E1.31492
G1 X-6.119 Y3.928 E1.33099
G1 X-6.445 Y3.402 E1.34496
G1 X-6.759 Y2.673 E1.36288
G1 X-7.003 Y1.947 E1.38017
G1 X-7.162 Y1.349 E1.39414
G1 X-7.243 Y0.734 E1.40814
G1 X-7.252 Y0.339 E1.41706
G1 X-7.237 Y-.572 E1.43762
G1 X-7.187 Y-1.189 E1.4516
G1 X-6.965 Y-2.088 E1.4725
G1 X-6.73 Y-2.755 E1.48846
G1 X-6.487 Y-3.325 E1.50245
G1 X-6.173 Y-3.858 E1.51641
G1 X-5.899 Y-4.223 E1.52671
G1 X-5.246 Y-5.011 E1.54981
G1 X-4.821 Y-5.461 E1.56379
G1 X-4.341 Y-5.853 E1.57778
G1 X-3.964 Y-6.097 E1.58791
G1 X-3.347 Y-6.456 E1.60403
G1 X-2.793 Y-6.732 E1.618
G1 X-2.33 Y-6.899 E1.62911
G1 X-1.896 Y-7.031 E1.63935
G1 X-1.293 Y-7.173 E1.65333
G1 X-.93 Y-7.22 E1.66159
G1 X-.375 Y-7.27 E1.67417
G1 X0.244 Y-7.285 E1.68815
G1 X0.886 Y-7.217 E1.70272
G1 X1.621 Y-7.088 E1.71956
G1 X2.223 Y-6.942 E1.73355
G1 X2.801 Y-6.719 E1.74753
G1 X3.171 Y-6.528 E1.75693
G1 X4.01 Y-6.049 E1.77874
G1 X4.527 Y-5.708 E1.79272
G1 X4.996 Y-5.303 E1.80671
G1 X5.356 Y-4.908 E1.81877
G1 X5.906 Y-4.231 E1.83846
G1 X6.264 Y-3.726 E1.85243
G1 X6.572 Y-3.141 E1.86735
G1 X6.74 Y-2.76 E1.87675
G1 X6.953 Y-2.178 E1.89074
G1 X7.092 Y-1.552 E1.90522
G1 X7.231 Y-.648 E1.92586
G1 X7.286 Y-0.032 E1.93982
G1 X7.26 Y0.587 E1.95381
G1 X7.18 Y1.088 E1.96526
G1 X6.992 Y1.964 E1.98548
G1 X6.823 Y2.56 E1.99947
G1 X6.537 Y3.211 E2.01552
G1 X6.329 Y3.602 E2.02552
G1 X6.003 Y4.129 E2.0395
G1 X5.56 Y4.665 E2.0552
G1 X4.904 Y5.351 E2.07663
G1 X4.448 Y5.77 E2.0906
G1 X3.942 Y6.127 E2.10458
G1 X3.341 Y6.439 E2.11987
G0 F600 X3.182 Y6.072
G1 F150 X2.246 Y6.477 E2.14289
G1 X1.687 Y6.675 E2.15627
G1 X1.107 Y6.797 E2.16965
G1 X0.551 Y6.839 E2.18224
G1 X-.384 Y6.85 E2.20335
G1 X-.976 Y6.817 E2.21673
G1 X-1.728 Y6.656 E2.23409
G1 X-2.314 Y6.476 E2.24793
G1 X-2.868 Y6.264 E2.26132
G1 X-3.558 Y5.865 E2.27931
G1 X-4.332 Y5.319 E2.30069
G1 X-4.793 Y4.946 E2.31408
G1 X-5.199 Y4.514 E2.32746
G1 X-5.38 Y4.276 E2.33421
G1 X-5.793 Y3.696 E2.35028
G1 X-6.104 Y3.191 E2.36367
G1 X-6.38 Y2.546 E2.3795
G1 X-6.624 Y1.82 E2.39679
G1 X-6.774 Y1.246 E2.41018
G1 X-6.846 Y0.658 E2.42355
G1 X-6.852 Y0.346 E2.4306
G1 X-6.837 Y-.565 E2.45117
G1 X-6.788 Y-1.156 E2.46455
G1 X-6.588 Y-1.955 E2.48314
G1 X-6.353 Y-2.622 E2.49911
G1 X-6.119 Y-3.167 E2.51249
G1 X-5.813 Y-3.675 E2.52588
G1 X-5.591 Y-3.967 E2.53416
G1 X-4.938 Y-4.755 E2.55726
G1 X-4.53 Y-5.186 E2.57066
G1 X-4.067 Y-5.557 E2.58405
G1 X-3.763 Y-5.751 E2.59219
G1 X-3.146 Y-6.11 E2.6083
G1 X-2.614 Y-6.373 E2.6217
G1 X-2.213 Y-6.517 E2.63132
G1 X-1.779 Y-6.649 E2.64156
G1 X-1.202 Y-6.783 E2.65493
G1 X-.894 Y-6.821 E2.66193
G1 X-.339 Y-6.871 E2.67451
G1 X0.254 Y-6.885 E2.6879
G1 X0.817 Y-6.823 E2.70069
G1 X1.552 Y-6.694 E2.71753
G1 X2.127 Y-6.552 E2.7309
G1 X2.679 Y-6.334 E2.7443
G1 X2.973 Y-6.181 E2.75178
G1 X3.812 Y-5.702 E2.77359
G1 X4.306 Y-5.374 E2.78697
G1 X4.751 Y-4.983 E2.80034
G1 X5.045 Y-4.655 E2.81029
G1 X5.595 Y-3.978 E2.82997
G1 X5.937 Y-3.494 E2.84335
G1 X6.206 Y-2.979 E2.85647
G1 X6.374 Y-2.598 E2.86587
G1 X6.576 Y-2.041 E2.87924
G1 X6.697 Y-1.492 E2.89193
G1 X6.836 Y-.588 E2.91258
G1 X6.886 Y0.003 E2.92596
G1 X6.857 Y0.595 E2.93934
G1 X6.789 Y1.004 E2.9487
G1 X6.601 Y1.88 E2.96893
G1 X6.438 Y2.45 E2.98231
G1 X6.184 Y3.023 E2.99646
G1 X5.976 Y3.414 E3.00645
G1 X5.662 Y3.918 E3.01986
G1 X5.271 Y4.389 E3.03367
G1 X4.615 Y5.075 E3.0551
G1 X4.177 Y5.475 E3.06849
G1 X3.69 Y5.812 E3.08186
G1 X3.182 Y6.072 E3.09474
G0 F600 X3.023 Y5.705
G1 F150 X2.087 Y6.11 E3.11776
G1 X1.554 Y6.297 E3.13051
G1 X1 Y6.408 E3.14326
G1 X0.546 Y6.439 E3.15354
G1 X-.389 Y6.45 E3.17464
G1 X-.953 Y6.416 E3.1874
G1 X-1.611 Y6.274 E3.20259
G1 X-2.197 Y6.094 E3.21643
G1 X-2.724 Y5.89 E3.22919
G1 X-3.328 Y5.539 E3.24495
G1 X-4.102 Y4.993 E3.26633
G1 X-4.54 Y4.635 E3.2791
G1 X-5.054 Y4.044 E3.29678
G1 X-5.467 Y3.464 E3.31286
G1 X-5.762 Y2.982 E3.32561
G1 X-6.001 Y2.418 E3.33944
G1 X-6.245 Y1.692 E3.35673
G1 X-6.386 Y1.145 E3.36948
G1 X-6.452 Y0.352 E3.38744
G1 X-6.437 Y-.559 E3.40801
G1 X-6.388 Y-1.122 E3.42076
G1 X-6.211 Y-1.822 E3.43706
G1 X-5.976 Y-2.489 E3.45302
G1 X-5.751 Y-3.008 E3.46579
G1 X-5.283 Y-3.712 E3.48488
G1 X-4.63 Y-4.5 E3.50798
G1 X-4.239 Y-4.909 E3.52075
G1 X-3.562 Y-5.405 E3.53969
G1 X-2.945 Y-5.764 E3.55581
G1 X-2.437 Y-6.013 E3.56858
G1 X-2.097 Y-6.134 E3.57672
G1 X-1.663 Y-6.266 E3.58696
G1 X-.858 Y-6.423 E3.60548
G1 X-.303 Y-6.473 E3.61805
G1 X0.262 Y-6.484 E3.63081
G1 X0.747 Y-6.429 E3.64183
G1 X1.482 Y-6.3 E3.65867
G1 X2.031 Y-6.163 E3.67145
G1 X2.774 Y-5.834 E3.68979
G1 X3.613 Y-5.355 E3.7116
G1 X4.083 Y-5.04 E3.72437
G1 X4.504 Y-4.663 E3.73712
G1 X4.735 Y-4.403 E3.74497
G1 X5.285 Y-3.726 E3.76466
G1 X5.609 Y-3.263 E3.77742
G1 X5.84 Y-2.818 E3.78874
G1 X6.008 Y-2.437 E3.79814
G1 X6.199 Y-1.905 E3.81089
G1 X6.302 Y-1.431 E3.82184
G1 X6.441 Y-.527 E3.84249
G1 X6.487 Y0.037 E3.85526
G1 X6.453 Y0.601 E3.86802
G1 X6.398 Y0.92 E3.87532
G1 X6.21 Y1.796 E3.89555
G1 X6.053 Y2.339 E3.90831
G1 X5.83 Y2.836 E3.9206
G1 X5.622 Y3.227 E3.9306
G1 X5.322 Y3.706 E3.94336
G1 X4.982 Y4.113 E3.95533
G1 X4.326 Y4.799 E3.97675
G1 X3.907 Y5.178 E3.98951
G1 X3.439 Y5.496 E4.00228
G1 X3.023 Y5.705 E4.01279
G0 F600 X2.865 Y5.338
G1 F150 X1.929 Y5.743 E4.03581
G1 X1.422 Y5.919 E4.04792
G1 X0.895 Y6.017 E4.06002
G1 X0.541 Y6.039 E4.06803
G1 X-.394 Y6.05 E4.08914
G1 X-.929 Y6.016 E4.10124
G1 X-1.493 Y5.891 E4.11428
G1 X-2.079 Y5.711 E4.12811
G1 X-2.579 Y5.516 E4.14023
G1 X-3.097 Y5.212 E4.15379
G1 X-3.871 Y4.666 E4.17517
G1 X-4.285 Y4.325 E4.18727
G1 X-4.729 Y3.812 E4.20259
G1 X-5.142 Y3.232 E4.21866
G1 X-5.419 Y2.773 E4.23076
G1 X-5.621 Y2.291 E4.24256
G1 X-5.865 Y1.565 E4.25985
G1 X-5.998 Y1.045 E4.27196
G1 X-6.053 Y0.359 E4.2875
G1 X-6.038 Y-.552 E4.30806
G1 X-5.989 Y-1.086 E4.32017
G1 X-5.833 Y-1.689 E4.33423
G1 X-5.598 Y-2.356 E4.35019
G1 X-5.383 Y-2.847 E4.36229
G1 X-4.975 Y-3.457 E4.37886
G1 X-4.322 Y-4.245 E4.40196
G1 X-3.95 Y-4.631 E4.41406
G1 X-3.36 Y-5.06 E4.43052
G1 X-2.743 Y-5.419 E4.44664
G1 X-2.261 Y-5.653 E4.45873
G1 X-1.981 Y-5.751 E4.46543
G1 X-1.547 Y-5.883 E4.47567
G1 X-.822 Y-6.024 E4.49234
G1 X-.267 Y-6.074 E4.50492
G1 X0.269 Y-6.083 E4.51702
G1 X0.678 Y-6.035 E4.52631
G1 X1.413 Y-5.906 E4.54316
G1 X1.933 Y-5.774 E4.55527
G1 X2.576 Y-5.486 E4.57117
G1 X3.415 Y-5.007 E4.59298
G1 X3.86 Y-4.708 E4.60508
G1 X4.424 Y-4.151 E4.62297
G1 X4.974 Y-3.474 E4.64266
G1 X5.28 Y-3.034 E4.65476
G1 X5.474 Y-2.656 E4.66435
G1 X5.642 Y-2.275 E4.67375
G1 X5.821 Y-1.77 E4.68584
G1 X5.906 Y-1.37 E4.69508
G1 X6.045 Y-.466 E4.71572
G1 X6.087 Y0.069 E4.72783
G1 X6.007 Y0.836 E4.74524
G1 X5.819 Y1.712 E4.76547
G1 X5.668 Y2.227 E4.77758
G1 X5.477 Y2.648 E4.78802
G1 X5.269 Y3.039 E4.79801
G1 X4.983 Y3.492 E4.8101
G1 X4.693 Y3.836 E4.82026
G1 X4.037 Y4.522 E4.84169
G1 X3.638 Y4.881 E4.8538
G1 X3.191 Y5.177 E4.8659
G1 X2.865 Y5.338 E4.87411
G0 F600 X2.706 Y4.971
G1 F150 X1.77 Y5.376 E4.89713
G1 X1.291 Y5.539 E4.90855
G1 X0.793 Y5.625 E4.91996
G1 X0.537 Y5.639 E4.92575
G1 X-.398 Y5.65 E4.94685
G1 X-.903 Y5.616 E4.95828
G1 X-1.376 Y5.509 E4.96923
G1 X-1.962 Y5.329 E4.98306
G1 X-2.432 Y5.143 E4.99447
G1 X-2.867 Y4.885 E5.00589
G1 X-3.641 Y4.339 E5.02727
G1 X-4.029 Y4.016 E5.03867
G1 X-4.403 Y3.58 E5.05163
G1 X-4.816 Y3 E5.06771
G1 X-5.075 Y2.566 E5.07911
G1 X-5.242 Y2.163 E5.08896
G1 X-5.486 Y1.437 E5.10625
G1 X-5.609 Y0.947 E5.11765
G1 X-5.653 Y0.365 E5.13083
G1 X-5.638 Y-.546 E5.15139
G1 X-5.589 Y-1.049 E5.1628
G1 X-5.456 Y-1.556 E5.17463
G1 X-5.221 Y-2.223 E5.1906
G1 X-5.016 Y-2.685 E5.20201
G1 X-4.667 Y-3.202 E5.21609
G1 X-4.014 Y-3.99 E5.23919
G1 X-3.662 Y-4.352 E5.25058
G1 X-3.159 Y-4.714 E5.26457
G1 X-2.542 Y-5.073 E5.28069
G1 X-1.864 Y-5.369 E5.29739
G1 X-1.43 Y-5.501 E5.30763
G1 X-.786 Y-5.626 E5.32243
G1 X-.231 Y-5.676 E5.33501
G1 X0.274 Y-5.682 E5.34641
G1 X0.609 Y-5.641 E5.35403
G1 X1.344 Y-5.512 E5.37087
G1 X1.834 Y-5.385 E5.3823
G1 X2.378 Y-5.139 E5.39578
G1 X3.217 Y-4.66 E5.41758
G1 X3.634 Y-4.375 E5.42899
G1 X4.114 Y-3.899 E5.44425
G1 X4.664 Y-3.222 E5.46393
G1 X4.95 Y-2.805 E5.47535
G1 X5.108 Y-2.495 E5.4832
G1 X5.276 Y-2.114 E5.4926
G1 X5.443 Y-1.637 E5.50401
G1 X5.511 Y-1.309 E5.51157
G1 X5.65 Y-.405 E5.53222
G1 X5.687 Y0.099 E5.54362
G1 X5.616 Y0.752 E5.55845
G1 X5.428 Y1.628 E5.57867
G1 X5.283 Y2.113 E5.5901
G1 X5.124 Y2.46 E5.59872
G1 X4.916 Y2.851 E5.60871
G1 X4.644 Y3.277 E5.62012
G1 X4.404 Y3.56 E5.6285
G1 X3.748 Y4.246 E5.64992
G1 X3.371 Y4.582 E5.66132
G1 X2.945 Y4.855 E5.67274
G1 X2.706 Y4.971 E5.67874
;TIME_ELAPSED:109.124712
G1 F1500 E-0.82126
M140 S0
M104 S0 ;extruder heater off
M140 S0 ;heated bed heater off (if you have it)
G91 ;relative positioning
G1 E-1 F300  ;retract the filament a bit before lifting the nozzle, to release some of the pressure
G1 Z+0.5 E-5 X-20 Y-20 F9000 ;move Z up a bit and retract filament even more
G28 X0 Y0 ;move X/Y to min endstops, so the head is out of the way
M84 ;steppers off
G90 ;absolute positioning
M82 ;absolute extrusion mode
M104 S0
;End of Gcode
;SETTING_3 {"global_quality": "[general]\\nversion = 4\\nname = Carolyn - Syring
;SETTING_3 e\\ndefinition = fdmprinter\\n\\n[metadata]\\nsetting_version = 5\\nt
;SETTING_3 ype = quality_changes\\nquality_type = verydraft\\n\\n[values]\\nadhe
;SETTING_3 sion_type = skirt\\nlayer_height = 0.8\\nmaterial_bed_temperature = 0
;SETTING_3 \\n\\n", "extruder_quality": ["[general]\\nversion = 4\\nname = Carol
;SETTING_3 yn - Syringe\\ndefinition = fdmprinter\\n\\n[metadata]\\nsetting_vers
;SETTING_3 ion = 5\\ntype = quality_changes\\nposition = 0\\nquality_type = very
;SETTING_3 draft\\n\\n[values]\\nbrim_width = 0\\ninfill_angles = [0,90]\\ninfil
;SETTING_3 l_line_distance = 1\\ninfill_pattern = concentric\\ninfill_sparse_den
;SETTING_3 sity = 70\\nmaterial_flow = 120\\nskirt_line_count = 2\\nspeed_print 
;SETTING_3 = 5\\nspeed_travel = 20\\ntop_bottom_thickness = 0.0\\nwall_thickness
;SETTING_3  = 0.0\\n\\n"]}
