;FLAVOR:Marlin
;TIME:62
;Filament used: 0.0140605m
;Layer height: 0.8
;Generated with Cura_SteamEngine 3.6.0
M104 S200
M105
M109 S200
M82 ;absolute extrusion mode
G21 ;metric values
G90 ;absolute positioning
M82 ;set extruder to absolute mode
M107 ;start with the fan off
G28 ;move XYZ to min endstops
G1 Z15.0 F9000 ;move the platform down 15mm
G1 F9000
;Put printing message on LCD screen
M117 Printing...
G92 E0
G1 F1500 E-6.5
;LAYER_COUNT:14
;LAYER:0
M107
G0 F600 X2.602 Y7.199 Z0.3
;TYPE:SKIRT
G1 F1500 E0
G1 F450 X1.997 Y7.42 E0.01454
G1 X1.368 Y7.565 E0.02911
G1 X0.783 Y7.628 E0.04239
G1 X0.001 Y7.668 E0.06007
G1 X-.644 Y7.661 E0.07463
G1 X-1.283 Y7.574 E0.08918
G1 X-1.783 Y7.449 E0.10082
G1 X-2.681 Y7.175 E0.12201
G1 X-3.284 Y6.949 E0.13655
G1 X-3.855 Y6.65 E0.15109
G1 X-4.173 Y6.441 E0.15968
G1 X-4.704 Y6.064 E0.17438
G1 X-5.206 Y5.659 E0.18894
G1 X-5.56 Y5.302 E0.20029
G1 X-5.856 Y4.973 E0.21028
G1 X-6.256 Y4.468 E0.22482
G1 X-6.486 Y4.107 E0.23449
G1 X-6.78 Y3.601 E0.2477
G1 X-7.069 Y3.025 E0.26224
G1 X-7.318 Y2.293 E0.2797
G1 X-7.511 Y1.548 E0.29707
G1 X-7.634 Y0.915 E0.31162
G1 X-7.677 Y0.272 E0.32617
G1 X-7.656 Y-.224 E0.33738
G1 X-7.572 Y-1.154 E0.35845
G1 X-7.474 Y-1.791 E0.373
G1 X-7.298 Y-2.411 E0.38755
G1 X-7.012 Y-3.075 E0.40387
G1 X-6.56 Y-3.949 E0.42608
G1 X-6.229 Y-4.502 E0.44063
G1 X-5.657 Y-5.197 E0.46095
G1 X-5.335 Y-5.526 E0.47134
G1 X-4.857 Y-5.958 E0.48588
G1 X-4.551 Y-6.183 E0.49445
G1 X-4.078 Y-6.506 E0.50738
G1 X-3.525 Y-6.836 E0.52192
G1 X-2.934 Y-7.095 E0.53648
G1 X-2.546 Y-7.22 E0.54569
G1 X-1.573 Y-7.492 E0.56849
G1 X-.943 Y-7.627 E0.58303
G1 X-.3 Y-7.682 E0.5976
G1 X0.278 Y-7.664 E0.61066
G1 X1.047 Y-7.597 E0.62808
G1 X1.685 Y-7.502 E0.64264
G1 X2.425 Y-7.285 E0.66005
G1 X2.976 Y-7.078 E0.67333
G1 X3.564 Y-6.814 E0.68788
G1 X4.115 Y-6.48 E0.70243
G1 X4.43 Y-6.243 E0.71132
G1 X5.215 Y-5.604 E0.73417
G1 X5.689 Y-5.167 E0.74872
G1 X6.105 Y-4.674 E0.76329
G1 X6.549 Y-3.964 E0.78219
G1 X7.014 Y-3.067 E0.80499
G1 X7.274 Y-2.478 E0.81953
G1 X7.46 Y-1.86 E0.8341
G1 X7.56 Y-1.295 E0.84705
G1 X7.651 Y-.538 E0.86426
G1 X7.688 Y0.106 E0.87882
G1 X7.627 Y0.875 E0.89623
G1 X7.537 Y1.459 E0.90957
G1 X7.4 Y2.089 E0.92412
G1 X7.126 Y2.832 E0.942
G1 X6.799 Y3.546 E0.95973
G1 X6.495 Y4.115 E0.97429
G1 X6.122 Y4.641 E0.98884
G1 X5.802 Y5.003 E0.99975
G1 X5.171 Y5.653 E1.0202
G1 X4.694 Y6.087 E1.03475
G1 X4.167 Y6.458 E1.0493
G1 X3.525 Y6.795 E1.06567
G1 X2.602 Y7.199 E1.08841
G0 F600 X2.442 Y6.832
G1 F450 X1.859 Y7.043 E1.10241
G1 X1.255 Y7.178 E1.11638
G1 X0.762 Y7.229 E1.12757
G1 X-0.02 Y7.269 E1.14524
G1 X-.639 Y7.26 E1.15921
G1 X-1.252 Y7.172 E1.17319
G1 X-1.666 Y7.066 E1.18284
G1 X-2.564 Y6.792 E1.20403
G1 X-3.143 Y6.573 E1.21801
G1 X-3.942 Y6.115 E1.23879
G1 X-4.473 Y5.738 E1.25349
G1 X-4.954 Y5.347 E1.26749
G1 X-5.262 Y5.034 E1.2774
G1 X-5.558 Y4.705 E1.28739
G1 X-5.942 Y4.219 E1.30137
G1 X-6.14 Y3.906 E1.30973
G1 X-6.434 Y3.4 E1.32294
G1 X-6.71 Y2.846 E1.33691
G1 X-6.931 Y2.193 E1.35247
G1 X-7.124 Y1.448 E1.36984
G1 X-7.24 Y0.839 E1.38384
G1 X-7.277 Y0.221 E1.39781
G1 X-7.258 Y-.188 E1.40705
G1 X-7.174 Y-1.118 E1.42813
G1 X-7.078 Y-1.73 E1.44212
G1 X-6.905 Y-2.324 E1.45608
G1 X-6.657 Y-2.891 E1.47005
G1 X-6.205 Y-3.765 E1.49226
G1 X-5.885 Y-4.296 E1.50626
G1 X-5.371 Y-4.917 E1.52445
G1 X-5.049 Y-5.246 E1.53484
G1 X-4.589 Y-5.66 E1.54881
G1 X-4.326 Y-5.853 E1.55618
G1 X-3.853 Y-6.176 E1.56911
G1 X-3.32 Y-6.491 E1.58308
G1 X-2.751 Y-6.736 E1.59706
G1 X-2.438 Y-6.835 E1.60448
G1 X-1.465 Y-7.107 E1.62728
G1 X-.859 Y-7.235 E1.64126
G1 X-.242 Y-7.284 E1.65523
G1 X0.244 Y-7.266 E1.66621
G1 X1.013 Y-7.199 E1.68363
G1 X1.625 Y-7.105 E1.69761
G1 X2.284 Y-6.91 E1.71312
G1 X2.835 Y-6.703 E1.72641
G1 X3.4 Y-6.449 E1.74039
G1 X3.927 Y-6.123 E1.75438
G1 X4.177 Y-5.933 E1.76147
G1 X4.962 Y-5.294 E1.78432
G1 X5.416 Y-4.872 E1.79831
G1 X5.812 Y-4.396 E1.81229
G1 X6.193 Y-3.78 E1.82863
G1 X6.658 Y-2.883 E1.85144
G1 X6.907 Y-2.316 E1.86542
G1 X7.081 Y-1.722 E1.87939
G1 X7.163 Y-1.247 E1.89027
G1 X7.254 Y-.49 E1.90748
G1 X7.288 Y0.129 E1.92148
G1 X7.232 Y0.814 E1.93699
G1 X7.142 Y1.398 E1.95033
G1 X7.008 Y2.003 E1.96432
G1 X6.762 Y2.666 E1.98028
G1 X6.435 Y3.38 E1.998
G1 X6.141 Y3.925 E2.01198
G1 X5.78 Y4.428 E2.02596
G1 X5.515 Y4.724 E2.03493
G1 X4.884 Y5.374 E2.05537
G1 X4.425 Y5.79 E2.06936
G1 X3.916 Y6.143 E2.08334
G1 X3.365 Y6.428 E2.09734
G1 X2.442 Y6.832 E2.12009
G0 F600 X2.281 Y6.466
G1 F450 X1.723 Y6.666 E2.13347
G1 X1.143 Y6.79 E2.14685
G1 X0.742 Y6.829 E2.15595
G1 X-0.04 Y6.869 E2.17362
G1 X-.633 Y6.86 E2.18701
G1 X-1.219 Y6.77 E2.20039
G1 X-1.549 Y6.683 E2.2081
G1 X-2.447 Y6.409 E2.22929
G1 X-3.001 Y6.199 E2.24266
G1 X-3.71 Y5.789 E2.26115
G1 X-4.241 Y5.412 E2.27585
G1 X-4.7 Y5.037 E2.28923
G1 X-4.965 Y4.767 E2.29777
G1 X-5.261 Y4.438 E2.30776
G1 X-5.627 Y3.971 E2.32115
G1 X-5.794 Y3.705 E2.32824
G1 X-6.088 Y3.199 E2.34145
G1 X-6.351 Y2.668 E2.35483
G1 X-6.543 Y2.092 E2.36853
G1 X-6.736 Y1.347 E2.3859
G1 X-6.846 Y0.765 E2.39927
G1 X-6.876 Y0.173 E2.41265
G1 X-6.859 Y-.152 E2.42
G1 X-6.775 Y-1.082 E2.44108
G1 X-6.682 Y-1.667 E2.45445
G1 X-6.511 Y-2.235 E2.46784
G1 X-6.301 Y-2.707 E2.4795
G1 X-5.849 Y-3.581 E2.50171
G1 X-5.542 Y-4.088 E2.51509
G1 X-5.086 Y-4.638 E2.53122
G1 X-4.764 Y-4.967 E2.54161
G1 X-4.1 Y-5.523 E2.56116
G1 X-3.627 Y-5.846 E2.57408
G1 X-3.116 Y-6.146 E2.58746
G1 X-2.331 Y-6.45 E2.60646
G1 X-1.358 Y-6.722 E2.62927
G1 X-.777 Y-6.842 E2.64266
G1 X-.186 Y-6.884 E2.65603
G1 X0.209 Y-6.867 E2.66496
G1 X0.978 Y-6.8 E2.68238
G1 X1.564 Y-6.709 E2.69577
G1 X2.143 Y-6.536 E2.70941
G1 X2.694 Y-6.329 E2.72269
G1 X3.234 Y-6.083 E2.73609
G1 X3.925 Y-5.622 E2.75484
G1 X4.71 Y-4.983 E2.77769
G1 X5.143 Y-4.579 E2.79106
G1 X5.519 Y-4.12 E2.80445
G1 X5.838 Y-3.596 E2.8183
G1 X6.303 Y-2.699 E2.8411
G1 X6.54 Y-2.155 E2.8545
G1 X6.702 Y-1.585 E2.86787
G1 X6.766 Y-1.199 E2.8767
G1 X6.857 Y-.442 E2.89392
G1 X6.887 Y0.15 E2.9073
G1 X6.837 Y0.753 E2.92095
G1 X6.747 Y1.337 E2.93429
G1 X6.617 Y1.916 E2.94769
G1 X6.398 Y2.499 E2.96174
G1 X6.071 Y3.213 E2.97947
G1 X5.789 Y3.734 E2.99284
G1 X5.439 Y4.213 E3.00623
G1 X5.228 Y4.446 E3.01333
G1 X4.597 Y5.096 E3.03378
G1 X4.156 Y5.492 E3.04716
G1 X3.666 Y5.826 E3.06054
G1 X3.204 Y6.062 E3.07225
G1 X2.281 Y6.466 E3.095
G0 F600 X2.121 Y6.099
G1 F450 X1.588 Y6.289 E3.10777
G1 X1.034 Y6.401 E3.12053
G1 X0.721 Y6.43 E3.12762
G1 X-0.061 Y6.47 E3.1453
G1 X-.626 Y6.459 E3.15805
G1 X-1.432 Y6.301 E3.17659
G1 X-2.33 Y6.027 E3.19779
G1 X-2.858 Y5.824 E3.21056
G1 X-3.479 Y5.463 E3.22677
G1 X-4.01 Y5.086 E3.24147
G1 X-4.446 Y4.727 E3.25422
G1 X-4.668 Y4.499 E3.2614
G1 X-4.964 Y4.17 E3.27139
G1 X-5.449 Y3.505 E3.28997
G1 X-5.743 Y2.999 E3.30318
G1 X-5.991 Y2.491 E3.31594
G1 X-6.156 Y1.992 E3.3278
G1 X-6.349 Y1.247 E3.34518
G1 X-6.452 Y0.691 E3.35794
G1 X-6.461 Y-.116 E3.37616
G1 X-6.377 Y-1.046 E3.39724
G1 X-6.286 Y-1.604 E3.41
G1 X-6.118 Y-2.144 E3.42276
G1 X-5.946 Y-2.523 E3.43216
G1 X-5.494 Y-3.397 E3.45437
G1 X-5.199 Y-3.88 E3.46714
G1 X-4.8 Y-4.358 E3.4812
G1 X-4.478 Y-4.687 E3.49159
G1 X-3.875 Y-5.192 E3.50934
G1 X-3.402 Y-5.515 E3.52227
G1 X-2.914 Y-5.8 E3.53503
G1 X-2.223 Y-6.064 E3.55173
G1 X-1.25 Y-6.336 E3.57453
G1 X-.696 Y-6.45 E3.5873
G1 X-.132 Y-6.484 E3.60005
G1 X0.174 Y-6.469 E3.60697
G1 X0.943 Y-6.402 E3.62439
G1 X1.502 Y-6.313 E3.63717
G1 X2.003 Y-6.161 E3.64899
G1 X2.554 Y-5.954 E3.66227
G1 X3.068 Y-5.719 E3.67503
G1 X3.672 Y-5.312 E3.69147
G1 X4.457 Y-4.673 E3.71432
G1 X4.869 Y-4.286 E3.72708
G1 X5.223 Y-3.845 E3.73984
G1 X5.483 Y-3.412 E3.75124
G1 X5.948 Y-2.515 E3.77405
G1 X6.172 Y-1.996 E3.78681
G1 X6.321 Y-1.45 E3.79959
G1 X6.368 Y-1.151 E3.80642
G1 X6.459 Y-.394 E3.82363
G1 X6.487 Y0.17 E3.83638
G1 X6.441 Y0.692 E3.8482
G1 X6.351 Y1.276 E3.86154
G1 X6.226 Y1.828 E3.87432
G1 X6.035 Y2.333 E3.8865
G1 X5.708 Y3.047 E3.90423
G1 X5.437 Y3.543 E3.91699
G1 X4.941 Y4.167 E3.93498
G1 X4.31 Y4.817 E3.95543
G1 X3.889 Y5.194 E3.96819
G1 X3.418 Y5.508 E3.98097
G1 X3.044 Y5.695 E3.9904
G1 X2.121 Y6.099 E4.01315
G0 F600 X1.961 Y5.733
G1 F450 X1.455 Y5.911 E4.02526
G1 X0.701 Y6.03 E4.04249
G1 X-0.081 Y6.07 E4.06016
G1 X-.617 Y6.058 E4.07226
G1 X-1.316 Y5.918 E4.08835
G1 X-2.214 Y5.644 E4.10955
G1 X-2.713 Y5.45 E4.12163
G1 X-3.247 Y5.136 E4.13562
G1 X-3.778 Y4.759 E4.15032
G1 X-4.37 Y4.232 E4.16821
G1 X-4.666 Y3.903 E4.1782
G1 X-5.103 Y3.304 E4.19493
G1 X-5.397 Y2.798 E4.20814
G1 X-5.631 Y2.315 E4.22026
G1 X-5.769 Y1.892 E4.2303
G1 X-5.962 Y1.147 E4.24767
G1 X-6.057 Y0.619 E4.25978
G1 X-6.062 Y-0.08 E4.27556
G1 X-5.978 Y-1.01 E4.29664
G1 X-5.891 Y-1.539 E4.30874
G1 X-5.725 Y-2.049 E4.32085
G1 X-5.591 Y-2.34 E4.32808
G1 X-5.139 Y-3.214 E4.35029
G1 X-4.858 Y-3.67 E4.36238
G1 X-4.514 Y-4.078 E4.37443
G1 X-4.192 Y-4.407 E4.38482
G1 X-3.649 Y-4.862 E4.40081
G1 X-3.176 Y-5.185 E4.41374
G1 X-2.712 Y-5.454 E4.42584
G1 X-2.115 Y-5.679 E4.44024
G1 X-1.142 Y-5.951 E4.46305
G1 X-.616 Y-6.057 E4.47516
G1 X0.139 Y-6.07 E4.49221
G1 X0.908 Y-6.003 E4.50963
G1 X1.438 Y-5.917 E4.52175
G1 X1.862 Y-5.787 E4.53176
G1 X2.413 Y-5.58 E4.54505
G1 X2.9 Y-5.355 E4.55716
G1 X3.42 Y-5.002 E4.57134
G1 X4.205 Y-4.363 E4.59419
G1 X4.594 Y-3.994 E4.60629
G1 X4.925 Y-3.572 E4.6184
G1 X5.128 Y-3.228 E4.62742
G1 X5.593 Y-2.331 E4.65022
G1 X5.804 Y-1.838 E4.66233
G1 X5.971 Y-1.104 E4.67932
G1 X6.062 Y-.347 E4.69653
G1 X6.086 Y0.189 E4.70864
G1 X6.046 Y0.631 E4.71866
G1 X5.956 Y1.215 E4.732
G1 X5.835 Y1.738 E4.74412
G1 X5.671 Y2.166 E4.75446
G1 X5.344 Y2.88 E4.77219
G1 X5.085 Y3.35 E4.7843
G1 X4.654 Y3.889 E4.79988
G1 X4.023 Y4.539 E4.82033
G1 X3.622 Y4.894 E4.83242
G1 X3.172 Y5.187 E4.84454
G1 X2.884 Y5.329 E4.85179
G1 X1.961 Y5.733 E4.87453
G0 F600 X1.8 Y5.366
G1 F450 X1.322 Y5.532 E4.88595
G1 X0.68 Y5.631 E4.90061
G1 X-.102 Y5.671 E4.91829
G1 X-.607 Y5.657 E4.92969
G1 X-1.199 Y5.536 E4.94333
G1 X-2.097 Y5.262 E4.96453
G1 X-2.567 Y5.076 E4.97593
G1 X-3.016 Y4.81 E4.98771
G1 X-3.547 Y4.433 E5.00241
G1 X-4.073 Y3.964 E5.01832
G1 X-4.369 Y3.635 E5.02831
G1 X-4.757 Y3.103 E5.04318
G1 X-5.051 Y2.597 E5.05638
G1 X-5.27 Y2.141 E5.0678
G1 X-5.382 Y1.792 E5.07608
G1 X-5.575 Y1.047 E5.09345
G1 X-5.662 Y0.549 E5.10486
G1 X-5.664 Y-0.044 E5.11825
G1 X-5.58 Y-.974 E5.13932
G1 X-5.495 Y-1.472 E5.15073
G1 X-5.235 Y-2.156 E5.16725
G1 X-4.783 Y-3.03 E5.18946
G1 X-4.516 Y-3.459 E5.20086
G1 X-4.228 Y-3.798 E5.2109
G1 X-3.906 Y-4.127 E5.22129
G1 X-3.424 Y-4.532 E5.23551
G1 X-2.951 Y-4.855 E5.24843
G1 X-2.512 Y-5.106 E5.25985
G1 X-2.008 Y-5.294 E5.27199
G1 X-1.035 Y-5.566 E5.2948
G1 X-.538 Y-5.663 E5.30623
G1 X0.105 Y-5.672 E5.32074
G1 X0.874 Y-5.605 E5.33817
G1 X1.372 Y-5.521 E5.34957
G1 X1.721 Y-5.413 E5.35781
G1 X2.272 Y-5.206 E5.3711
G1 X2.73 Y-4.991 E5.38252
G1 X3.167 Y-4.692 E5.39447
G1 X3.952 Y-4.053 E5.41732
G1 X4.318 Y-3.704 E5.42874
G1 X4.624 Y-3.301 E5.44016
G1 X4.773 Y-3.044 E5.44686
G1 X5.238 Y-2.147 E5.46967
G1 X5.434 Y-1.681 E5.48108
G1 X5.574 Y-1.056 E5.49554
G1 X5.665 Y-.299 E5.51275
G1 X5.686 Y0.206 E5.52416
G1 X5.651 Y0.57 E5.53241
G1 X5.561 Y1.154 E5.54575
G1 X5.444 Y1.646 E5.55717
G1 X5.307 Y1.999 E5.56571
G1 X4.98 Y2.713 E5.58344
G1 X4.734 Y3.155 E5.59486
G1 X4.367 Y3.61 E5.60805
G1 X3.736 Y4.26 E5.6285
G1 X3.356 Y4.594 E5.63992
G1 X2.723 Y4.962 E5.65645
G1 X1.8 Y5.366 E5.67919
G1 F1500 E-0.82081
;MESH:cylinder_for_rect.STL
G0 F600 X1.015 Y2.995
G0 X0.831 Y2.338
G0 X0.065 Y-.288
;TYPE:FILL
G1 F1500 E5.67919
G1 F450 X0.1 Y-.278 E5.68001
G1 X0.13 Y-.265 E5.68075
G1 X0.172 Y-.24 E5.68186
G1 X0.201 Y-.216 E5.68271
G1 X0.225 Y-.19 E5.6835
G1 X0.253 Y-.15 E5.68461
G1 X0.266 Y-.126 E5.68522
G1 X0.284 Y-0.077 E5.6864
G1 X0.291 Y-0.045 E5.68714
G1 X0.294 Y0.00 E5.68816
G1 X0.291 Y0.044 E5.68915
G1 X0.285 Y0.073 E5.68982
G1 X0.267 Y0.123 E5.69102
G1 X0.253 Y0.15 E5.69171
G1 X0.225 Y0.19 E5.69281
G1 X0.201 Y0.216 E5.69361
G1 X0.172 Y0.24 E5.69446
G1 X0.13 Y0.265 E5.69556
G1 X0.1 Y0.278 E5.6963
G1 X0.065 Y0.288 E5.69712
G1 X0.019 Y0.294 E5.69817
G1 X-0.019 Y0.294 E5.69903
G1 X-0.065 Y0.288 E5.70007
G1 X-.1 Y0.278 E5.7009
G1 X-.13 Y0.265 E5.70163
G1 X-.172 Y0.24 E5.70274
G1 X-.201 Y0.216 E5.70359
G1 X-.225 Y0.19 E5.70439
G1 X-.253 Y0.15 E5.70549
G1 X-.267 Y0.123 E5.70617
G1 X-.285 Y0.073 E5.70737
G1 X-.291 Y0.044 E5.70804
G1 X-.294 Y0.00 E5.70904
G1 X-.291 Y-0.045 E5.71006
G1 X-.284 Y-0.077 E5.71079
G1 X-.266 Y-.126 E5.71197
G1 X-.253 Y-.15 E5.71259
G1 X-.225 Y-.19 E5.71369
G1 X-.201 Y-.216 E5.71449
G1 X-.172 Y-.24 E5.71534
G1 X-.13 Y-.265 E5.71644
G1 X-.1 Y-.278 E5.71718
G1 X-0.065 Y-.288 E5.718
G1 X-0.019 Y-.294 E5.71905
G1 X0.019 Y-.294 E5.71991
G1 X0.065 Y-.288 E5.72095
G0 F600 X0.306 Y-1.466
G1 F450 X0.502 Y-1.411 E5.72555
G1 X0.686 Y-1.331 E5.73008
G1 X0.869 Y-1.22 E5.73491
G1 X1.021 Y-1.096 E5.73934
G1 X1.159 Y-.948 E5.74391
G1 X1.28 Y-.777 E5.74863
G1 X1.372 Y-.599 E5.75316
G1 X1.442 Y-.402 E5.75788
G1 X1.484 Y-.203 E5.76247
G1 X1.497 Y0.00 E5.76706
G1 X1.484 Y0.203 E5.77165
G1 X1.442 Y0.402 E5.77624
G1 X1.372 Y0.599 E5.78096
G1 X1.28 Y0.777 E5.78548
G1 X1.159 Y0.948 E5.79021
G1 X1.021 Y1.096 E5.79478
G1 X0.869 Y1.22 E5.79921
G1 X0.686 Y1.331 E5.80404
G1 X0.502 Y1.411 E5.80857
G1 X0.306 Y1.466 E5.81316
G1 X0.102 Y1.494 E5.81781
G1 X-.102 Y1.494 E5.82242
G1 X-.306 Y1.466 E5.82706
G1 X-.502 Y1.411 E5.83166
G1 X-.686 Y1.331 E5.83619
G1 X-.869 Y1.22 E5.84102
G1 X-1.021 Y1.096 E5.84545
G1 X-1.159 Y0.948 E5.85001
G1 X-1.28 Y0.777 E5.85474
G1 X-1.372 Y0.599 E5.85927
G1 X-1.442 Y0.402 E5.86399
G1 X-1.484 Y0.203 E5.86858
G1 X-1.497 Y0.00 E5.87317
G1 X-1.484 Y-.203 E5.87776
G1 X-1.442 Y-.402 E5.88235
G1 X-1.372 Y-.599 E5.88707
G1 X-1.28 Y-.777 E5.89159
G1 X-1.159 Y-.948 E5.89632
G1 X-1.021 Y-1.096 E5.90089
G1 X-.869 Y-1.22 E5.90532
G1 X-.686 Y-1.331 E5.91015
G1 X-.502 Y-1.411 E5.91468
G1 X-.306 Y-1.466 E5.91927
G1 X-.102 Y-1.494 E5.92392
G1 X0.102 Y-1.494 E5.92853
G1 X0.306 Y-1.466 E5.93317
;MESH:NONMESH
G0 F600 X0.065 Y-.288
;TIME_ELAPSED:44.714304
;LAYER:1
M106 S255
;MESH:cylinder_for_rect.STL
G0 F900 X0.065 Y-.288 Z1.1
;TYPE:FILL
G1 F600 X0.1 Y-.278 E5.93536
G1 X0.13 Y-.265 E5.93733
G1 X0.172 Y-.24 E5.94027
G1 X0.201 Y-.216 E5.94254
G1 X0.225 Y-.19 E5.94467
G1 X0.253 Y-.15 E5.94761
G1 X0.266 Y-.126 E5.94925
G1 X0.284 Y-0.077 E5.95239
G1 X0.291 Y-0.045 E5.95437
G1 X0.294 Y0.00 E5.95708
G1 X0.291 Y0.044 E5.95974
G1 X0.285 Y0.073 E5.96152
G1 X0.267 Y0.123 E5.96472
G1 X0.253 Y0.15 E5.96655
G1 X0.225 Y0.19 E5.96949
G1 X0.201 Y0.216 E5.97162
G1 X0.172 Y0.24 E5.97388
G1 X0.13 Y0.265 E5.97682
G1 X0.1 Y0.278 E5.97879
G1 X0.065 Y0.288 E5.98098
G1 X0.019 Y0.294 E5.98378
G1 X-0.019 Y0.294 E5.98606
G1 X-0.065 Y0.288 E5.98886
G1 X-.1 Y0.278 E5.99105
G1 X-.13 Y0.265 E5.99301
G1 X-.172 Y0.24 E5.99596
G1 X-.201 Y0.216 E5.99822
G1 X-.225 Y0.19 E6.00035
G1 X-.253 Y0.15 E6.00329
G1 X-.267 Y0.123 E6.00512
G1 X-.285 Y0.073 E6.00832
G1 X-.291 Y0.044 E6.0101
G1 X-.294 Y0.00 E6.01276
G1 X-.291 Y-0.045 E6.01547
G1 X-.284 Y-0.077 E6.01745
G1 X-.266 Y-.126 E6.02059
G1 X-.253 Y-.15 E6.02223
G1 X-.225 Y-.19 E6.02517
G1 X-.201 Y-.216 E6.0273
G1 X-.172 Y-.24 E6.02957
G1 X-.13 Y-.265 E6.03251
G1 X-.1 Y-.278 E6.03448
G1 X-0.065 Y-.288 E6.03667
G1 X-0.019 Y-.294 E6.03946
G1 X0.019 Y-.294 E6.04175
G1 X0.065 Y-.288 E6.04454
G0 F900 X0.306 Y-1.466
G1 F600 X0.502 Y-1.411 E6.05679
G1 X0.686 Y-1.331 E6.06887
G1 X0.869 Y-1.22 E6.08175
G1 X1.021 Y-1.096 E6.09356
G1 X1.159 Y-.948 E6.10574
G1 X1.28 Y-.777 E6.11835
G1 X1.372 Y-.599 E6.13041
G1 X1.442 Y-.402 E6.143
G1 X1.484 Y-.203 E6.15524
G1 X1.497 Y0.00 E6.16748
G1 X1.484 Y0.203 E6.17973
G1 X1.442 Y0.402 E6.19197
G1 X1.372 Y0.599 E6.20455
G1 X1.28 Y0.777 E6.21662
G1 X1.159 Y0.948 E6.22922
G1 X1.021 Y1.096 E6.24141
G1 X0.869 Y1.22 E6.25321
G1 X0.686 Y1.331 E6.2661
G1 X0.502 Y1.411 E6.27817
G1 X0.306 Y1.466 E6.29043
G1 X0.102 Y1.494 E6.30282
G1 X-.102 Y1.494 E6.3151
G1 X-.306 Y1.466 E6.3275
G1 X-.502 Y1.411 E6.33975
G1 X-.686 Y1.331 E6.35183
G1 X-.869 Y1.22 E6.36471
G1 X-1.021 Y1.096 E6.37652
G1 X-1.159 Y0.948 E6.3887
G1 X-1.28 Y0.777 E6.40131
G1 X-1.372 Y0.599 E6.41337
G1 X-1.442 Y0.402 E6.42595
G1 X-1.484 Y0.203 E6.4382
G1 X-1.497 Y0.00 E6.45044
G1 X-1.484 Y-.203 E6.46269
G1 X-1.442 Y-.402 E6.47493
G1 X-1.372 Y-.599 E6.48751
G1 X-1.28 Y-.777 E6.49957
G1 X-1.159 Y-.948 E6.51218
G1 X-1.021 Y-1.096 E6.52436
G1 X-.869 Y-1.22 E6.53617
G1 X-.686 Y-1.331 E6.54905
G1 X-.502 Y-1.411 E6.56113
G1 X-.306 Y-1.466 E6.57339
G1 X-.102 Y-1.494 E6.58578
G1 X0.102 Y-1.494 E6.59806
G1 X0.306 Y-1.466 E6.61045
;MESH:NONMESH
G0 F900 X0.065 Y-.288
;TIME_ELAPSED:46.204017
;LAYER:2
;MESH:cylinder_for_rect.STL
G0 F1200 X0.065 Y-.288 Z1.9
;TYPE:FILL
G1 F600 X0.1 Y-.278 E6.61265
G1 X0.13 Y-.265 E6.61461
G1 X0.172 Y-.24 E6.61756
G1 X0.201 Y-.216 E6.61982
G1 X0.225 Y-.19 E6.62195
G1 X0.253 Y-.15 E6.62489
G1 X0.266 Y-.126 E6.62653
G1 X0.284 Y-0.077 E6.62968
G1 X0.291 Y-0.045 E6.63165
G1 X0.294 Y0.00 E6.63436
G1 X0.291 Y0.044 E6.63702
G1 X0.285 Y0.073 E6.6388
G1 X0.267 Y0.123 E6.642
G1 X0.253 Y0.15 E6.64383
G1 X0.225 Y0.19 E6.64677
G1 X0.201 Y0.216 E6.6489
G1 X0.172 Y0.24 E6.65116
G1 X0.13 Y0.265 E6.65411
G1 X0.1 Y0.278 E6.65607
G1 X0.065 Y0.288 E6.65826
G1 X0.019 Y0.294 E6.66106
G1 X-0.019 Y0.294 E6.66334
G1 X-0.065 Y0.288 E6.66614
G1 X-.1 Y0.278 E6.66833
G1 X-.13 Y0.265 E6.6703
G1 X-.172 Y0.24 E6.67324
G1 X-.201 Y0.216 E6.6755
G1 X-.225 Y0.19 E6.67763
G1 X-.253 Y0.15 E6.68057
G1 X-.267 Y0.123 E6.6824
G1 X-.285 Y0.073 E6.6856
G1 X-.291 Y0.044 E6.68738
G1 X-.294 Y0.00 E6.69004
G1 X-.291 Y-0.045 E6.69275
G1 X-.284 Y-0.077 E6.69473
G1 X-.266 Y-.126 E6.69787
G1 X-.253 Y-.15 E6.69951
G1 X-.225 Y-.19 E6.70245
G1 X-.201 Y-.216 E6.70458
G1 X-.172 Y-.24 E6.70685
G1 X-.13 Y-.265 E6.70979
G1 X-.1 Y-.278 E6.71176
G1 X-0.065 Y-.288 E6.71395
G1 X-0.019 Y-.294 E6.71674
G1 X0.019 Y-.294 E6.71903
G1 X0.065 Y-.288 E6.72182
G0 F1200 X0.306 Y-1.466
G1 F600 X0.502 Y-1.411 E6.73407
G1 X0.686 Y-1.331 E6.74615
G1 X0.869 Y-1.22 E6.75903
G1 X1.021 Y-1.096 E6.77084
G1 X1.159 Y-.948 E6.78302
G1 X1.28 Y-.777 E6.79563
G1 X1.372 Y-.599 E6.80769
G1 X1.442 Y-.402 E6.82028
G1 X1.484 Y-.203 E6.83252
G1 X1.497 Y0.00 E6.84476
G1 X1.484 Y0.203 E6.85701
G1 X1.442 Y0.402 E6.86925
G1 X1.372 Y0.599 E6.88184
G1 X1.28 Y0.777 E6.8939
G1 X1.159 Y0.948 E6.90651
G1 X1.021 Y1.096 E6.91869
G1 X0.869 Y1.22 E6.93049
G1 X0.686 Y1.331 E6.94338
G1 X0.502 Y1.411 E6.95545
G1 X0.306 Y1.466 E6.96771
G1 X0.102 Y1.494 E6.9801
G1 X-.102 Y1.494 E6.99238
G1 X-.306 Y1.466 E7.00478
G1 X-.502 Y1.411 E7.01703
G1 X-.686 Y1.331 E7.02911
G1 X-.869 Y1.22 E7.04199
G1 X-1.021 Y1.096 E7.0538
G1 X-1.159 Y0.948 E7.06598
G1 X-1.28 Y0.777 E7.07859
G1 X-1.372 Y0.599 E7.09065
G1 X-1.442 Y0.402 E7.10323
G1 X-1.484 Y0.203 E7.11548
G1 X-1.497 Y0.00 E7.12772
G1 X-1.484 Y-.203 E7.13997
G1 X-1.442 Y-.402 E7.15221
G1 X-1.372 Y-.599 E7.16479
G1 X-1.28 Y-.777 E7.17685
G1 X-1.159 Y-.948 E7.18946
G1 X-1.021 Y-1.096 E7.20164
G1 X-.869 Y-1.22 E7.21345
G1 X-.686 Y-1.331 E7.22634
G1 X-.502 Y-1.411 E7.23841
G1 X-.306 Y-1.466 E7.25067
G1 X-.102 Y-1.494 E7.26306
G1 X0.102 Y-1.494 E7.27534
G1 X0.306 Y-1.466 E7.28773
;MESH:NONMESH
G0 F1200 X0.065 Y-.288
;TIME_ELAPSED:47.655720
;LAYER:3
;MESH:cylinder_for_rect.STL
G0 X0.065 Y-.288 Z2.7
;TYPE:FILL
G1 F600 X0.1 Y-.278 E7.28993
G1 X0.13 Y-.265 E7.29189
G1 X0.172 Y-.24 E7.29484
G1 X0.201 Y-.216 E7.2971
G1 X0.225 Y-.19 E7.29923
G1 X0.253 Y-.15 E7.30217
G1 X0.266 Y-.126 E7.30381
G1 X0.284 Y-0.077 E7.30696
G1 X0.291 Y-0.045 E7.30893
G1 X0.294 Y0.00 E7.31164
G1 X0.291 Y0.044 E7.3143
G1 X0.285 Y0.073 E7.31608
G1 X0.267 Y0.123 E7.31928
G1 X0.253 Y0.15 E7.32111
G1 X0.225 Y0.19 E7.32405
G1 X0.201 Y0.216 E7.32618
G1 X0.172 Y0.24 E7.32844
G1 X0.13 Y0.265 E7.33139
G1 X0.1 Y0.278 E7.33335
G1 X0.065 Y0.288 E7.33555
G1 X0.019 Y0.294 E7.33834
G1 X-0.019 Y0.294 E7.34063
G1 X-0.065 Y0.288 E7.34342
G1 X-.1 Y0.278 E7.34561
G1 X-.13 Y0.265 E7.34758
G1 X-.172 Y0.24 E7.35052
G1 X-.201 Y0.216 E7.35278
G1 X-.225 Y0.19 E7.35491
G1 X-.253 Y0.15 E7.35785
G1 X-.267 Y0.123 E7.35968
G1 X-.285 Y0.073 E7.36288
G1 X-.291 Y0.044 E7.36467
G1 X-.294 Y0.00 E7.36732
G1 X-.291 Y-0.045 E7.37004
G1 X-.284 Y-0.077 E7.37201
G1 X-.266 Y-.126 E7.37515
G1 X-.253 Y-.15 E7.37679
G1 X-.225 Y-.19 E7.37973
G1 X-.201 Y-.216 E7.38186
G1 X-.172 Y-.24 E7.38413
G1 X-.13 Y-.265 E7.38707
G1 X-.1 Y-.278 E7.38904
G1 X-0.065 Y-.288 E7.39123
G1 X-0.019 Y-.294 E7.39402
G1 X0.019 Y-.294 E7.39631
G1 X0.065 Y-.288 E7.3991
G0 F1200 X0.306 Y-1.466
G1 F600 X0.502 Y-1.411 E7.41135
G1 X0.686 Y-1.331 E7.42343
G1 X0.869 Y-1.22 E7.43631
G1 X1.021 Y-1.096 E7.44812
G1 X1.159 Y-.948 E7.4603
G1 X1.28 Y-.777 E7.47291
G1 X1.372 Y-.599 E7.48497
G1 X1.442 Y-.402 E7.49756
G1 X1.484 Y-.203 E7.5098
G1 X1.497 Y0.00 E7.52204
G1 X1.484 Y0.203 E7.53429
G1 X1.442 Y0.402 E7.54653
G1 X1.372 Y0.599 E7.55912
G1 X1.28 Y0.777 E7.57118
G1 X1.159 Y0.948 E7.58379
G1 X1.021 Y1.096 E7.59597
G1 X0.869 Y1.22 E7.60777
G1 X0.686 Y1.331 E7.62066
G1 X0.502 Y1.411 E7.63274
G1 X0.306 Y1.466 E7.64499
G1 X0.102 Y1.494 E7.65738
G1 X-.102 Y1.494 E7.66966
G1 X-.306 Y1.466 E7.68206
G1 X-.502 Y1.411 E7.69431
G1 X-.686 Y1.331 E7.70639
G1 X-.869 Y1.22 E7.71927
G1 X-1.021 Y1.096 E7.73108
G1 X-1.159 Y0.948 E7.74326
G1 X-1.28 Y0.777 E7.75587
G1 X-1.372 Y0.599 E7.76793
G1 X-1.442 Y0.402 E7.78052
G1 X-1.484 Y0.203 E7.79276
G1 X-1.497 Y0.00 E7.805
G1 X-1.484 Y-.203 E7.81725
G1 X-1.442 Y-.402 E7.82949
G1 X-1.372 Y-.599 E7.84207
G1 X-1.28 Y-.777 E7.85413
G1 X-1.159 Y-.948 E7.86674
G1 X-1.021 Y-1.096 E7.87892
G1 X-.869 Y-1.22 E7.89073
G1 X-.686 Y-1.331 E7.90362
G1 X-.502 Y-1.411 E7.91569
G1 X-.306 Y-1.466 E7.92795
G1 X-.102 Y-1.494 E7.94034
G1 X0.102 Y-1.494 E7.95262
G1 X0.306 Y-1.466 E7.96502
;MESH:NONMESH
G0 F1200 X0.065 Y-.288
;TIME_ELAPSED:49.107423
;LAYER:4
;MESH:cylinder_for_rect.STL
G0 X0.065 Y-.288 Z3.5
;TYPE:FILL
G1 F600 X0.1 Y-.278 E7.96721
G1 X0.13 Y-.265 E7.96918
G1 X0.172 Y-.24 E7.97212
G1 X0.201 Y-.216 E7.97438
G1 X0.225 Y-.19 E7.97651
G1 X0.253 Y-.15 E7.97945
G1 X0.266 Y-.126 E7.98109
G1 X0.284 Y-0.077 E7.98424
G1 X0.291 Y-0.045 E7.98621
G1 X0.294 Y0.00 E7.98892
G1 X0.291 Y0.044 E7.99158
G1 X0.285 Y0.073 E7.99336
G1 X0.267 Y0.123 E7.99656
G1 X0.253 Y0.15 E7.99839
G1 X0.225 Y0.19 E8.00133
G1 X0.201 Y0.216 E8.00346
G1 X0.172 Y0.24 E8.00573
G1 X0.13 Y0.265 E8.00867
G1 X0.1 Y0.278 E8.01064
G1 X0.065 Y0.288 E8.01283
G1 X0.019 Y0.294 E8.01562
G1 X-0.019 Y0.294 E8.01791
G1 X-0.065 Y0.288 E8.0207
G1 X-.1 Y0.278 E8.02289
G1 X-.13 Y0.265 E8.02486
G1 X-.172 Y0.24 E8.0278
G1 X-.201 Y0.216 E8.03007
G1 X-.225 Y0.19 E8.0322
G1 X-.253 Y0.15 E8.03513
G1 X-.267 Y0.123 E8.03697
G1 X-.285 Y0.073 E8.04016
G1 X-.291 Y0.044 E8.04195
G1 X-.294 Y0.00 E8.0446
G1 X-.291 Y-0.045 E8.04732
G1 X-.284 Y-0.077 E8.04929
G1 X-.266 Y-.126 E8.05243
G1 X-.253 Y-.15 E8.05407
G1 X-.225 Y-.19 E8.05701
G1 X-.201 Y-.216 E8.05914
G1 X-.172 Y-.24 E8.06141
G1 X-.13 Y-.265 E8.06435
G1 X-.1 Y-.278 E8.06632
G1 X-0.065 Y-.288 E8.06851
G1 X-0.019 Y-.294 E8.0713
G1 X0.019 Y-.294 E8.07359
G1 X0.065 Y-.288 E8.07638
G0 F1200 X0.306 Y-1.466
G1 F600 X0.502 Y-1.411 E8.08863
G1 X0.686 Y-1.331 E8.10071
G1 X0.869 Y-1.22 E8.1136
G1 X1.021 Y-1.096 E8.1254
G1 X1.159 Y-.948 E8.13758
G1 X1.28 Y-.777 E8.15019
G1 X1.372 Y-.599 E8.16225
G1 X1.442 Y-.402 E8.17484
G1 X1.484 Y-.203 E8.18708
G1 X1.497 Y0.00 E8.19933
G1 X1.484 Y0.203 E8.21157
G1 X1.442 Y0.402 E8.22381
G1 X1.372 Y0.599 E8.2364
G1 X1.28 Y0.777 E8.24846
G1 X1.159 Y0.948 E8.26107
G1 X1.021 Y1.096 E8.27325
G1 X0.869 Y1.22 E8.28506
G1 X0.686 Y1.331 E8.29794
G1 X0.502 Y1.411 E8.31002
G1 X0.306 Y1.466 E8.32227
G1 X0.102 Y1.494 E8.33466
G1 X-.102 Y1.494 E8.34694
G1 X-.306 Y1.466 E8.35934
G1 X-.502 Y1.411 E8.37159
G1 X-.686 Y1.331 E8.38367
G1 X-.869 Y1.22 E8.39655
G1 X-1.021 Y1.096 E8.40836
G1 X-1.159 Y0.948 E8.42054
G1 X-1.28 Y0.777 E8.43315
G1 X-1.372 Y0.599 E8.44521
G1 X-1.442 Y0.402 E8.4578
G1 X-1.484 Y0.203 E8.47004
G1 X-1.497 Y0.00 E8.48228
G1 X-1.484 Y-.203 E8.49453
G1 X-1.442 Y-.402 E8.50677
G1 X-1.372 Y-.599 E8.51935
G1 X-1.28 Y-.777 E8.53142
G1 X-1.159 Y-.948 E8.54403
G1 X-1.021 Y-1.096 E8.55621
G1 X-.869 Y-1.22 E8.56801
G1 X-.686 Y-1.331 E8.5809
G1 X-.502 Y-1.411 E8.59297
G1 X-.306 Y-1.466 E8.60523
G1 X-.102 Y-1.494 E8.61762
G1 X0.102 Y-1.494 E8.6299
G1 X0.306 Y-1.466 E8.6423
;MESH:NONMESH
G0 F1200 X0.065 Y-.288
;TIME_ELAPSED:50.559125
;LAYER:5
;MESH:cylinder_for_rect.STL
G0 X0.065 Y-.288 Z4.3
;TYPE:FILL
G1 F600 X0.1 Y-.278 E8.64449
G1 X0.13 Y-.265 E8.64646
G1 X0.172 Y-.24 E8.6494
G1 X0.201 Y-.216 E8.65166
G1 X0.225 Y-.19 E8.65379
G1 X0.253 Y-.15 E8.65673
G1 X0.266 Y-.126 E8.65838
G1 X0.284 Y-0.077 E8.66152
G1 X0.291 Y-0.045 E8.66349
G1 X0.294 Y0.00 E8.6662
G1 X0.291 Y0.044 E8.66886
G1 X0.285 Y0.073 E8.67064
G1 X0.267 Y0.123 E8.67384
G1 X0.253 Y0.15 E8.67567
G1 X0.225 Y0.19 E8.67861
G1 X0.201 Y0.216 E8.68074
G1 X0.172 Y0.24 E8.68301
G1 X0.13 Y0.265 E8.68595
G1 X0.1 Y0.278 E8.68792
G1 X0.065 Y0.288 E8.69011
G1 X0.019 Y0.294 E8.6929
G1 X-0.019 Y0.294 E8.69519
G1 X-0.065 Y0.288 E8.69798
G1 X-.1 Y0.278 E8.70017
G1 X-.13 Y0.265 E8.70214
G1 X-.172 Y0.24 E8.70508
G1 X-.201 Y0.216 E8.70735
G1 X-.225 Y0.19 E8.70948
G1 X-.253 Y0.15 E8.71242
G1 X-.267 Y0.123 E8.71425
G1 X-.285 Y0.073 E8.71745
G1 X-.291 Y0.044 E8.71923
G1 X-.294 Y0.00 E8.72188
G1 X-.291 Y-0.045 E8.7246
G1 X-.284 Y-0.077 E8.72657
G1 X-.266 Y-.126 E8.72971
G1 X-.253 Y-.15 E8.73135
G1 X-.225 Y-.19 E8.73429
G1 X-.201 Y-.216 E8.73642
G1 X-.172 Y-.24 E8.73869
G1 X-.13 Y-.265 E8.74163
G1 X-.1 Y-.278 E8.7436
G1 X-0.065 Y-.288 E8.74579
G1 X-0.019 Y-.294 E8.74858
G1 X0.019 Y-.294 E8.75087
G1 X0.065 Y-.288 E8.75366
G0 F1200 X0.306 Y-1.466
G1 F600 X0.502 Y-1.411 E8.76592
G1 X0.686 Y-1.331 E8.77799
G1 X0.869 Y-1.22 E8.79088
G1 X1.021 Y-1.096 E8.80268
G1 X1.159 Y-.948 E8.81486
G1 X1.28 Y-.777 E8.82747
G1 X1.372 Y-.599 E8.83954
G1 X1.442 Y-.402 E8.85212
G1 X1.484 Y-.203 E8.86436
G1 X1.497 Y0.00 E8.87661
G1 X1.484 Y0.203 E8.88885
G1 X1.442 Y0.402 E8.90109
G1 X1.372 Y0.599 E8.91368
G1 X1.28 Y0.777 E8.92574
G1 X1.159 Y0.948 E8.93835
G1 X1.021 Y1.096 E8.95053
G1 X0.869 Y1.22 E8.96234
G1 X0.686 Y1.331 E8.97522
G1 X0.502 Y1.411 E8.9873
G1 X0.306 Y1.466 E8.99955
G1 X0.102 Y1.494 E9.01195
G1 X-.102 Y1.494 E9.02423
G1 X-.306 Y1.466 E9.03662
G1 X-.502 Y1.411 E9.04887
G1 X-.686 Y1.331 E9.06095
G1 X-.869 Y1.22 E9.07383
G1 X-1.021 Y1.096 E9.08564
G1 X-1.159 Y0.948 E9.09782
G1 X-1.28 Y0.777 E9.11043
G1 X-1.372 Y0.599 E9.12249
G1 X-1.442 Y0.402 E9.13508
G1 X-1.484 Y0.203 E9.14732
G1 X-1.497 Y0.00 E9.15956
G1 X-1.484 Y-.203 E9.17181
G1 X-1.442 Y-.402 E9.18405
G1 X-1.372 Y-.599 E9.19664
G1 X-1.28 Y-.777 E9.2087
G1 X-1.159 Y-.948 E9.22131
G1 X-1.021 Y-1.096 E9.23349
G1 X-.869 Y-1.22 E9.24529
G1 X-.686 Y-1.331 E9.25818
G1 X-.502 Y-1.411 E9.27026
G1 X-.306 Y-1.466 E9.28251
G1 X-.102 Y-1.494 E9.2949
G1 X0.102 Y-1.494 E9.30718
G1 X0.306 Y-1.466 E9.31958
;MESH:NONMESH
G0 F1200 X0.065 Y-.288
;TIME_ELAPSED:52.010828
;LAYER:6
;MESH:cylinder_for_rect.STL
G0 X0.065 Y-.288 Z5.1
;TYPE:FILL
G1 F600 X0.1 Y-.278 E9.32177
G1 X0.13 Y-.265 E9.32374
G1 X0.172 Y-.24 E9.32668
G1 X0.201 Y-.216 E9.32894
G1 X0.225 Y-.19 E9.33107
G1 X0.253 Y-.15 E9.33401
G1 X0.266 Y-.126 E9.33566
G1 X0.284 Y-0.077 E9.3388
G1 X0.291 Y-0.045 E9.34077
G1 X0.294 Y0.00 E9.34349
G1 X0.291 Y0.044 E9.34614
G1 X0.285 Y0.073 E9.34792
G1 X0.267 Y0.123 E9.35112
G1 X0.253 Y0.15 E9.35295
G1 X0.225 Y0.19 E9.35589
G1 X0.201 Y0.216 E9.35802
G1 X0.172 Y0.24 E9.36029
G1 X0.13 Y0.265 E9.36323
G1 X0.1 Y0.278 E9.3652
G1 X0.065 Y0.288 E9.36739
G1 X0.019 Y0.294 E9.37018
G1 X-0.019 Y0.294 E9.37247
G1 X-0.065 Y0.288 E9.37526
G1 X-.1 Y0.278 E9.37745
G1 X-.13 Y0.265 E9.37942
G1 X-.172 Y0.24 E9.38236
G1 X-.201 Y0.216 E9.38463
G1 X-.225 Y0.19 E9.38676
G1 X-.253 Y0.15 E9.3897
G1 X-.267 Y0.123 E9.39153
G1 X-.285 Y0.073 E9.39473
G1 X-.291 Y0.044 E9.39651
G1 X-.294 Y0.00 E9.39916
G1 X-.291 Y-0.045 E9.40188
G1 X-.284 Y-0.077 E9.40385
G1 X-.266 Y-.126 E9.40699
G1 X-.253 Y-.15 E9.40863
G1 X-.225 Y-.19 E9.41157
G1 X-.201 Y-.216 E9.4137
G1 X-.172 Y-.24 E9.41597
G1 X-.13 Y-.265 E9.41891
G1 X-.1 Y-.278 E9.42088
G1 X-0.065 Y-.288 E9.42307
G1 X-0.019 Y-.294 E9.42586
G1 X0.019 Y-.294 E9.42815
G1 X0.065 Y-.288 E9.43094
G0 F1200 X0.306 Y-1.466
G1 F600 X0.502 Y-1.411 E9.4432
G1 X0.686 Y-1.331 E9.45527
G1 X0.869 Y-1.22 E9.46816
G1 X1.021 Y-1.096 E9.47997
G1 X1.159 Y-.948 E9.49215
G1 X1.28 Y-.777 E9.50476
G1 X1.372 Y-.599 E9.51682
G1 X1.442 Y-.402 E9.5294
G1 X1.484 Y-.203 E9.54164
G1 X1.497 Y0.00 E9.55389
G1 X1.484 Y0.203 E9.56613
G1 X1.442 Y0.402 E9.57837
G1 X1.372 Y0.599 E9.59096
G1 X1.28 Y0.777 E9.60302
G1 X1.159 Y0.948 E9.61563
G1 X1.021 Y1.096 E9.62781
G1 X0.869 Y1.22 E9.63962
G1 X0.686 Y1.331 E9.6525
G1 X0.502 Y1.411 E9.66458
G1 X0.306 Y1.466 E9.67683
G1 X0.102 Y1.494 E9.68923
G1 X-.102 Y1.494 E9.70151
G1 X-.306 Y1.466 E9.7139
G1 X-.502 Y1.411 E9.72615
G1 X-.686 Y1.331 E9.73823
G1 X-.869 Y1.22 E9.75112
G1 X-1.021 Y1.096 E9.76292
G1 X-1.159 Y0.948 E9.7751
G1 X-1.28 Y0.777 E9.78771
G1 X-1.372 Y0.599 E9.79977
G1 X-1.442 Y0.402 E9.81236
G1 X-1.484 Y0.203 E9.8246
G1 X-1.497 Y0.00 E9.83685
G1 X-1.484 Y-.203 E9.84909
G1 X-1.442 Y-.402 E9.86133
G1 X-1.372 Y-.599 E9.87392
G1 X-1.28 Y-.777 E9.88598
G1 X-1.159 Y-.948 E9.89859
G1 X-1.021 Y-1.096 E9.91077
G1 X-.869 Y-1.22 E9.92258
G1 X-.686 Y-1.331 E9.93546
G1 X-.502 Y-1.411 E9.94754
G1 X-.306 Y-1.466 E9.95979
G1 X-.102 Y-1.494 E9.97218
G1 X0.102 Y-1.494 E9.98446
G1 X0.306 Y-1.466 E9.99686
;MESH:NONMESH
G0 F1200 X0.065 Y-.288
;TIME_ELAPSED:53.462530
;LAYER:7
;MESH:cylinder_for_rect.STL
G0 X0.065 Y-.288 Z5.9
;TYPE:FILL
G1 F600 X0.1 Y-.278 E9.99905
G1 X0.13 Y-.265 E10.00102
G1 X0.172 Y-.24 E10.00396
G1 X0.201 Y-.216 E10.00623
G1 X0.225 Y-.19 E10.00836
G1 X0.253 Y-.15 E10.01129
G1 X0.266 Y-.126 E10.01294
G1 X0.284 Y-0.077 E10.01608
G1 X0.291 Y-0.045 E10.01805
G1 X0.294 Y0.00 E10.02077
G1 X0.291 Y0.044 E10.02342
G1 X0.285 Y0.073 E10.0252
G1 X0.267 Y0.123 E10.0284
G1 X0.253 Y0.15 E10.03023
G1 X0.225 Y0.19 E10.03317
G1 X0.201 Y0.216 E10.0353
G1 X0.172 Y0.24 E10.03757
G1 X0.13 Y0.265 E10.04051
G1 X0.1 Y0.278 E10.04248
G1 X0.065 Y0.288 E10.04467
G1 X0.019 Y0.294 E10.04746
G1 X-0.019 Y0.294 E10.04975
G1 X-0.065 Y0.288 E10.05254
G1 X-.1 Y0.278 E10.05473
G1 X-.13 Y0.265 E10.0567
G1 X-.172 Y0.24 E10.05964
G1 X-.201 Y0.216 E10.06191
G1 X-.225 Y0.19 E10.06404
G1 X-.253 Y0.15 E10.06698
G1 X-.267 Y0.123 E10.06881
G1 X-.285 Y0.073 E10.07201
G1 X-.291 Y0.044 E10.07379
G1 X-.294 Y0.00 E10.07644
G1 X-.291 Y-0.045 E10.07916
G1 X-.284 Y-0.077 E10.08113
G1 X-.266 Y-.126 E10.08427
G1 X-.253 Y-.15 E10.08592
G1 X-.225 Y-.19 E10.08885
G1 X-.201 Y-.216 E10.09098
G1 X-.172 Y-.24 E10.09325
G1 X-.13 Y-.265 E10.09619
G1 X-.1 Y-.278 E10.09816
G1 X-0.065 Y-.288 E10.10035
G1 X-0.019 Y-.294 E10.10314
G1 X0.019 Y-.294 E10.10543
G1 X0.065 Y-.288 E10.10822
G0 F1200 X0.306 Y-1.466
G1 F600 X0.502 Y-1.411 E10.12048
G1 X0.686 Y-1.331 E10.13255
G1 X0.869 Y-1.22 E10.14544
G1 X1.021 Y-1.096 E10.15725
G1 X1.159 Y-.948 E10.16943
G1 X1.28 Y-.777 E10.18204
G1 X1.372 Y-.599 E10.1941
G1 X1.442 Y-.402 E10.20668
G1 X1.484 Y-.203 E10.21892
G1 X1.497 Y0.00 E10.23117
G1 X1.484 Y0.203 E10.24341
G1 X1.442 Y0.402 E10.25566
G1 X1.372 Y0.599 E10.26824
G1 X1.28 Y0.777 E10.2803
G1 X1.159 Y0.948 E10.29291
G1 X1.021 Y1.096 E10.30509
G1 X0.869 Y1.22 E10.3169
G1 X0.686 Y1.331 E10.32978
G1 X0.502 Y1.411 E10.34186
G1 X0.306 Y1.466 E10.35411
G1 X0.102 Y1.494 E10.36651
G1 X-.102 Y1.494 E10.37879
G1 X-.306 Y1.466 E10.39118
G1 X-.502 Y1.411 E10.40344
G1 X-.686 Y1.331 E10.41551
G1 X-.869 Y1.22 E10.4284
G1 X-1.021 Y1.096 E10.4402
G1 X-1.159 Y0.948 E10.45238
G1 X-1.28 Y0.777 E10.46499
G1 X-1.372 Y0.599 E10.47706
G1 X-1.442 Y0.402 E10.48964
G1 X-1.484 Y0.203 E10.50188
G1 X-1.497 Y0.00 E10.51413
G1 X-1.484 Y-.203 E10.52637
G1 X-1.442 Y-.402 E10.53861
G1 X-1.372 Y-.599 E10.5512
G1 X-1.28 Y-.777 E10.56326
G1 X-1.159 Y-.948 E10.57587
G1 X-1.021 Y-1.096 E10.58805
G1 X-.869 Y-1.22 E10.59986
G1 X-.686 Y-1.331 E10.61274
G1 X-.502 Y-1.411 E10.62482
G1 X-.306 Y-1.466 E10.63707
G1 X-.102 Y-1.494 E10.64947
G1 X0.102 Y-1.494 E10.66175
G1 X0.306 Y-1.466 E10.67414
;MESH:NONMESH
G0 F1200 X0.065 Y-.288
;TIME_ELAPSED:54.914233
;LAYER:8
;MESH:cylinder_for_rect.STL
G0 X0.065 Y-.288 Z6.7
;TYPE:FILL
G1 F600 X0.1 Y-.278 E10.67633
G1 X0.13 Y-.265 E10.6783
G1 X0.172 Y-.24 E10.68124
G1 X0.201 Y-.216 E10.68351
G1 X0.225 Y-.19 E10.68564
G1 X0.253 Y-.15 E10.68858
G1 X0.266 Y-.126 E10.69022
G1 X0.284 Y-0.077 E10.69336
G1 X0.291 Y-0.045 E10.69533
G1 X0.294 Y0.00 E10.69805
G1 X0.291 Y0.044 E10.7007
G1 X0.285 Y0.073 E10.70248
G1 X0.267 Y0.123 E10.70568
G1 X0.253 Y0.15 E10.70751
G1 X0.225 Y0.19 E10.71045
G1 X0.201 Y0.216 E10.71258
G1 X0.172 Y0.24 E10.71485
G1 X0.13 Y0.265 E10.71779
G1 X0.1 Y0.278 E10.71976
G1 X0.065 Y0.288 E10.72195
G1 X0.019 Y0.294 E10.72474
G1 X-0.019 Y0.294 E10.72703
G1 X-0.065 Y0.288 E10.72982
G1 X-.1 Y0.278 E10.73201
G1 X-.13 Y0.265 E10.73398
G1 X-.172 Y0.24 E10.73692
G1 X-.201 Y0.216 E10.73919
G1 X-.225 Y0.19 E10.74132
G1 X-.253 Y0.15 E10.74426
G1 X-.267 Y0.123 E10.74609
G1 X-.285 Y0.073 E10.74929
G1 X-.291 Y0.044 E10.75107
G1 X-.294 Y0.00 E10.75373
G1 X-.291 Y-0.045 E10.75644
G1 X-.284 Y-0.077 E10.75841
G1 X-.266 Y-.126 E10.76155
G1 X-.253 Y-.15 E10.7632
G1 X-.225 Y-.19 E10.76614
G1 X-.201 Y-.216 E10.76827
G1 X-.172 Y-.24 E10.77053
G1 X-.13 Y-.265 E10.77347
G1 X-.1 Y-.278 E10.77544
G1 X-0.065 Y-.288 E10.77763
G1 X-0.019 Y-.294 E10.78043
G1 X0.019 Y-.294 E10.78271
G1 X0.065 Y-.288 E10.7855
G0 F1200 X0.306 Y-1.466
G1 F600 X0.502 Y-1.411 E10.79776
G1 X0.686 Y-1.331 E10.80984
G1 X0.869 Y-1.22 E10.82272
G1 X1.021 Y-1.096 E10.83453
G1 X1.159 Y-.948 E10.84671
G1 X1.28 Y-.777 E10.85932
G1 X1.372 Y-.599 E10.87138
G1 X1.442 Y-.402 E10.88396
G1 X1.484 Y-.203 E10.89621
G1 X1.497 Y0.00 E10.90845
G1 X1.484 Y0.203 E10.92069
G1 X1.442 Y0.402 E10.93294
G1 X1.372 Y0.599 E10.94552
G1 X1.28 Y0.777 E10.95758
G1 X1.159 Y0.948 E10.97019
G1 X1.021 Y1.096 E10.98237
G1 X0.869 Y1.22 E10.99418
G1 X0.686 Y1.331 E11.00706
G1 X0.502 Y1.411 E11.01914
G1 X0.306 Y1.466 E11.03139
G1 X0.102 Y1.494 E11.04379
G1 X-.102 Y1.494 E11.05607
G1 X-.306 Y1.466 E11.06846
G1 X-.502 Y1.411 E11.08072
G1 X-.686 Y1.331 E11.09279
G1 X-.869 Y1.22 E11.10568
G1 X-1.021 Y1.096 E11.11748
G1 X-1.159 Y0.948 E11.12967
G1 X-1.28 Y0.777 E11.14227
G1 X-1.372 Y0.599 E11.15434
G1 X-1.442 Y0.402 E11.16692
G1 X-1.484 Y0.203 E11.17916
G1 X-1.497 Y0.00 E11.19141
G1 X-1.484 Y-.203 E11.20365
G1 X-1.442 Y-.402 E11.21589
G1 X-1.372 Y-.599 E11.22848
G1 X-1.28 Y-.777 E11.24054
G1 X-1.159 Y-.948 E11.25315
G1 X-1.021 Y-1.096 E11.26533
G1 X-.869 Y-1.22 E11.27714
G1 X-.686 Y-1.331 E11.29002
G1 X-.502 Y-1.411 E11.3021
G1 X-.306 Y-1.466 E11.31435
G1 X-.102 Y-1.494 E11.32675
G1 X0.102 Y-1.494 E11.33903
G1 X0.306 Y-1.466 E11.35142
;MESH:NONMESH
G0 F1200 X0.065 Y-.288
;TIME_ELAPSED:56.365936
;LAYER:9
;MESH:cylinder_for_rect.STL
G0 X0.065 Y-.288 Z7.5
;TYPE:FILL
G1 F600 X0.1 Y-.278 E11.35361
G1 X0.13 Y-.265 E11.35558
G1 X0.172 Y-.24 E11.35852
G1 X0.201 Y-.216 E11.36079
G1 X0.225 Y-.19 E11.36292
G1 X0.253 Y-.15 E11.36586
G1 X0.266 Y-.126 E11.3675
G1 X0.284 Y-0.077 E11.37064
G1 X0.291 Y-0.045 E11.37261
G1 X0.294 Y0.00 E11.37533
G1 X0.291 Y0.044 E11.37798
G1 X0.285 Y0.073 E11.37977
G1 X0.267 Y0.123 E11.38296
G1 X0.253 Y0.15 E11.3848
G1 X0.225 Y0.19 E11.38773
G1 X0.201 Y0.216 E11.38986
G1 X0.172 Y0.24 E11.39213
G1 X0.13 Y0.265 E11.39507
G1 X0.1 Y0.278 E11.39704
G1 X0.065 Y0.288 E11.39923
G1 X0.019 Y0.294 E11.40202
G1 X-0.019 Y0.294 E11.40431
G1 X-0.065 Y0.288 E11.4071
G1 X-.1 Y0.278 E11.40929
G1 X-.13 Y0.265 E11.41126
G1 X-.172 Y0.24 E11.4142
G1 X-.201 Y0.216 E11.41647
G1 X-.225 Y0.19 E11.4186
G1 X-.253 Y0.15 E11.42154
G1 X-.267 Y0.123 E11.42337
G1 X-.285 Y0.073 E11.42657
G1 X-.291 Y0.044 E11.42835
G1 X-.294 Y0.00 E11.43101
G1 X-.291 Y-0.045 E11.43372
G1 X-.284 Y-0.077 E11.43569
G1 X-.266 Y-.126 E11.43883
G1 X-.253 Y-.15 E11.44048
G1 X-.225 Y-.19 E11.44342
G1 X-.201 Y-.216 E11.44555
G1 X-.172 Y-.24 E11.44781
G1 X-.13 Y-.265 E11.45075
G1 X-.1 Y-.278 E11.45272
G1 X-0.065 Y-.288 E11.45491
G1 X-0.019 Y-.294 E11.45771
G1 X0.019 Y-.294 E11.45999
G1 X0.065 Y-.288 E11.46279
G0 F1200 X0.306 Y-1.466
G1 F600 X0.502 Y-1.411 E11.47504
G1 X0.686 Y-1.331 E11.48712
G1 X0.869 Y-1.22 E11.5
G1 X1.021 Y-1.096 E11.51181
G1 X1.159 Y-.948 E11.52399
G1 X1.28 Y-.777 E11.5366
G1 X1.372 Y-.599 E11.54866
G1 X1.442 Y-.402 E11.56124
G1 X1.484 Y-.203 E11.57349
G1 X1.497 Y0.00 E11.58573
G1 X1.484 Y0.203 E11.59797
G1 X1.442 Y0.402 E11.61022
G1 X1.372 Y0.599 E11.6228
G1 X1.28 Y0.777 E11.63486
G1 X1.159 Y0.948 E11.64747
G1 X1.021 Y1.096 E11.65965
G1 X0.869 Y1.22 E11.67146
G1 X0.686 Y1.331 E11.68434
G1 X0.502 Y1.411 E11.69642
G1 X0.306 Y1.466 E11.70867
G1 X0.102 Y1.494 E11.72107
G1 X-.102 Y1.494 E11.73335
G1 X-.306 Y1.466 E11.74574
G1 X-.502 Y1.411 E11.758
G1 X-.686 Y1.331 E11.77007
G1 X-.869 Y1.22 E11.78296
G1 X-1.021 Y1.096 E11.79477
G1 X-1.159 Y0.948 E11.80695
G1 X-1.28 Y0.777 E11.81956
G1 X-1.372 Y0.599 E11.83162
G1 X-1.442 Y0.402 E11.8442
G1 X-1.484 Y0.203 E11.85644
G1 X-1.497 Y0.00 E11.86869
G1 X-1.484 Y-.203 E11.88093
G1 X-1.442 Y-.402 E11.89318
G1 X-1.372 Y-.599 E11.90576
G1 X-1.28 Y-.777 E11.91782
G1 X-1.159 Y-.948 E11.93043
G1 X-1.021 Y-1.096 E11.94261
G1 X-.869 Y-1.22 E11.95442
G1 X-.686 Y-1.331 E11.9673
G1 X-.502 Y-1.411 E11.97938
G1 X-.306 Y-1.466 E11.99163
G1 X-.102 Y-1.494 E12.00403
G1 X0.102 Y-1.494 E12.01631
G1 X0.306 Y-1.466 E12.0287
;MESH:NONMESH
G0 F1200 X0.065 Y-.288
;TIME_ELAPSED:57.817638
;LAYER:10
;MESH:cylinder_for_rect.STL
G0 X0.065 Y-.288 Z8.3
;TYPE:FILL
G1 F600 X0.1 Y-.278 E12.03089
G1 X0.13 Y-.265 E12.03286
G1 X0.172 Y-.24 E12.0358
G1 X0.201 Y-.216 E12.03807
G1 X0.225 Y-.19 E12.0402
G1 X0.253 Y-.15 E12.04314
G1 X0.266 Y-.126 E12.04478
G1 X0.284 Y-0.077 E12.04792
G1 X0.291 Y-0.045 E12.04989
G1 X0.294 Y0.00 E12.05261
G1 X0.291 Y0.044 E12.05526
G1 X0.285 Y0.073 E12.05705
G1 X0.267 Y0.123 E12.06025
G1 X0.253 Y0.15 E12.06208
G1 X0.225 Y0.19 E12.06502
G1 X0.201 Y0.216 E12.06714
G1 X0.172 Y0.24 E12.06941
G1 X0.13 Y0.265 E12.07235
G1 X0.1 Y0.278 E12.07432
G1 X0.065 Y0.288 E12.07651
G1 X0.019 Y0.294 E12.0793
G1 X-0.019 Y0.294 E12.08159
G1 X-0.065 Y0.288 E12.08438
G1 X-.1 Y0.278 E12.08658
G1 X-.13 Y0.265 E12.08854
G1 X-.172 Y0.24 E12.09149
G1 X-.201 Y0.216 E12.09375
G1 X-.225 Y0.19 E12.09588
G1 X-.253 Y0.15 E12.09882
G1 X-.267 Y0.123 E12.10065
G1 X-.285 Y0.073 E12.10385
G1 X-.291 Y0.044 E12.10563
G1 X-.294 Y0.00 E12.10829
G1 X-.291 Y-0.045 E12.111
G1 X-.284 Y-0.077 E12.11297
G1 X-.266 Y-.126 E12.11612
G1 X-.253 Y-.15 E12.11776
G1 X-.225 Y-.19 E12.1207
G1 X-.201 Y-.216 E12.12283
G1 X-.172 Y-.24 E12.12509
G1 X-.13 Y-.265 E12.12804
G1 X-.1 Y-.278 E12.13
G1 X-0.065 Y-.288 E12.13219
G1 X-0.019 Y-.294 E12.13499
G1 X0.019 Y-.294 E12.13727
G1 X0.065 Y-.288 E12.14007
G0 F1200 X0.306 Y-1.466
G1 F600 X0.502 Y-1.411 E12.15232
G1 X0.686 Y-1.331 E12.1644
G1 X0.869 Y-1.22 E12.17728
G1 X1.021 Y-1.096 E12.18909
G1 X1.159 Y-.948 E12.20127
G1 X1.28 Y-.777 E12.21388
G1 X1.372 Y-.599 E12.22594
G1 X1.442 Y-.402 E12.23852
G1 X1.484 Y-.203 E12.25077
G1 X1.497 Y0.00 E12.26301
G1 X1.484 Y0.203 E12.27526
G1 X1.442 Y0.402 E12.2875
G1 X1.372 Y0.599 E12.30008
G1 X1.28 Y0.777 E12.31214
G1 X1.159 Y0.948 E12.32475
G1 X1.021 Y1.096 E12.33693
G1 X0.869 Y1.22 E12.34874
G1 X0.686 Y1.331 E12.36162
G1 X0.502 Y1.411 E12.3737
G1 X0.306 Y1.466 E12.38596
G1 X0.102 Y1.494 E12.39835
G1 X-.102 Y1.494 E12.41063
G1 X-.306 Y1.466 E12.42302
G1 X-.502 Y1.411 E12.43528
G1 X-.686 Y1.331 E12.44736
G1 X-.869 Y1.22 E12.46024
G1 X-1.021 Y1.096 E12.47205
G1 X-1.159 Y0.948 E12.48423
G1 X-1.28 Y0.777 E12.49684
G1 X-1.372 Y0.599 E12.5089
G1 X-1.442 Y0.402 E12.52148
G1 X-1.484 Y0.203 E12.53372
G1 X-1.497 Y0.00 E12.54597
G1 X-1.484 Y-.203 E12.55821
G1 X-1.442 Y-.402 E12.57046
G1 X-1.372 Y-.599 E12.58304
G1 X-1.28 Y-.777 E12.5951
G1 X-1.159 Y-.948 E12.60771
G1 X-1.021 Y-1.096 E12.61989
G1 X-.869 Y-1.22 E12.6317
G1 X-.686 Y-1.331 E12.64458
G1 X-.502 Y-1.411 E12.65666
G1 X-.306 Y-1.466 E12.66891
G1 X-.102 Y-1.494 E12.68131
G1 X0.102 Y-1.494 E12.69359
G1 X0.306 Y-1.466 E12.70598
;MESH:NONMESH
G0 F1200 X0.065 Y-.288
;TIME_ELAPSED:59.269341
;LAYER:11
;MESH:cylinder_for_rect.STL
G0 X0.065 Y-.288 Z9.1
;TYPE:FILL
G1 F600 X0.1 Y-.278 E12.70817
G1 X0.13 Y-.265 E12.71014
G1 X0.172 Y-.24 E12.71308
G1 X0.201 Y-.216 E12.71535
G1 X0.225 Y-.19 E12.71748
G1 X0.253 Y-.15 E12.72042
G1 X0.266 Y-.126 E12.72206
G1 X0.284 Y-0.077 E12.7252
G1 X0.291 Y-0.045 E12.72718
G1 X0.294 Y0.00 E12.72989
G1 X0.291 Y0.044 E12.73254
G1 X0.285 Y0.073 E12.73433
G1 X0.267 Y0.123 E12.73753
G1 X0.253 Y0.15 E12.73936
G1 X0.225 Y0.19 E12.7423
G1 X0.201 Y0.216 E12.74443
G1 X0.172 Y0.24 E12.74669
G1 X0.13 Y0.265 E12.74963
G1 X0.1 Y0.278 E12.7516
G1 X0.065 Y0.288 E12.75379
G1 X0.019 Y0.294 E12.75659
G1 X-0.019 Y0.294 E12.75887
G1 X-0.065 Y0.288 E12.76167
G1 X-.1 Y0.278 E12.76386
G1 X-.13 Y0.265 E12.76582
G1 X-.172 Y0.24 E12.76877
G1 X-.201 Y0.216 E12.77103
G1 X-.225 Y0.19 E12.77316
G1 X-.253 Y0.15 E12.7761
G1 X-.267 Y0.123 E12.77793
G1 X-.285 Y0.073 E12.78113
G1 X-.291 Y0.044 E12.78291
G1 X-.294 Y0.00 E12.78557
G1 X-.291 Y-0.045 E12.78828
G1 X-.284 Y-0.077 E12.79025
G1 X-.266 Y-.126 E12.7934
G1 X-.253 Y-.15 E12.79504
G1 X-.225 Y-.19 E12.79798
G1 X-.201 Y-.216 E12.80011
G1 X-.172 Y-.24 E12.80237
G1 X-.13 Y-.265 E12.80532
G1 X-.1 Y-.278 E12.80728
G1 X-0.065 Y-.288 E12.80948
G1 X-0.019 Y-.294 E12.81227
G1 X0.019 Y-.294 E12.81456
G1 X0.065 Y-.288 E12.81735
G0 F1200 X0.306 Y-1.466
G1 F600 X0.502 Y-1.411 E12.8296
G1 X0.686 Y-1.331 E12.84168
G1 X0.869 Y-1.22 E12.85456
G1 X1.021 Y-1.096 E12.86637
G1 X1.159 Y-.948 E12.87855
G1 X1.28 Y-.777 E12.89116
G1 X1.372 Y-.599 E12.90322
G1 X1.442 Y-.402 E12.91581
G1 X1.484 Y-.203 E12.92805
G1 X1.497 Y0.00 E12.94029
G1 X1.484 Y0.203 E12.95254
G1 X1.442 Y0.402 E12.96478
G1 X1.372 Y0.599 E12.97736
G1 X1.28 Y0.777 E12.98942
G1 X1.159 Y0.948 E13.00203
G1 X1.021 Y1.096 E13.01421
G1 X0.869 Y1.22 E13.02602
G1 X0.686 Y1.331 E13.03891
G1 X0.502 Y1.411 E13.05098
G1 X0.306 Y1.466 E13.06324
G1 X0.102 Y1.494 E13.07563
G1 X-.102 Y1.494 E13.08791
G1 X-.306 Y1.466 E13.10031
G1 X-.502 Y1.411 E13.11256
G1 X-.686 Y1.331 E13.12464
G1 X-.869 Y1.22 E13.13752
G1 X-1.021 Y1.096 E13.14933
G1 X-1.159 Y0.948 E13.16151
G1 X-1.28 Y0.777 E13.17412
G1 X-1.372 Y0.599 E13.18618
G1 X-1.442 Y0.402 E13.19876
G1 X-1.484 Y0.203 E13.21101
G1 X-1.497 Y0.00 E13.22325
G1 X-1.484 Y-.203 E13.23549
G1 X-1.442 Y-.402 E13.24774
G1 X-1.372 Y-.599 E13.26032
G1 X-1.28 Y-.777 E13.27238
G1 X-1.159 Y-.948 E13.28499
G1 X-1.021 Y-1.096 E13.29717
G1 X-.869 Y-1.22 E13.30898
G1 X-.686 Y-1.331 E13.32186
G1 X-.502 Y-1.411 E13.33394
G1 X-.306 Y-1.466 E13.34619
G1 X-.102 Y-1.494 E13.35859
G1 X0.102 Y-1.494 E13.37087
G1 X0.306 Y-1.466 E13.38326
;MESH:NONMESH
G0 F1200 X0.065 Y-.288
;TIME_ELAPSED:60.721044
;LAYER:12
;MESH:cylinder_for_rect.STL
G0 X0.065 Y-.288 Z9.9
;TYPE:FILL
G1 F600 X0.1 Y-.278 E13.38545
G1 X0.13 Y-.265 E13.38742
G1 X0.172 Y-.24 E13.39036
G1 X0.201 Y-.216 E13.39263
G1 X0.225 Y-.19 E13.39476
G1 X0.253 Y-.15 E13.3977
G1 X0.266 Y-.126 E13.39934
G1 X0.284 Y-0.077 E13.40248
G1 X0.291 Y-0.045 E13.40446
G1 X0.294 Y0.00 E13.40717
G1 X0.291 Y0.044 E13.40983
G1 X0.285 Y0.073 E13.41161
G1 X0.267 Y0.123 E13.41481
G1 X0.253 Y0.15 E13.41664
G1 X0.225 Y0.19 E13.41958
G1 X0.201 Y0.216 E13.42171
G1 X0.172 Y0.24 E13.42397
G1 X0.13 Y0.265 E13.42691
G1 X0.1 Y0.278 E13.42888
G1 X0.065 Y0.288 E13.43107
G1 X0.019 Y0.294 E13.43387
G1 X-0.019 Y0.294 E13.43615
G1 X-0.065 Y0.288 E13.43895
G1 X-.1 Y0.278 E13.44114
G1 X-.13 Y0.265 E13.44311
G1 X-.172 Y0.24 E13.44605
G1 X-.201 Y0.216 E13.44831
G1 X-.225 Y0.19 E13.45044
G1 X-.253 Y0.15 E13.45338
G1 X-.267 Y0.123 E13.45521
G1 X-.285 Y0.073 E13.45841
G1 X-.291 Y0.044 E13.46019
G1 X-.294 Y0.00 E13.46285
G1 X-.291 Y-0.045 E13.46556
G1 X-.284 Y-0.077 E13.46754
G1 X-.266 Y-.126 E13.47068
G1 X-.253 Y-.15 E13.47232
G1 X-.225 Y-.19 E13.47526
G1 X-.201 Y-.216 E13.47739
G1 X-.172 Y-.24 E13.47966
G1 X-.13 Y-.265 E13.4826
G1 X-.1 Y-.278 E13.48457
G1 X-0.065 Y-.288 E13.48676
G1 X-0.019 Y-.294 E13.48955
G1 X0.019 Y-.294 E13.49184
G1 X0.065 Y-.288 E13.49463
G0 F1200 X0.306 Y-1.466
G1 F600 X0.502 Y-1.411 E13.50688
G1 X0.686 Y-1.331 E13.51896
G1 X0.869 Y-1.22 E13.53184
G1 X1.021 Y-1.096 E13.54365
G1 X1.159 Y-.948 E13.55583
G1 X1.28 Y-.777 E13.56844
G1 X1.372 Y-.599 E13.5805
G1 X1.442 Y-.402 E13.59309
G1 X1.484 Y-.203 E13.60533
G1 X1.497 Y0.00 E13.61757
G1 X1.484 Y0.203 E13.62982
G1 X1.442 Y0.402 E13.64206
G1 X1.372 Y0.599 E13.65464
G1 X1.28 Y0.777 E13.66671
G1 X1.159 Y0.948 E13.67931
G1 X1.021 Y1.096 E13.6915
G1 X0.869 Y1.22 E13.7033
G1 X0.686 Y1.331 E13.71619
G1 X0.502 Y1.411 E13.72826
G1 X0.306 Y1.466 E13.74052
G1 X0.102 Y1.494 E13.75291
G1 X-.102 Y1.494 E13.76519
G1 X-.306 Y1.466 E13.77759
G1 X-.502 Y1.411 E13.78984
G1 X-.686 Y1.331 E13.80192
G1 X-.869 Y1.22 E13.8148
G1 X-1.021 Y1.096 E13.82661
G1 X-1.159 Y0.948 E13.83879
G1 X-1.28 Y0.777 E13.8514
G1 X-1.372 Y0.599 E13.86346
G1 X-1.442 Y0.402 E13.87604
G1 X-1.484 Y0.203 E13.88829
G1 X-1.497 Y0.00 E13.90053
G1 X-1.484 Y-.203 E13.91278
G1 X-1.442 Y-.402 E13.92502
G1 X-1.372 Y-.599 E13.9376
G1 X-1.28 Y-.777 E13.94966
G1 X-1.159 Y-.948 E13.96227
G1 X-1.021 Y-1.096 E13.97445
G1 X-.869 Y-1.22 E13.98626
G1 X-.686 Y-1.331 E13.99914
G1 X-.502 Y-1.411 E14.01122
G1 X-.306 Y-1.466 E14.02348
G1 X-.102 Y-1.494 E14.03587
G1 X0.102 Y-1.494 E14.04815
G1 X0.306 Y-1.466 E14.06054
;TIME_ELAPSED:62.110751
G1 F1500 E7.56054
M140 S0
M107
M104 S0 ;extruder heater off
M140 S0 ;heated bed heater off (if you have it)
G91 ;relative positioning
G1 E-1 F300  ;retract the filament a bit before lifting the nozzle, to release some of the pressure
G1 Z+0.5 E-5 X-20 Y-20 F9000 ;move Z up a bit and retract filament even more
G28 X0 Y0 ;move X/Y to min endstops, so the head is out of the way
M84 ;steppers off
G90 ;absolute positioning
M82 ;absolute extrusion mode
M104 S0
;End of Gcode
;SETTING_3 {"global_quality": "[general]\\nversion = 4\\nname = Carolyn1\\ndefin
;SETTING_3 ition = fdmprinter\\n\\n[metadata]\\nquality_type = verydraft\\ntype 
;SETTING_3 = quality_changes\\nsetting_version = 5\\n\\n[values]\\nadhesion_type
;SETTING_3  = skirt\\nlayer_height = 0.8\\nmaterial_bed_temperature = 0\\n\\n", 
;SETTING_3 "extruder_quality": ["[general]\\nversion = 4\\nname = Carolyn1\\ndef
;SETTING_3 inition = fdmprinter\\n\\n[metadata]\\nposition = 0\\nquality_type = 
;SETTING_3 verydraft\\ntype = quality_changes\\nsetting_version = 5\\n\\n[values
;SETTING_3 ]\\nbrim_width = 0\\ninfill_angles = [0,90]\\ninfill_line_distance = 
;SETTING_3 1.2\\ninfill_pattern = concentric\\ninfill_sparse_density = 70\\nmate
;SETTING_3 rial_flow = 120\\nskirt_line_count = 2\\nspeed_print = 15\\nspeed_tra
;SETTING_3 vel = 20\\ntop_bottom_thickness = 0\\nwall_thickness = 0.0\\n\\n"]}
