;FLAVOR:Marlin
;TIME:178
;Filament used: 0.0550556m
;Layer height: 1.2
;Generated with Cura_SteamEngine 3.6.0
M104 S200
M105
M109 S200
M82 ;absolute extrusion mode
G21 ;metric values
G90 ;absolute positioning
M82 ;set extruder to absolute mode
M107 ;start with the fan off
G28 ;move XYZ to min endstops
G1 Z15.0 F9000 ;move the platform down 15mm
G1 F9000
;Put printing message on LCD screen
M117 Printing...
G92 E0
;LAYER_COUNT:10
;LAYER:0
M107
;MESH:rectangle_w_hole.STL
G0 F600 X-3.2 Y-2.877 Z0.3
;TYPE:FILL
G1 F150 X-3.2 Y-3.2 E0.00729
G1 X-2.864 Y-3.2 E0.01488
G1 X-3.2 Y-2.877 E0.0254
G0 F600 X-2.477 Y-2.184
G1 F150 X-2.795 Y-1.758 E0.0374
G1 X-3.041 Y-1.286 E0.04941
G1 X-3.208 Y-.782 E0.06139
G1 X-3.292 Y-.258 E0.07337
G1 X-3.291 Y0.274 E0.08538
G1 X-3.204 Y0.798 E0.09737
G1 X-3.035 Y1.301 E0.10935
G1 X-2.786 Y1.771 E0.12136
G1 X-2.467 Y2.196 E0.13335
G1 X-2.082 Y2.563 E0.14536
G1 X-1.645 Y2.864 E0.15734
G1 X-1.163 Y3.091 E0.16936
G1 X-.652 Y3.237 E0.18136
G1 X-.126 Y3.3 E0.19332
G1 X0.406 Y3.278 E0.20534
G1 X0.927 Y3.169 E0.21735
G1 X1.423 Y2.98 E0.22933
G1 X1.883 Y2.712 E0.24135
G1 X2.293 Y2.376 E0.25331
G1 X2.645 Y1.978 E0.26531
G1 X2.928 Y1.526 E0.27735
G1 X3.134 Y1.038 E0.2893
G1 X3.26 Y0.523 E0.30127
G1 X3.303 Y-0.007 E0.31327
G1 X3.259 Y-.538 E0.3253
G1 X3.13 Y-1.054 E0.33731
G1 X2.921 Y-1.541 E0.34927
G1 X2.635 Y-1.991 E0.3613
G1 X2.281 Y-2.388 E0.37331
G1 X1.869 Y-2.721 E0.38527
G1 X1.408 Y-2.987 E0.39728
G1 X0.911 Y-3.173 E0.40926
G1 X0.39 Y-3.279 E0.42126
G1 X-.142 Y-3.299 E0.43328
G1 X-.668 Y-3.233 E0.44525
G1 X-1.177 Y-3.085 E0.45721
G1 X-1.658 Y-2.856 E0.46924
G1 X-2.094 Y-2.553 E0.48122
G1 X-2.477 Y-2.184 E0.49323
G0 F600 X-4.2 Y-4.2
G1 F150 X4.2 Y-4.2 E0.68284
G1 X4.2 Y4.2 E0.87245
G1 X-4.2 Y4.2 E1.06206
G1 X-4.2 Y-4.2 E1.25167
G0 F600 X2.867 Y-3.2
G1 F150 X3.2 Y-3.2 E1.25918
G1 X3.2 Y-2.859 E1.26688
G1 X2.973 Y-3.114 E1.27459
G1 X2.867 Y-3.2 E1.27767
G0 F600 X2.866 Y3.2
G1 F150 X2.989 Y3.099 E1.28126
G1 X3.2 Y2.86 E1.28846
G1 X3.2 Y3.2 E1.29613
G1 X2.866 Y3.2 E1.30367
G0 F600 X-3.2 Y2.879
G1 F150 X-2.864 Y3.2 E1.31416
G1 X-3.2 Y3.2 E1.32175
G1 X-3.2 Y2.879 E1.32899
;MESH:cylinder_for_rect.STL
G0 F600 X-4.98 Y3.32
G0 X-5.665 Y3.32
G0 X-8.86 Y3.617
G0 X-9.542 Y3.662
G0 X-11.854 Y3.32
;TYPE:FILL
G1 F150 X-11.768 Y3.344 E1.33101
G1 X-11.682 Y3.381 E1.33312
G1 X-11.597 Y3.433 E1.33537
G1 X-11.527 Y3.49 E1.33741
G1 X-11.462 Y3.559 E1.33955
G1 X-11.402 Y3.643 E1.34188
G1 X-11.364 Y3.717 E1.34375
G1 X-11.33 Y3.814 E1.34607
G1 X-11.31 Y3.908 E1.34824
G1 X-11.304 Y4 E1.35033
G1 X-11.31 Y4.092 E1.35241
G1 X-11.33 Y4.186 E1.35458
G1 X-11.364 Y4.283 E1.3569
G1 X-11.402 Y4.357 E1.35877
G1 X-11.462 Y4.441 E1.3611
G1 X-11.527 Y4.51 E1.36324
G1 X-11.597 Y4.567 E1.36528
G1 X-11.682 Y4.619 E1.36753
G1 X-11.768 Y4.656 E1.36964
G1 X-11.854 Y4.68 E1.37166
G1 X-11.954 Y4.694 E1.37394
G1 X-12.046 Y4.694 E1.37602
G1 X-12.146 Y4.68 E1.37829
G1 X-12.232 Y4.656 E1.38031
G1 X-12.318 Y4.619 E1.38242
G1 X-12.403 Y4.567 E1.38467
G1 X-12.473 Y4.51 E1.38671
G1 X-12.538 Y4.441 E1.38885
G1 X-12.598 Y4.357 E1.39118
G1 X-12.636 Y4.283 E1.39306
G1 X-12.67 Y4.186 E1.39538
G1 X-12.69 Y4.092 E1.39755
G1 X-12.696 Y4 E1.39963
G1 X-12.69 Y3.908 E1.40171
G1 X-12.67 Y3.814 E1.40388
G1 X-12.636 Y3.717 E1.4062
G1 X-12.598 Y3.643 E1.40808
G1 X-12.538 Y3.559 E1.41041
G1 X-12.473 Y3.49 E1.41255
G1 X-12.403 Y3.433 E1.41458
G1 X-12.318 Y3.381 E1.41683
G1 X-12.232 Y3.344 E1.41895
G1 X-12.146 Y3.32 E1.42096
G1 X-12.046 Y3.306 E1.42324
G1 X-11.954 Y3.306 E1.42532
G1 X-11.854 Y3.32 E1.4276
G0 F600 X-11.65 Y2.338
G1 F150 X-11.436 Y2.398 E1.43261
G1 X-11.215 Y2.494 E1.43805
G1 X-11.02 Y2.613 E1.44321
G1 X-10.844 Y2.756 E1.44833
G1 X-10.683 Y2.929 E1.45366
G1 X-10.547 Y3.12 E1.45896
G1 X-10.443 Y3.322 E1.46408
G1 X-10.365 Y3.542 E1.46935
G1 X-10.317 Y3.771 E1.47463
G1 X-10.302 Y4 E1.47981
G1 X-10.317 Y4.229 E1.48499
G1 X-10.365 Y4.458 E1.49028
G1 X-10.443 Y4.678 E1.49555
G1 X-10.547 Y4.88 E1.50067
G1 X-10.683 Y5.071 E1.50597
G1 X-10.844 Y5.244 E1.5113
G1 X-11.02 Y5.387 E1.51642
G1 X-11.215 Y5.506 E1.52158
G1 X-11.436 Y5.602 E1.52702
G1 X-11.65 Y5.662 E1.53203
G1 X-11.886 Y5.694 E1.53741
G1 X-12.114 Y5.694 E1.54255
G1 X-12.35 Y5.662 E1.54793
G1 X-12.564 Y5.602 E1.55295
G1 X-12.785 Y5.506 E1.55839
G1 X-12.98 Y5.387 E1.56354
G1 X-13.156 Y5.244 E1.56866
G1 X-13.317 Y5.071 E1.574
G1 X-13.453 Y4.88 E1.57929
G1 X-13.557 Y4.678 E1.58442
G1 X-13.635 Y4.458 E1.58969
G1 X-13.683 Y4.229 E1.59497
G1 X-13.698 Y4 E1.60015
G1 X-13.683 Y3.771 E1.60533
G1 X-13.635 Y3.542 E1.61061
G1 X-13.557 Y3.322 E1.61588
G1 X-13.453 Y3.12 E1.62101
G1 X-13.317 Y2.929 E1.6263
G1 X-13.156 Y2.756 E1.63163
G1 X-12.98 Y2.613 E1.63675
G1 X-12.785 Y2.494 E1.64191
G1 X-12.564 Y2.398 E1.64735
G1 X-12.35 Y2.338 E1.65237
G1 X-12.114 Y2.306 E1.65774
G1 X-11.886 Y2.306 E1.66289
G1 X-11.65 Y2.338 E1.66826
;MESH:NONMESH
G0 F600 X-10.307 Y2.187
G0 X-9.544 Y2.001
G0 X-5.665 Y2.187
G0 X-4.98 Y2.187
G0 X-3.2 Y-2.877
;TIME_ELAPSED:34.599368
;LAYER:1
M106 S255
;MESH:rectangle_w_hole.STL
G0 F900 X-3.2 Y-2.877 Z1.5
;TYPE:FILL
G1 F225 X-3.2 Y-3.2 E1.69743
G1 X-2.865 Y-3.2 E1.72767
G1 X-3.2 Y-2.877 E1.76969
G0 F900 X-2.472 Y-2.19
G1 F225 X-2.791 Y-1.765 E1.81767
G1 X-3.039 Y-1.294 E1.86573
G1 X-3.206 Y-.79 E1.91367
G1 X-3.292 Y-.266 E1.96162
G1 X-3.292 Y0.266 E2.00965
G1 X-3.206 Y0.79 E2.0576
G1 X-3.039 Y1.294 E2.10554
G1 X-2.791 Y1.765 E2.1536
G1 X-2.472 Y2.19 E2.20158
G1 X-2.089 Y2.559 E2.2496
G1 X-1.652 Y2.86 E2.29751
G1 X-1.171 Y3.089 E2.34561
G1 X-.66 Y3.235 E2.3936
G1 X-.134 Y3.3 E2.44145
G1 X0.398 Y3.279 E2.48952
G1 X0.919 Y3.172 E2.53755
G1 X1.416 Y2.984 E2.58552
G1 X1.876 Y2.717 E2.63355
G1 X2.287 Y2.382 E2.68142
G1 X2.641 Y1.984 E2.72952
G1 X2.925 Y1.534 E2.77756
G1 X3.132 Y1.046 E2.82542
G1 X3.26 Y0.53 E2.87343
G1 X3.303 Y0.00 E2.92144
G1 X3.26 Y-.53 E2.96945
G1 X3.132 Y-1.046 E3.01745
G1 X2.925 Y-1.534 E3.06531
G1 X2.641 Y-1.984 E3.11336
G1 X2.287 Y-2.382 E3.16145
G1 X1.876 Y-2.717 E3.20933
G1 X1.416 Y-2.984 E3.25735
G1 X0.919 Y-3.172 E3.30533
G1 X0.398 Y-3.279 E3.35335
G1 X-.134 Y-3.3 E3.40142
G1 X-.66 Y-3.235 E3.44928
G1 X-1.171 Y-3.089 E3.49726
G1 X-1.652 Y-2.86 E3.54536
G1 X-2.089 Y-2.559 E3.59327
G1 X-2.472 Y-2.19 E3.64129
G0 F900 X-4.2 Y-4.2
G1 F225 X4.2 Y-4.2 E4.39974
G1 X4.2 Y4.2 E5.15818
G1 X-4.2 Y4.2 E5.91662
G1 X-4.2 Y-4.2 E6.67506
G0 F900 X2.866 Y-3.2
G1 F225 X3.2 Y-3.2 E6.70522
G1 X3.2 Y-2.86 E6.73592
G1 X2.981 Y-3.106 E6.76565
G1 X2.866 Y-3.2 E6.77907
G0 F900 X2.866 Y3.2
G1 F225 X2.981 Y3.106 E6.79248
G1 X3.2 Y2.86 E6.82221
G1 X3.2 Y3.2 E6.85291
G1 X2.866 Y3.2 E6.88307
G0 F900 X-3.2 Y2.877
G1 F225 X-2.865 Y3.2 E6.92509
G1 X-3.2 Y3.2 E6.95533
G1 X-3.2 Y2.877 E6.9845
;MESH:cylinder_for_rect.STL
G0 F900 X-4.98 Y3.32
G0 X-5.665 Y3.32
G0 X-8.86 Y3.617
G0 X-9.542 Y3.662
G0 X-11.854 Y3.32
;TYPE:FILL
G1 F225 X-11.768 Y3.344 E6.99256
G1 X-11.682 Y3.381 E7.00101
G1 X-11.597 Y3.433 E7.01001
G1 X-11.527 Y3.49 E7.01816
G1 X-11.462 Y3.559 E7.02672
G1 X-11.402 Y3.643 E7.03604
G1 X-11.364 Y3.717 E7.04355
G1 X-11.33 Y3.814 E7.05283
G1 X-11.31 Y3.908 E7.06151
G1 X-11.304 Y4 E7.06983
G1 X-11.31 Y4.092 E7.07816
G1 X-11.33 Y4.186 E7.08684
G1 X-11.364 Y4.283 E7.09612
G1 X-11.402 Y4.357 E7.10363
G1 X-11.462 Y4.441 E7.11295
G1 X-11.527 Y4.51 E7.12151
G1 X-11.597 Y4.567 E7.12966
G1 X-11.682 Y4.619 E7.13865
G1 X-11.768 Y4.656 E7.14711
G1 X-11.854 Y4.68 E7.15517
G1 X-11.954 Y4.694 E7.16429
G1 X-12.046 Y4.694 E7.17259
G1 X-12.146 Y4.68 E7.18171
G1 X-12.232 Y4.656 E7.18977
G1 X-12.318 Y4.619 E7.19822
G1 X-12.403 Y4.567 E7.20722
G1 X-12.473 Y4.51 E7.21537
G1 X-12.538 Y4.441 E7.22393
G1 X-12.598 Y4.357 E7.23325
G1 X-12.636 Y4.283 E7.24076
G1 X-12.67 Y4.186 E7.25004
G1 X-12.69 Y4.092 E7.25872
G1 X-12.696 Y4 E7.26705
G1 X-12.69 Y3.908 E7.27537
G1 X-12.67 Y3.814 E7.28405
G1 X-12.636 Y3.717 E7.29333
G1 X-12.598 Y3.643 E7.30084
G1 X-12.538 Y3.559 E7.31016
G1 X-12.473 Y3.49 E7.31872
G1 X-12.403 Y3.433 E7.32687
G1 X-12.318 Y3.381 E7.33587
G1 X-12.232 Y3.344 E7.34432
G1 X-12.146 Y3.32 E7.35238
G1 X-12.046 Y3.306 E7.3615
G1 X-11.954 Y3.306 E7.3698
G1 X-11.854 Y3.32 E7.37892
G0 F900 X-11.65 Y2.338
G1 F225 X-11.436 Y2.398 E7.39899
G1 X-11.215 Y2.494 E7.42074
G1 X-11.02 Y2.613 E7.44137
G1 X-10.844 Y2.756 E7.46185
G1 X-10.683 Y2.929 E7.48318
G1 X-10.547 Y3.12 E7.50435
G1 X-10.443 Y3.322 E7.52487
G1 X-10.365 Y3.542 E7.54594
G1 X-10.317 Y3.771 E7.56707
G1 X-10.302 Y4 E7.58779
G1 X-10.317 Y4.229 E7.60851
G1 X-10.365 Y4.458 E7.62964
G1 X-10.443 Y4.678 E7.65071
G1 X-10.547 Y4.88 E7.67123
G1 X-10.683 Y5.071 E7.6924
G1 X-10.844 Y5.244 E7.71374
G1 X-11.02 Y5.387 E7.73421
G1 X-11.215 Y5.506 E7.75484
G1 X-11.436 Y5.602 E7.77659
G1 X-11.65 Y5.662 E7.79666
G1 X-11.886 Y5.694 E7.81816
G1 X-12.114 Y5.694 E7.83875
G1 X-12.35 Y5.662 E7.86025
G1 X-12.564 Y5.602 E7.88032
G1 X-12.785 Y5.506 E7.90208
G1 X-12.98 Y5.387 E7.9227
G1 X-13.156 Y5.244 E7.94318
G1 X-13.317 Y5.071 E7.96452
G1 X-13.453 Y4.88 E7.98569
G1 X-13.557 Y4.678 E8.0062
G1 X-13.635 Y4.458 E8.02728
G1 X-13.683 Y4.229 E8.0484
G1 X-13.698 Y4 E8.06912
G1 X-13.683 Y3.771 E8.08984
G1 X-13.635 Y3.542 E8.11097
G1 X-13.557 Y3.322 E8.13205
G1 X-13.453 Y3.12 E8.15256
G1 X-13.317 Y2.929 E8.17373
G1 X-13.156 Y2.756 E8.19507
G1 X-12.98 Y2.613 E8.21554
G1 X-12.785 Y2.494 E8.23617
G1 X-12.564 Y2.398 E8.25793
G1 X-12.35 Y2.338 E8.27799
G1 X-12.114 Y2.306 E8.2995
G1 X-11.886 Y2.306 E8.32008
G1 X-11.65 Y2.338 E8.34159
;MESH:NONMESH
G0 F900 X-10.307 Y2.187
G0 X-9.544 Y2.001
G0 X-5.665 Y2.187
G0 X-4.98 Y2.187
G0 X-3.2 Y-2.877
;TIME_ELAPSED:57.617552
;LAYER:2
;MESH:rectangle_w_hole.STL
G0 F1200 X-3.2 Y-2.877 Z2.7
;TYPE:FILL
G1 F300 X-3.2 Y-3.2 E8.37075
G1 X-2.865 Y-3.2 E8.401
G1 X-3.2 Y-2.877 E8.44301
G0 F1200 X-2.472 Y-2.19
G1 F300 X-2.791 Y-1.765 E8.49099
G1 X-3.039 Y-1.294 E8.53906
G1 X-3.206 Y-.79 E8.587
G1 X-3.292 Y-.266 E8.63494
G1 X-3.292 Y0.266 E8.68298
G1 X-3.206 Y0.79 E8.73092
G1 X-3.039 Y1.294 E8.77886
G1 X-2.791 Y1.765 E8.82692
G1 X-2.472 Y2.19 E8.8749
G1 X-2.089 Y2.559 E8.92292
G1 X-1.652 Y2.86 E8.97083
G1 X-1.171 Y3.089 E9.01893
G1 X-.66 Y3.235 E9.06692
G1 X-.134 Y3.3 E9.11477
G1 X0.398 Y3.279 E9.16285
G1 X0.919 Y3.172 E9.21087
G1 X1.416 Y2.984 E9.25885
G1 X1.876 Y2.717 E9.30687
G1 X2.287 Y2.382 E9.35475
G1 X2.641 Y1.984 E9.40284
G1 X2.925 Y1.534 E9.45088
G1 X3.132 Y1.046 E9.49875
G1 X3.26 Y0.53 E9.54675
G1 X3.303 Y0.00 E9.59476
G1 X3.26 Y-.53 E9.64277
G1 X3.132 Y-1.046 E9.69077
G1 X2.925 Y-1.534 E9.73864
G1 X2.641 Y-1.984 E9.78668
G1 X2.287 Y-2.382 E9.83477
G1 X1.876 Y-2.717 E9.88265
G1 X1.416 Y-2.984 E9.93067
G1 X0.919 Y-3.172 E9.97865
G1 X0.398 Y-3.279 E10.02667
G1 X-.134 Y-3.3 E10.07475
G1 X-.66 Y-3.235 E10.1226
G1 X-1.171 Y-3.089 E10.17058
G1 X-1.652 Y-2.86 E10.21869
G1 X-2.089 Y-2.559 E10.2666
G1 X-2.472 Y-2.19 E10.31462
G0 F1200 X-4.2 Y-4.2
G1 F300 X4.2 Y-4.2 E11.07306
G1 X4.2 Y4.2 E11.8315
G1 X-4.2 Y4.2 E12.58994
G1 X-4.2 Y-4.2 E13.34838
G0 F1200 X2.866 Y-3.2
G1 F300 X3.2 Y-3.2 E13.37854
G1 X3.2 Y-2.86 E13.40924
G1 X2.981 Y-3.106 E13.43898
G1 X2.866 Y-3.2 E13.45239
G0 F1200 X2.866 Y3.2
G1 F300 X2.981 Y3.106 E13.4658
G1 X3.2 Y2.86 E13.49554
G1 X3.2 Y3.2 E13.52624
G1 X2.866 Y3.2 E13.55639
G0 F1200 X-3.2 Y2.877
G1 F300 X-2.865 Y3.2 E13.59841
G1 X-3.2 Y3.2 E13.62866
G1 X-3.2 Y2.877 E13.65782
;MESH:cylinder_for_rect.STL
G0 F1200 X-4.98 Y3.32
G0 X-5.665 Y3.32
G0 X-8.86 Y3.617
G0 X-9.542 Y3.662
G0 X-11.854 Y3.32
;TYPE:FILL
G1 F300 X-11.768 Y3.344 E13.66588
G1 X-11.682 Y3.381 E13.67434
G1 X-11.597 Y3.433 E13.68333
G1 X-11.527 Y3.49 E13.69148
G1 X-11.462 Y3.559 E13.70004
G1 X-11.402 Y3.643 E13.70936
G1 X-11.364 Y3.717 E13.71687
G1 X-11.33 Y3.814 E13.72615
G1 X-11.31 Y3.908 E13.73483
G1 X-11.304 Y4 E13.74316
G1 X-11.31 Y4.092 E13.75148
G1 X-11.33 Y4.186 E13.76016
G1 X-11.364 Y4.283 E13.76944
G1 X-11.402 Y4.357 E13.77695
G1 X-11.462 Y4.441 E13.78627
G1 X-11.527 Y4.51 E13.79483
G1 X-11.597 Y4.567 E13.80298
G1 X-11.682 Y4.619 E13.81198
G1 X-11.768 Y4.656 E13.82043
G1 X-11.854 Y4.68 E13.82849
G1 X-11.954 Y4.694 E13.83761
G1 X-12.046 Y4.694 E13.84592
G1 X-12.146 Y4.68 E13.85503
G1 X-12.232 Y4.656 E13.86309
G1 X-12.318 Y4.619 E13.87155
G1 X-12.403 Y4.567 E13.88054
G1 X-12.473 Y4.51 E13.88869
G1 X-12.538 Y4.441 E13.89725
G1 X-12.598 Y4.357 E13.90657
G1 X-12.636 Y4.283 E13.91409
G1 X-12.67 Y4.186 E13.92337
G1 X-12.69 Y4.092 E13.93204
G1 X-12.696 Y4 E13.94037
G1 X-12.69 Y3.908 E13.94869
G1 X-12.67 Y3.814 E13.95737
G1 X-12.636 Y3.717 E13.96665
G1 X-12.598 Y3.643 E13.97416
G1 X-12.538 Y3.559 E13.98348
G1 X-12.473 Y3.49 E13.99204
G1 X-12.403 Y3.433 E14.00019
G1 X-12.318 Y3.381 E14.00919
G1 X-12.232 Y3.344 E14.01764
G1 X-12.146 Y3.32 E14.0257
G1 X-12.046 Y3.306 E14.03482
G1 X-11.954 Y3.306 E14.04313
G1 X-11.854 Y3.32 E14.05224
G0 F1200 X-11.65 Y2.338
G1 F300 X-11.436 Y2.398 E14.07231
G1 X-11.215 Y2.494 E14.09407
G1 X-11.02 Y2.613 E14.11469
G1 X-10.844 Y2.756 E14.13517
G1 X-10.683 Y2.929 E14.15651
G1 X-10.547 Y3.12 E14.17768
G1 X-10.443 Y3.322 E14.19819
G1 X-10.365 Y3.542 E14.21927
G1 X-10.317 Y3.771 E14.24039
G1 X-10.302 Y4 E14.26111
G1 X-10.317 Y4.229 E14.28183
G1 X-10.365 Y4.458 E14.30296
G1 X-10.443 Y4.678 E14.32404
G1 X-10.547 Y4.88 E14.34455
G1 X-10.683 Y5.071 E14.36572
G1 X-10.844 Y5.244 E14.38706
G1 X-11.02 Y5.387 E14.40753
G1 X-11.215 Y5.506 E14.42816
G1 X-11.436 Y5.602 E14.44992
G1 X-11.65 Y5.662 E14.46998
G1 X-11.886 Y5.694 E14.49149
G1 X-12.114 Y5.694 E14.51207
G1 X-12.35 Y5.662 E14.53358
G1 X-12.564 Y5.602 E14.55364
G1 X-12.785 Y5.506 E14.5754
G1 X-12.98 Y5.387 E14.59603
G1 X-13.156 Y5.244 E14.6165
G1 X-13.317 Y5.071 E14.63784
G1 X-13.453 Y4.88 E14.65901
G1 X-13.557 Y4.678 E14.67952
G1 X-13.635 Y4.458 E14.7006
G1 X-13.683 Y4.229 E14.72172
G1 X-13.698 Y4 E14.74245
G1 X-13.683 Y3.771 E14.76317
G1 X-13.635 Y3.542 E14.78429
G1 X-13.557 Y3.322 E14.80537
G1 X-13.453 Y3.12 E14.82588
G1 X-13.317 Y2.929 E14.84705
G1 X-13.156 Y2.756 E14.86839
G1 X-12.98 Y2.613 E14.88887
G1 X-12.785 Y2.494 E14.90949
G1 X-12.564 Y2.398 E14.93125
G1 X-12.35 Y2.338 E14.95131
G1 X-12.114 Y2.306 E14.97282
G1 X-11.886 Y2.306 E14.9934
G1 X-11.65 Y2.338 E15.01491
;MESH:NONMESH
G0 F1200 X-10.307 Y2.187
G0 X-9.544 Y2.001
G0 X-5.665 Y2.187
G0 X-4.98 Y2.187
G0 X-3.2 Y-2.877
;TIME_ELAPSED:74.962943
;LAYER:3
;MESH:rectangle_w_hole.STL
G0 X-3.2 Y-2.877 Z3.9
;TYPE:FILL
G1 F300 X-3.2 Y-3.2 E15.04407
G1 X-2.865 Y-3.2 E15.07432
G1 X-3.2 Y-2.877 E15.11634
G0 F1200 X-2.472 Y-2.19
G1 F300 X-2.791 Y-1.765 E15.16432
G1 X-3.039 Y-1.294 E15.21238
G1 X-3.206 Y-.79 E15.26032
G1 X-3.292 Y-.266 E15.30826
G1 X-3.292 Y0.266 E15.3563
G1 X-3.206 Y0.79 E15.40424
G1 X-3.039 Y1.294 E15.45218
G1 X-2.791 Y1.765 E15.50025
G1 X-2.472 Y2.19 E15.54823
G1 X-2.089 Y2.559 E15.59625
G1 X-1.652 Y2.86 E15.64416
G1 X-1.171 Y3.089 E15.69226
G1 X-.66 Y3.235 E15.74024
G1 X-.134 Y3.3 E15.7881
G1 X0.398 Y3.279 E15.83617
G1 X0.919 Y3.172 E15.88419
G1 X1.416 Y2.984 E15.93217
G1 X1.876 Y2.717 E15.98019
G1 X2.287 Y2.382 E16.02807
G1 X2.641 Y1.984 E16.07616
G1 X2.925 Y1.534 E16.12421
G1 X3.132 Y1.046 E16.17207
G1 X3.26 Y0.53 E16.22007
G1 X3.303 Y0.00 E16.26808
G1 X3.26 Y-.53 E16.31609
G1 X3.132 Y-1.046 E16.3641
G1 X2.925 Y-1.534 E16.41196
G1 X2.641 Y-1.984 E16.46
G1 X2.287 Y-2.382 E16.5081
G1 X1.876 Y-2.717 E16.55597
G1 X1.416 Y-2.984 E16.604
G1 X0.919 Y-3.172 E16.65197
G1 X0.398 Y-3.279 E16.7
G1 X-.134 Y-3.3 E16.74807
G1 X-.66 Y-3.235 E16.79592
G1 X-1.171 Y-3.089 E16.84391
G1 X-1.652 Y-2.86 E16.89201
G1 X-2.089 Y-2.559 E16.93992
G1 X-2.472 Y-2.19 E16.98794
G0 F1200 X-4.2 Y-4.2
G1 F300 X4.2 Y-4.2 E17.74638
G1 X4.2 Y4.2 E18.50482
G1 X-4.2 Y4.2 E19.26326
G1 X-4.2 Y-4.2 E20.02171
G0 F1200 X2.866 Y-3.2
G1 F300 X3.2 Y-3.2 E20.05186
G1 X3.2 Y-2.86 E20.08256
G1 X2.981 Y-3.106 E20.1123
G1 X2.866 Y-3.2 E20.12571
G0 F1200 X2.866 Y3.2
G1 F300 X2.981 Y3.106 E20.13912
G1 X3.2 Y2.86 E20.16886
G1 X3.2 Y3.2 E20.19956
G1 X2.866 Y3.2 E20.22971
G0 F1200 X-3.2 Y2.877
G1 F300 X-2.865 Y3.2 E20.27173
G1 X-3.2 Y3.2 E20.30198
G1 X-3.2 Y2.877 E20.33114
;MESH:cylinder_for_rect.STL
G0 F1200 X-4.98 Y3.32
G0 X-5.665 Y3.32
G0 X-8.86 Y3.617
G0 X-9.542 Y3.662
G0 X-11.854 Y3.32
;TYPE:FILL
G1 F300 X-11.768 Y3.344 E20.3392
G1 X-11.682 Y3.381 E20.34766
G1 X-11.597 Y3.433 E20.35665
G1 X-11.527 Y3.49 E20.36481
G1 X-11.462 Y3.559 E20.37336
G1 X-11.402 Y3.643 E20.38269
G1 X-11.364 Y3.717 E20.3902
G1 X-11.33 Y3.814 E20.39948
G1 X-11.31 Y3.908 E20.40815
G1 X-11.304 Y4 E20.41648
G1 X-11.31 Y4.092 E20.4248
G1 X-11.33 Y4.186 E20.43348
G1 X-11.364 Y4.283 E20.44276
G1 X-11.402 Y4.357 E20.45027
G1 X-11.462 Y4.441 E20.45959
G1 X-11.527 Y4.51 E20.46815
G1 X-11.597 Y4.567 E20.4763
G1 X-11.682 Y4.619 E20.4853
G1 X-11.768 Y4.656 E20.49375
G1 X-11.854 Y4.68 E20.50181
G1 X-11.954 Y4.694 E20.51093
G1 X-12.046 Y4.694 E20.51924
G1 X-12.146 Y4.68 E20.52835
G1 X-12.232 Y4.656 E20.53642
G1 X-12.318 Y4.619 E20.54487
G1 X-12.403 Y4.567 E20.55387
G1 X-12.473 Y4.51 E20.56202
G1 X-12.538 Y4.441 E20.57058
G1 X-12.598 Y4.357 E20.5799
G1 X-12.636 Y4.283 E20.58741
G1 X-12.67 Y4.186 E20.59669
G1 X-12.69 Y4.092 E20.60537
G1 X-12.696 Y4 E20.61369
G1 X-12.69 Y3.908 E20.62201
G1 X-12.67 Y3.814 E20.63069
G1 X-12.636 Y3.717 E20.63997
G1 X-12.598 Y3.643 E20.64748
G1 X-12.538 Y3.559 E20.6568
G1 X-12.473 Y3.49 E20.66536
G1 X-12.403 Y3.433 E20.67351
G1 X-12.318 Y3.381 E20.68251
G1 X-12.232 Y3.344 E20.69096
G1 X-12.146 Y3.32 E20.69903
G1 X-12.046 Y3.306 E20.70814
G1 X-11.954 Y3.306 E20.71645
G1 X-11.854 Y3.32 E20.72557
G0 F1200 X-11.65 Y2.338
G1 F300 X-11.436 Y2.398 E20.74563
G1 X-11.215 Y2.494 E20.76739
G1 X-11.02 Y2.613 E20.78802
G1 X-10.844 Y2.756 E20.80849
G1 X-10.683 Y2.929 E20.82983
G1 X-10.547 Y3.12 E20.851
G1 X-10.443 Y3.322 E20.87151
G1 X-10.365 Y3.542 E20.89259
G1 X-10.317 Y3.771 E20.91372
G1 X-10.302 Y4 E20.93444
G1 X-10.317 Y4.229 E20.95516
G1 X-10.365 Y4.458 E20.97628
G1 X-10.443 Y4.678 E20.99736
G1 X-10.547 Y4.88 E21.01787
G1 X-10.683 Y5.071 E21.03904
G1 X-10.844 Y5.244 E21.06038
G1 X-11.02 Y5.387 E21.08086
G1 X-11.215 Y5.506 E21.10148
G1 X-11.436 Y5.602 E21.12324
G1 X-11.65 Y5.662 E21.14331
G1 X-11.886 Y5.694 E21.16481
G1 X-12.114 Y5.694 E21.1854
G1 X-12.35 Y5.662 E21.2069
G1 X-12.564 Y5.602 E21.22697
G1 X-12.785 Y5.506 E21.24872
G1 X-12.98 Y5.387 E21.26935
G1 X-13.156 Y5.244 E21.28982
G1 X-13.317 Y5.071 E21.31116
G1 X-13.453 Y4.88 E21.33233
G1 X-13.557 Y4.678 E21.35285
G1 X-13.635 Y4.458 E21.37392
G1 X-13.683 Y4.229 E21.39505
G1 X-13.698 Y4 E21.41577
G1 X-13.683 Y3.771 E21.43649
G1 X-13.635 Y3.542 E21.45761
G1 X-13.557 Y3.322 E21.47869
G1 X-13.453 Y3.12 E21.4992
G1 X-13.317 Y2.929 E21.52038
G1 X-13.156 Y2.756 E21.54171
G1 X-12.98 Y2.613 E21.56219
G1 X-12.785 Y2.494 E21.58281
G1 X-12.564 Y2.398 E21.60457
G1 X-12.35 Y2.338 E21.62464
G1 X-12.114 Y2.306 E21.64614
G1 X-11.886 Y2.306 E21.66673
G1 X-11.65 Y2.338 E21.68823
;MESH:NONMESH
G0 F1200 X-10.307 Y2.187
G0 X-9.544 Y2.001
G0 X-5.665 Y2.187
G0 X-4.98 Y2.187
G0 X-3.2 Y-2.877
;TIME_ELAPSED:92.308334
;LAYER:4
;MESH:rectangle_w_hole.STL
G0 X-3.2 Y-2.877 Z5.1
;TYPE:FILL
G1 F300 X-3.2 Y-3.2 E21.71739
G1 X-2.865 Y-3.2 E21.74764
G1 X-3.2 Y-2.877 E21.78966
G0 F1200 X-2.472 Y-2.19
G1 F300 X-2.791 Y-1.765 E21.83764
G1 X-3.039 Y-1.294 E21.8857
G1 X-3.206 Y-.79 E21.93364
G1 X-3.292 Y-.266 E21.98159
G1 X-3.292 Y0.266 E22.02962
G1 X-3.206 Y0.79 E22.07757
G1 X-3.039 Y1.294 E22.12551
G1 X-2.791 Y1.765 E22.17357
G1 X-2.472 Y2.19 E22.22155
G1 X-2.089 Y2.559 E22.26957
G1 X-1.652 Y2.86 E22.31748
G1 X-1.171 Y3.089 E22.36558
G1 X-.66 Y3.235 E22.41356
G1 X-.134 Y3.3 E22.46142
G1 X0.398 Y3.279 E22.50949
G1 X0.919 Y3.172 E22.55751
G1 X1.416 Y2.984 E22.60549
G1 X1.876 Y2.717 E22.65351
G1 X2.287 Y2.382 E22.70139
G1 X2.641 Y1.984 E22.74948
G1 X2.925 Y1.534 E22.79753
G1 X3.132 Y1.046 E22.84539
G1 X3.26 Y0.53 E22.89339
G1 X3.303 Y0.00 E22.9414
G1 X3.26 Y-.53 E22.98942
G1 X3.132 Y-1.046 E23.03742
G1 X2.925 Y-1.534 E23.08528
G1 X2.641 Y-1.984 E23.13333
G1 X2.287 Y-2.382 E23.18142
G1 X1.876 Y-2.717 E23.22929
G1 X1.416 Y-2.984 E23.27732
G1 X0.919 Y-3.172 E23.3253
G1 X0.398 Y-3.279 E23.37332
G1 X-.134 Y-3.3 E23.42139
G1 X-.66 Y-3.235 E23.46924
G1 X-1.171 Y-3.089 E23.51723
G1 X-1.652 Y-2.86 E23.56533
G1 X-2.089 Y-2.559 E23.61324
G1 X-2.472 Y-2.19 E23.66126
G0 F1200 X-4.2 Y-4.2
G1 F300 X4.2 Y-4.2 E24.4197
G1 X4.2 Y4.2 E25.17814
G1 X-4.2 Y4.2 E25.93659
G1 X-4.2 Y-4.2 E26.69503
G0 F1200 X2.866 Y-3.2
G1 F300 X3.2 Y-3.2 E26.72518
G1 X3.2 Y-2.86 E26.75588
G1 X2.981 Y-3.106 E26.78562
G1 X2.866 Y-3.2 E26.79903
G0 F1200 X2.866 Y3.2
G1 F300 X2.981 Y3.106 E26.81244
G1 X3.2 Y2.86 E26.84218
G1 X3.2 Y3.2 E26.87288
G1 X2.866 Y3.2 E26.90304
G0 F1200 X-3.2 Y2.877
G1 F300 X-2.865 Y3.2 E26.94505
G1 X-3.2 Y3.2 E26.9753
G1 X-3.2 Y2.877 E27.00447
;MESH:cylinder_for_rect.STL
G0 F1200 X-4.98 Y3.32
G0 X-5.665 Y3.32
G0 X-8.86 Y3.617
G0 X-9.542 Y3.662
G0 X-11.854 Y3.32
;TYPE:FILL
G1 F300 X-11.768 Y3.344 E27.01253
G1 X-11.682 Y3.381 E27.02098
G1 X-11.597 Y3.433 E27.02998
G1 X-11.527 Y3.49 E27.03813
G1 X-11.462 Y3.559 E27.04669
G1 X-11.402 Y3.643 E27.05601
G1 X-11.364 Y3.717 E27.06352
G1 X-11.33 Y3.814 E27.0728
G1 X-11.31 Y3.908 E27.08148
G1 X-11.304 Y4 E27.0898
G1 X-11.31 Y4.092 E27.09813
G1 X-11.33 Y4.186 E27.1068
G1 X-11.364 Y4.283 E27.11608
G1 X-11.402 Y4.357 E27.12359
G1 X-11.462 Y4.441 E27.13291
G1 X-11.527 Y4.51 E27.14147
G1 X-11.597 Y4.567 E27.14962
G1 X-11.682 Y4.619 E27.15862
G1 X-11.768 Y4.656 E27.16707
G1 X-11.854 Y4.68 E27.17514
G1 X-11.954 Y4.694 E27.18425
G1 X-12.046 Y4.694 E27.19256
G1 X-12.146 Y4.68 E27.20168
G1 X-12.232 Y4.656 E27.20974
G1 X-12.318 Y4.619 E27.21819
G1 X-12.403 Y4.567 E27.22719
G1 X-12.473 Y4.51 E27.23534
G1 X-12.538 Y4.441 E27.2439
G1 X-12.598 Y4.357 E27.25322
G1 X-12.636 Y4.283 E27.26073
G1 X-12.67 Y4.186 E27.27001
G1 X-12.69 Y4.092 E27.27869
G1 X-12.696 Y4 E27.28701
G1 X-12.69 Y3.908 E27.29534
G1 X-12.67 Y3.814 E27.30401
G1 X-12.636 Y3.717 E27.3133
G1 X-12.598 Y3.643 E27.32081
G1 X-12.538 Y3.559 E27.33013
G1 X-12.473 Y3.49 E27.33869
G1 X-12.403 Y3.433 E27.34684
G1 X-12.318 Y3.381 E27.35583
G1 X-12.232 Y3.344 E27.36429
G1 X-12.146 Y3.32 E27.37235
G1 X-12.046 Y3.306 E27.38147
G1 X-11.954 Y3.306 E27.38977
G1 X-11.854 Y3.32 E27.39889
G0 F1200 X-11.65 Y2.338
G1 F300 X-11.436 Y2.398 E27.41896
G1 X-11.215 Y2.494 E27.44071
G1 X-11.02 Y2.613 E27.46134
G1 X-10.844 Y2.756 E27.48181
G1 X-10.683 Y2.929 E27.50315
G1 X-10.547 Y3.12 E27.52432
G1 X-10.443 Y3.322 E27.54484
G1 X-10.365 Y3.542 E27.56591
G1 X-10.317 Y3.771 E27.58704
G1 X-10.302 Y4 E27.60776
G1 X-10.317 Y4.229 E27.62848
G1 X-10.365 Y4.458 E27.64961
G1 X-10.443 Y4.678 E27.67068
G1 X-10.547 Y4.88 E27.69119
G1 X-10.683 Y5.071 E27.71237
G1 X-10.844 Y5.244 E27.7337
G1 X-11.02 Y5.387 E27.75418
G1 X-11.215 Y5.506 E27.7748
G1 X-11.436 Y5.602 E27.79656
G1 X-11.65 Y5.662 E27.81663
G1 X-11.886 Y5.694 E27.83813
G1 X-12.114 Y5.694 E27.85872
G1 X-12.35 Y5.662 E27.88022
G1 X-12.564 Y5.602 E27.90029
G1 X-12.785 Y5.506 E27.92204
G1 X-12.98 Y5.387 E27.94267
G1 X-13.156 Y5.244 E27.96315
G1 X-13.317 Y5.071 E27.98448
G1 X-13.453 Y4.88 E28.00565
G1 X-13.557 Y4.678 E28.02617
G1 X-13.635 Y4.458 E28.04724
G1 X-13.683 Y4.229 E28.06837
G1 X-13.698 Y4 E28.08909
G1 X-13.683 Y3.771 E28.10981
G1 X-13.635 Y3.542 E28.13094
G1 X-13.557 Y3.322 E28.15201
G1 X-13.453 Y3.12 E28.17253
G1 X-13.317 Y2.929 E28.1937
G1 X-13.156 Y2.756 E28.21504
G1 X-12.98 Y2.613 E28.23551
G1 X-12.785 Y2.494 E28.25614
G1 X-12.564 Y2.398 E28.27789
G1 X-12.35 Y2.338 E28.29796
G1 X-12.114 Y2.306 E28.31946
G1 X-11.886 Y2.306 E28.34005
G1 X-11.65 Y2.338 E28.36155
;MESH:NONMESH
G0 F1200 X-10.307 Y2.187
G0 X-9.544 Y2.001
G0 X-5.665 Y2.187
G0 X-4.98 Y2.187
G0 X-3.2 Y-2.877
;TIME_ELAPSED:109.653725
;LAYER:5
;MESH:rectangle_w_hole.STL
G0 X-3.2 Y-2.877 Z6.3
;TYPE:FILL
G1 F300 X-3.2 Y-3.2 E28.39072
G1 X-2.865 Y-3.2 E28.42096
G1 X-3.2 Y-2.877 E28.46298
G0 F1200 X-2.472 Y-2.19
G1 F300 X-2.791 Y-1.765 E28.51096
G1 X-3.039 Y-1.294 E28.55902
G1 X-3.206 Y-.79 E28.60696
G1 X-3.292 Y-.266 E28.65491
G1 X-3.292 Y0.266 E28.70294
G1 X-3.206 Y0.79 E28.75089
G1 X-3.039 Y1.294 E28.79883
G1 X-2.791 Y1.765 E28.84689
G1 X-2.472 Y2.19 E28.89487
G1 X-2.089 Y2.559 E28.94289
G1 X-1.652 Y2.86 E28.9908
G1 X-1.171 Y3.089 E29.0389
G1 X-.66 Y3.235 E29.08689
G1 X-.134 Y3.3 E29.13474
G1 X0.398 Y3.279 E29.18281
G1 X0.919 Y3.172 E29.23084
G1 X1.416 Y2.984 E29.27881
G1 X1.876 Y2.717 E29.32684
G1 X2.287 Y2.382 E29.37471
G1 X2.641 Y1.984 E29.42281
G1 X2.925 Y1.534 E29.47085
G1 X3.132 Y1.046 E29.51871
G1 X3.26 Y0.53 E29.56672
G1 X3.303 Y0.00 E29.61473
G1 X3.26 Y-.53 E29.66274
G1 X3.132 Y-1.046 E29.71074
G1 X2.925 Y-1.534 E29.7586
G1 X2.641 Y-1.984 E29.80665
G1 X2.287 Y-2.382 E29.85474
G1 X1.876 Y-2.717 E29.90262
G1 X1.416 Y-2.984 E29.95064
G1 X0.919 Y-3.172 E29.99862
G1 X0.398 Y-3.279 E30.04664
G1 X-.134 Y-3.3 E30.09471
G1 X-.66 Y-3.235 E30.14257
G1 X-1.171 Y-3.089 E30.19055
G1 X-1.652 Y-2.86 E30.23865
G1 X-2.089 Y-2.559 E30.28656
G1 X-2.472 Y-2.19 E30.33458
G0 F1200 X-4.2 Y-4.2
G1 F300 X4.2 Y-4.2 E31.09303
G1 X4.2 Y4.2 E31.85147
G1 X-4.2 Y4.2 E32.60991
G1 X-4.2 Y-4.2 E33.36835
G0 F1200 X2.866 Y-3.2
G1 F300 X3.2 Y-3.2 E33.39851
G1 X3.2 Y-2.86 E33.42921
G1 X2.981 Y-3.106 E33.45894
G1 X2.866 Y-3.2 E33.47236
G0 F1200 X2.866 Y3.2
G1 F300 X2.981 Y3.106 E33.48577
G1 X3.2 Y2.86 E33.5155
G1 X3.2 Y3.2 E33.5462
G1 X2.866 Y3.2 E33.57636
G0 F1200 X-3.2 Y2.877
G1 F300 X-2.865 Y3.2 E33.61838
G1 X-3.2 Y3.2 E33.64862
G1 X-3.2 Y2.877 E33.67779
;MESH:cylinder_for_rect.STL
G0 F1200 X-4.98 Y3.32
G0 X-5.665 Y3.32
G0 X-8.86 Y3.617
G0 X-9.542 Y3.662
G0 X-11.854 Y3.32
;TYPE:FILL
G1 F300 X-11.768 Y3.344 E33.68585
G1 X-11.682 Y3.381 E33.6943
G1 X-11.597 Y3.433 E33.7033
G1 X-11.527 Y3.49 E33.71145
G1 X-11.462 Y3.559 E33.72001
G1 X-11.402 Y3.643 E33.72933
G1 X-11.364 Y3.717 E33.73684
G1 X-11.33 Y3.814 E33.74612
G1 X-11.31 Y3.908 E33.7548
G1 X-11.304 Y4 E33.76312
G1 X-11.31 Y4.092 E33.77145
G1 X-11.33 Y4.186 E33.78013
G1 X-11.364 Y4.283 E33.78941
G1 X-11.402 Y4.357 E33.79692
G1 X-11.462 Y4.441 E33.80624
G1 X-11.527 Y4.51 E33.8148
G1 X-11.597 Y4.567 E33.82295
G1 X-11.682 Y4.619 E33.83194
G1 X-11.768 Y4.656 E33.8404
G1 X-11.854 Y4.68 E33.84846
G1 X-11.954 Y4.694 E33.85758
G1 X-12.046 Y4.694 E33.86588
G1 X-12.146 Y4.68 E33.875
G1 X-12.232 Y4.656 E33.88306
G1 X-12.318 Y4.619 E33.89151
G1 X-12.403 Y4.567 E33.90051
G1 X-12.473 Y4.51 E33.90866
G1 X-12.538 Y4.441 E33.91722
G1 X-12.598 Y4.357 E33.92654
G1 X-12.636 Y4.283 E33.93405
G1 X-12.67 Y4.186 E33.94333
G1 X-12.69 Y4.092 E33.95201
G1 X-12.696 Y4 E33.96034
G1 X-12.69 Y3.908 E33.96866
G1 X-12.67 Y3.814 E33.97734
G1 X-12.636 Y3.717 E33.98662
G1 X-12.598 Y3.643 E33.99413
G1 X-12.538 Y3.559 E34.00345
G1 X-12.473 Y3.49 E34.01201
G1 X-12.403 Y3.433 E34.02016
G1 X-12.318 Y3.381 E34.02916
G1 X-12.232 Y3.344 E34.03761
G1 X-12.146 Y3.32 E34.04567
G1 X-12.046 Y3.306 E34.05479
G1 X-11.954 Y3.306 E34.06309
G1 X-11.854 Y3.32 E34.07221
G0 F1200 X-11.65 Y2.338
G1 F300 X-11.436 Y2.398 E34.09228
G1 X-11.215 Y2.494 E34.11403
G1 X-11.02 Y2.613 E34.13466
G1 X-10.844 Y2.756 E34.15514
G1 X-10.683 Y2.929 E34.17647
G1 X-10.547 Y3.12 E34.19764
G1 X-10.443 Y3.322 E34.21816
G1 X-10.365 Y3.542 E34.23923
G1 X-10.317 Y3.771 E34.26036
G1 X-10.302 Y4 E34.28108
G1 X-10.317 Y4.229 E34.3018
G1 X-10.365 Y4.458 E34.32293
G1 X-10.443 Y4.678 E34.344
G1 X-10.547 Y4.88 E34.36452
G1 X-10.683 Y5.071 E34.38569
G1 X-10.844 Y5.244 E34.40703
G1 X-11.02 Y5.387 E34.4275
G1 X-11.215 Y5.506 E34.44813
G1 X-11.436 Y5.602 E34.46988
G1 X-11.65 Y5.662 E34.48995
G1 X-11.886 Y5.694 E34.51145
G1 X-12.114 Y5.694 E34.53204
G1 X-12.35 Y5.662 E34.55354
G1 X-12.564 Y5.602 E34.57361
G1 X-12.785 Y5.506 E34.59537
G1 X-12.98 Y5.387 E34.61599
G1 X-13.156 Y5.244 E34.63647
G1 X-13.317 Y5.071 E34.65781
G1 X-13.453 Y4.88 E34.67898
G1 X-13.557 Y4.678 E34.69949
G1 X-13.635 Y4.458 E34.72057
G1 X-13.683 Y4.229 E34.74169
G1 X-13.698 Y4 E34.76241
G1 X-13.683 Y3.771 E34.78313
G1 X-13.635 Y3.542 E34.80426
G1 X-13.557 Y3.322 E34.82534
G1 X-13.453 Y3.12 E34.84585
G1 X-13.317 Y2.929 E34.86702
G1 X-13.156 Y2.756 E34.88836
G1 X-12.98 Y2.613 E34.90883
G1 X-12.785 Y2.494 E34.92946
G1 X-12.564 Y2.398 E34.95122
G1 X-12.35 Y2.338 E34.97128
G1 X-12.114 Y2.306 E34.99279
G1 X-11.886 Y2.306 E35.01337
G1 X-11.65 Y2.338 E35.03488
;MESH:NONMESH
G0 F1200 X-10.307 Y2.187
G0 X-9.544 Y2.001
G0 X-5.665 Y2.187
G0 X-4.98 Y2.187
G0 X-3.2 Y-2.877
;TIME_ELAPSED:126.999116
;LAYER:6
;MESH:rectangle_w_hole.STL
G0 X-3.2 Y-2.877 Z7.5
;TYPE:FILL
G1 F300 X-3.2 Y-3.2 E35.06404
G1 X-2.865 Y-3.2 E35.09429
G1 X-3.2 Y-2.877 E35.1363
G0 F1200 X-2.472 Y-2.19
G1 F300 X-2.791 Y-1.765 E35.18428
G1 X-3.039 Y-1.294 E35.23235
G1 X-3.206 Y-.79 E35.28029
G1 X-3.292 Y-.266 E35.32823
G1 X-3.292 Y0.266 E35.37627
G1 X-3.206 Y0.79 E35.42421
G1 X-3.039 Y1.294 E35.47215
G1 X-2.791 Y1.765 E35.52021
G1 X-2.472 Y2.19 E35.56819
G1 X-2.089 Y2.559 E35.61621
G1 X-1.652 Y2.86 E35.66412
G1 X-1.171 Y3.089 E35.71222
G1 X-.66 Y3.235 E35.76021
G1 X-.134 Y3.3 E35.80806
G1 X0.398 Y3.279 E35.85614
G1 X0.919 Y3.172 E35.90416
G1 X1.416 Y2.984 E35.95214
G1 X1.876 Y2.717 E36.00016
G1 X2.287 Y2.382 E36.04803
G1 X2.641 Y1.984 E36.09613
G1 X2.925 Y1.534 E36.14417
G1 X3.132 Y1.046 E36.19204
G1 X3.26 Y0.53 E36.24004
G1 X3.303 Y0.00 E36.28805
G1 X3.26 Y-.53 E36.33606
G1 X3.132 Y-1.046 E36.38406
G1 X2.925 Y-1.534 E36.43193
G1 X2.641 Y-1.984 E36.47997
G1 X2.287 Y-2.382 E36.52806
G1 X1.876 Y-2.717 E36.57594
G1 X1.416 Y-2.984 E36.62396
G1 X0.919 Y-3.172 E36.67194
G1 X0.398 Y-3.279 E36.71996
G1 X-.134 Y-3.3 E36.76804
G1 X-.66 Y-3.235 E36.81589
G1 X-1.171 Y-3.089 E36.86387
G1 X-1.652 Y-2.86 E36.91198
G1 X-2.089 Y-2.559 E36.95989
G1 X-2.472 Y-2.19 E37.00791
G0 F1200 X-4.2 Y-4.2
G1 F300 X4.2 Y-4.2 E37.76635
G1 X4.2 Y4.2 E38.52479
G1 X-4.2 Y4.2 E39.28323
G1 X-4.2 Y-4.2 E40.04167
G0 F1200 X2.866 Y-3.2
G1 F300 X3.2 Y-3.2 E40.07183
G1 X3.2 Y-2.86 E40.10253
G1 X2.981 Y-3.106 E40.13227
G1 X2.866 Y-3.2 E40.14568
G0 F1200 X2.866 Y3.2
G1 F300 X2.981 Y3.106 E40.15909
G1 X3.2 Y2.86 E40.18883
G1 X3.2 Y3.2 E40.21953
G1 X2.866 Y3.2 E40.24968
G0 F1200 X-3.2 Y2.877
G1 F300 X-2.865 Y3.2 E40.2917
G1 X-3.2 Y3.2 E40.32195
G1 X-3.2 Y2.877 E40.35111
;MESH:cylinder_for_rect.STL
G0 F1200 X-4.98 Y3.32
G0 X-5.665 Y3.32
G0 X-8.86 Y3.617
G0 X-9.542 Y3.662
G0 X-11.854 Y3.32
;TYPE:FILL
G1 F300 X-11.768 Y3.344 E40.35917
G1 X-11.682 Y3.381 E40.36763
G1 X-11.597 Y3.433 E40.37662
G1 X-11.527 Y3.49 E40.38477
G1 X-11.462 Y3.559 E40.39333
G1 X-11.402 Y3.643 E40.40265
G1 X-11.364 Y3.717 E40.41016
G1 X-11.33 Y3.814 E40.41944
G1 X-11.31 Y3.908 E40.42812
G1 X-11.304 Y4 E40.43645
G1 X-11.31 Y4.092 E40.44477
G1 X-11.33 Y4.186 E40.45345
G1 X-11.364 Y4.283 E40.46273
G1 X-11.402 Y4.357 E40.47024
G1 X-11.462 Y4.441 E40.47956
G1 X-11.527 Y4.51 E40.48812
G1 X-11.597 Y4.567 E40.49627
G1 X-11.682 Y4.619 E40.50527
G1 X-11.768 Y4.656 E40.51372
G1 X-11.854 Y4.68 E40.52178
G1 X-11.954 Y4.694 E40.5309
G1 X-12.046 Y4.694 E40.53921
G1 X-12.146 Y4.68 E40.54832
G1 X-12.232 Y4.656 E40.55638
G1 X-12.318 Y4.619 E40.56484
G1 X-12.403 Y4.567 E40.57383
G1 X-12.473 Y4.51 E40.58198
G1 X-12.538 Y4.441 E40.59054
G1 X-12.598 Y4.357 E40.59986
G1 X-12.636 Y4.283 E40.60738
G1 X-12.67 Y4.186 E40.61666
G1 X-12.69 Y4.092 E40.62533
G1 X-12.696 Y4 E40.63366
G1 X-12.69 Y3.908 E40.64198
G1 X-12.67 Y3.814 E40.65066
G1 X-12.636 Y3.717 E40.65994
G1 X-12.598 Y3.643 E40.66745
G1 X-12.538 Y3.559 E40.67677
G1 X-12.473 Y3.49 E40.68533
G1 X-12.403 Y3.433 E40.69348
G1 X-12.318 Y3.381 E40.70248
G1 X-12.232 Y3.344 E40.71093
G1 X-12.146 Y3.32 E40.71899
G1 X-12.046 Y3.306 E40.72811
G1 X-11.954 Y3.306 E40.73642
G1 X-11.854 Y3.32 E40.74553
G0 F1200 X-11.65 Y2.338
G1 F300 X-11.436 Y2.398 E40.7656
G1 X-11.215 Y2.494 E40.78736
G1 X-11.02 Y2.613 E40.80798
G1 X-10.844 Y2.756 E40.82846
G1 X-10.683 Y2.929 E40.8498
G1 X-10.547 Y3.12 E40.87097
G1 X-10.443 Y3.322 E40.89148
G1 X-10.365 Y3.542 E40.91256
G1 X-10.317 Y3.771 E40.93368
G1 X-10.302 Y4 E40.9544
G1 X-10.317 Y4.229 E40.97512
G1 X-10.365 Y4.458 E40.99625
G1 X-10.443 Y4.678 E41.01733
G1 X-10.547 Y4.88 E41.03784
G1 X-10.683 Y5.071 E41.05901
G1 X-10.844 Y5.244 E41.08035
G1 X-11.02 Y5.387 E41.10082
G1 X-11.215 Y5.506 E41.12145
G1 X-11.436 Y5.602 E41.14321
G1 X-11.65 Y5.662 E41.16327
G1 X-11.886 Y5.694 E41.18478
G1 X-12.114 Y5.694 E41.20536
G1 X-12.35 Y5.662 E41.22687
G1 X-12.564 Y5.602 E41.24693
G1 X-12.785 Y5.506 E41.26869
G1 X-12.98 Y5.387 E41.28932
G1 X-13.156 Y5.244 E41.30979
G1 X-13.317 Y5.071 E41.33113
G1 X-13.453 Y4.88 E41.3523
G1 X-13.557 Y4.678 E41.37281
G1 X-13.635 Y4.458 E41.39389
G1 X-13.683 Y4.229 E41.41501
G1 X-13.698 Y4 E41.43574
G1 X-13.683 Y3.771 E41.45646
G1 X-13.635 Y3.542 E41.47758
G1 X-13.557 Y3.322 E41.49866
G1 X-13.453 Y3.12 E41.51917
G1 X-13.317 Y2.929 E41.54034
G1 X-13.156 Y2.756 E41.56168
G1 X-12.98 Y2.613 E41.58216
G1 X-12.785 Y2.494 E41.60278
G1 X-12.564 Y2.398 E41.62454
G1 X-12.35 Y2.338 E41.6446
G1 X-12.114 Y2.306 E41.66611
G1 X-11.886 Y2.306 E41.68669
G1 X-11.65 Y2.338 E41.7082
;MESH:NONMESH
G0 F1200 X-10.307 Y2.187
G0 X-9.544 Y2.001
G0 X-5.665 Y2.187
G0 X-4.98 Y2.187
G0 X-3.2 Y-2.877
;TIME_ELAPSED:144.344507
;LAYER:7
;MESH:rectangle_w_hole.STL
G0 X-3.2 Y-2.877 Z8.7
;TYPE:FILL
G1 F300 X-3.2 Y-3.2 E41.73736
G1 X-2.865 Y-3.2 E41.76761
G1 X-3.2 Y-2.877 E41.80963
G0 F1200 X-2.472 Y-2.19
G1 F300 X-2.791 Y-1.765 E41.85761
G1 X-3.039 Y-1.294 E41.90567
G1 X-3.206 Y-.79 E41.95361
G1 X-3.292 Y-.266 E42.00155
G1 X-3.292 Y0.266 E42.04959
G1 X-3.206 Y0.79 E42.09753
G1 X-3.039 Y1.294 E42.14547
G1 X-2.791 Y1.765 E42.19354
G1 X-2.472 Y2.19 E42.24152
G1 X-2.089 Y2.559 E42.28954
G1 X-1.652 Y2.86 E42.33745
G1 X-1.171 Y3.089 E42.38555
G1 X-.66 Y3.235 E42.43353
G1 X-.134 Y3.3 E42.48139
G1 X0.398 Y3.279 E42.52946
G1 X0.919 Y3.172 E42.57748
G1 X1.416 Y2.984 E42.62546
G1 X1.876 Y2.717 E42.67348
G1 X2.287 Y2.382 E42.72136
G1 X2.641 Y1.984 E42.76945
G1 X2.925 Y1.534 E42.8175
G1 X3.132 Y1.046 E42.86536
G1 X3.26 Y0.53 E42.91336
G1 X3.303 Y0.00 E42.96137
G1 X3.26 Y-.53 E43.00938
G1 X3.132 Y-1.046 E43.05739
G1 X2.925 Y-1.534 E43.10525
G1 X2.641 Y-1.984 E43.15329
G1 X2.287 Y-2.382 E43.20139
G1 X1.876 Y-2.717 E43.24926
G1 X1.416 Y-2.984 E43.29729
G1 X0.919 Y-3.172 E43.34526
G1 X0.398 Y-3.279 E43.39329
G1 X-.134 Y-3.3 E43.44136
G1 X-.66 Y-3.235 E43.48921
G1 X-1.171 Y-3.089 E43.5372
G1 X-1.652 Y-2.86 E43.5853
G1 X-2.089 Y-2.559 E43.63321
G1 X-2.472 Y-2.19 E43.68123
G0 F1200 X-4.2 Y-4.2
G1 F300 X4.2 Y-4.2 E44.43967
G1 X4.2 Y4.2 E45.19811
G1 X-4.2 Y4.2 E45.95655
G1 X-4.2 Y-4.2 E46.715
G0 F1200 X2.866 Y-3.2
G1 F300 X3.2 Y-3.2 E46.74515
G1 X3.2 Y-2.86 E46.77585
G1 X2.981 Y-3.106 E46.80559
G1 X2.866 Y-3.2 E46.819
G0 F1200 X2.866 Y3.2
G1 F300 X2.981 Y3.106 E46.83241
G1 X3.2 Y2.86 E46.86215
G1 X3.2 Y3.2 E46.89285
G1 X2.866 Y3.2 E46.923
G0 F1200 X-3.2 Y2.877
G1 F300 X-2.865 Y3.2 E46.96502
G1 X-3.2 Y3.2 E46.99527
G1 X-3.2 Y2.877 E47.02443
;MESH:cylinder_for_rect.STL
G0 F1200 X-4.98 Y3.32
G0 X-5.665 Y3.32
G0 X-8.86 Y3.617
G0 X-9.542 Y3.662
G0 X-11.854 Y3.32
;TYPE:FILL
G1 F300 X-11.768 Y3.344 E47.03249
G1 X-11.682 Y3.381 E47.04095
G1 X-11.597 Y3.433 E47.04994
G1 X-11.527 Y3.49 E47.0581
G1 X-11.462 Y3.559 E47.06665
G1 X-11.402 Y3.643 E47.07598
G1 X-11.364 Y3.717 E47.08349
G1 X-11.33 Y3.814 E47.09277
G1 X-11.31 Y3.908 E47.10144
G1 X-11.304 Y4 E47.10977
G1 X-11.31 Y4.092 E47.11809
G1 X-11.33 Y4.186 E47.12677
G1 X-11.364 Y4.283 E47.13605
G1 X-11.402 Y4.357 E47.14356
G1 X-11.462 Y4.441 E47.15288
G1 X-11.527 Y4.51 E47.16144
G1 X-11.597 Y4.567 E47.16959
G1 X-11.682 Y4.619 E47.17859
G1 X-11.768 Y4.656 E47.18704
G1 X-11.854 Y4.68 E47.1951
G1 X-11.954 Y4.694 E47.20422
G1 X-12.046 Y4.694 E47.21253
G1 X-12.146 Y4.68 E47.22164
G1 X-12.232 Y4.656 E47.22971
G1 X-12.318 Y4.619 E47.23816
G1 X-12.403 Y4.567 E47.24716
G1 X-12.473 Y4.51 E47.25531
G1 X-12.538 Y4.441 E47.26387
G1 X-12.598 Y4.357 E47.27319
G1 X-12.636 Y4.283 E47.2807
G1 X-12.67 Y4.186 E47.28998
G1 X-12.69 Y4.092 E47.29866
G1 X-12.696 Y4 E47.30698
G1 X-12.69 Y3.908 E47.3153
G1 X-12.67 Y3.814 E47.32398
G1 X-12.636 Y3.717 E47.33326
G1 X-12.598 Y3.643 E47.34077
G1 X-12.538 Y3.559 E47.35009
G1 X-12.473 Y3.49 E47.35865
G1 X-12.403 Y3.433 E47.3668
G1 X-12.318 Y3.381 E47.3758
G1 X-12.232 Y3.344 E47.38425
G1 X-12.146 Y3.32 E47.39232
G1 X-12.046 Y3.306 E47.40143
G1 X-11.954 Y3.306 E47.40974
G1 X-11.854 Y3.32 E47.41886
G0 F1200 X-11.65 Y2.338
G1 F300 X-11.436 Y2.398 E47.43892
G1 X-11.215 Y2.494 E47.46068
G1 X-11.02 Y2.613 E47.48131
G1 X-10.844 Y2.756 E47.50178
G1 X-10.683 Y2.929 E47.52312
G1 X-10.547 Y3.12 E47.54429
G1 X-10.443 Y3.322 E47.5648
G1 X-10.365 Y3.542 E47.58588
G1 X-10.317 Y3.771 E47.60701
G1 X-10.302 Y4 E47.62773
G1 X-10.317 Y4.229 E47.64845
G1 X-10.365 Y4.458 E47.66957
G1 X-10.443 Y4.678 E47.69065
G1 X-10.547 Y4.88 E47.71116
G1 X-10.683 Y5.071 E47.73233
G1 X-10.844 Y5.244 E47.75367
G1 X-11.02 Y5.387 E47.77415
G1 X-11.215 Y5.506 E47.79477
G1 X-11.436 Y5.602 E47.81653
G1 X-11.65 Y5.662 E47.8366
G1 X-11.886 Y5.694 E47.8581
G1 X-12.114 Y5.694 E47.87869
G1 X-12.35 Y5.662 E47.90019
G1 X-12.564 Y5.602 E47.92026
G1 X-12.785 Y5.506 E47.94201
G1 X-12.98 Y5.387 E47.96264
G1 X-13.156 Y5.244 E47.98311
G1 X-13.317 Y5.071 E48.00445
G1 X-13.453 Y4.88 E48.02562
G1 X-13.557 Y4.678 E48.04614
G1 X-13.635 Y4.458 E48.06721
G1 X-13.683 Y4.229 E48.08834
G1 X-13.698 Y4 E48.10906
G1 X-13.683 Y3.771 E48.12978
G1 X-13.635 Y3.542 E48.1509
G1 X-13.557 Y3.322 E48.17198
G1 X-13.453 Y3.12 E48.19249
G1 X-13.317 Y2.929 E48.21367
G1 X-13.156 Y2.756 E48.235
G1 X-12.98 Y2.613 E48.25548
G1 X-12.785 Y2.494 E48.2761
G1 X-12.564 Y2.398 E48.29786
G1 X-12.35 Y2.338 E48.31793
G1 X-12.114 Y2.306 E48.33943
G1 X-11.886 Y2.306 E48.36002
G1 X-11.65 Y2.338 E48.38152
;MESH:NONMESH
G0 F1200 X-10.307 Y2.187
G0 X-9.544 Y2.001
G0 X-5.665 Y2.187
G0 X-4.98 Y2.187
G0 X-3.2 Y-2.877
;TIME_ELAPSED:161.689898
;LAYER:8
;MESH:rectangle_w_hole.STL
G0 X-3.2 Y-2.877 Z9.9
;TYPE:FILL
G1 F300 X-3.2 Y-3.2 E48.41068
G1 X-2.865 Y-3.2 E48.44093
G1 X-3.2 Y-2.877 E48.48295
G0 F1200 X-2.472 Y-2.19
G1 F300 X-2.791 Y-1.765 E48.53093
G1 X-3.039 Y-1.294 E48.57899
G1 X-3.206 Y-.79 E48.62693
G1 X-3.292 Y-.266 E48.67488
G1 X-3.292 Y0.266 E48.72291
G1 X-3.206 Y0.79 E48.77086
G1 X-3.039 Y1.294 E48.8188
G1 X-2.791 Y1.765 E48.86686
G1 X-2.472 Y2.19 E48.91484
G1 X-2.089 Y2.559 E48.96286
G1 X-1.652 Y2.86 E49.01077
G1 X-1.171 Y3.089 E49.05887
G1 X-.66 Y3.235 E49.10685
G1 X-.134 Y3.3 E49.15471
G1 X0.398 Y3.279 E49.20278
G1 X0.919 Y3.172 E49.2508
G1 X1.416 Y2.984 E49.29878
G1 X1.876 Y2.717 E49.3468
G1 X2.287 Y2.382 E49.39468
G1 X2.641 Y1.984 E49.44277
G1 X2.925 Y1.534 E49.49082
G1 X3.132 Y1.046 E49.53868
G1 X3.26 Y0.531 E49.5866
G1 X3.301 Y0.031 E49.63189
G1 X3.263 Y-.494 E49.67942
G1 X3.142 Y-1.01 E49.72727
G1 X2.94 Y-1.501 E49.77521
G1 X2.661 Y-1.953 E49.82317
G1 X2.313 Y-2.355 E49.87118
G1 X1.905 Y-2.694 E49.91907
G1 X1.42 Y-2.983 E49.97005
G1 X0.919 Y-3.172 E50.0184
G1 X0.398 Y-3.279 E50.06642
G1 X-.134 Y-3.3 E50.11449
G1 X-.66 Y-3.235 E50.16235
G1 X-1.171 Y-3.089 E50.21033
G1 X-1.652 Y-2.86 E50.25843
G1 X-2.089 Y-2.559 E50.30634
G1 X-2.472 Y-2.19 E50.35436
G0 F1200 X-4.2 Y-4.2
G1 F300 X4.2 Y-4.2 E51.1128
G1 X4.2 Y4.2 E51.87125
G1 X-4.2 Y4.2 E52.62969
G1 X-4.2 Y-4.2 E53.38813
G0 F1200 X2.861 Y-3.2
G1 F300 X3.2 Y-3.2 E53.41874
G1 X3.2 Y-2.859 E53.44953
G1 X3.015 Y-3.072 E53.475
G1 X2.861 Y-3.2 E53.49308
G0 F1200 X2.866 Y3.2
G1 F300 X2.981 Y3.106 E53.50649
G1 X3.2 Y2.86 E53.53623
G1 X3.2 Y3.2 E53.56693
G1 X2.866 Y3.2 E53.59709
G0 F1200 X-3.2 Y2.877
G1 F300 X-2.865 Y3.2 E53.6391
G1 X-3.2 Y3.2 E53.66935
G1 X-3.2 Y2.877 E53.69851
;MESH:cylinder_for_rect.STL
G0 F1200 X-4.98 Y3.32
G0 X-5.665 Y3.32
G0 X-8.86 Y3.617
G0 X-9.542 Y3.662
G0 X-11.854 Y3.32
;TYPE:FILL
G1 F300 X-11.768 Y3.344 E53.70658
G1 X-11.682 Y3.381 E53.71503
G1 X-11.597 Y3.433 E53.72403
G1 X-11.527 Y3.49 E53.73218
G1 X-11.462 Y3.559 E53.74074
G1 X-11.402 Y3.643 E53.75006
G1 X-11.364 Y3.717 E53.75757
G1 X-11.33 Y3.814 E53.76685
G1 X-11.31 Y3.908 E53.77553
G1 X-11.304 Y4 E53.78385
G1 X-11.31 Y4.092 E53.79217
G1 X-11.33 Y4.186 E53.80085
G1 X-11.364 Y4.283 E53.81013
G1 X-11.402 Y4.357 E53.81764
G1 X-11.462 Y4.441 E53.82696
G1 X-11.527 Y4.51 E53.83552
G1 X-11.597 Y4.567 E53.84367
G1 X-11.682 Y4.619 E53.85267
G1 X-11.768 Y4.656 E53.86112
G1 X-11.854 Y4.68 E53.86919
G1 X-11.954 Y4.694 E53.8783
G1 X-12.046 Y4.694 E53.88661
G1 X-12.146 Y4.68 E53.89573
G1 X-12.232 Y4.656 E53.90379
G1 X-12.318 Y4.619 E53.91224
G1 X-12.403 Y4.567 E53.92124
G1 X-12.473 Y4.51 E53.92939
G1 X-12.538 Y4.441 E53.93795
G1 X-12.598 Y4.357 E53.94727
G1 X-12.636 Y4.283 E53.95478
G1 X-12.67 Y4.186 E53.96406
G1 X-12.69 Y4.092 E53.97274
G1 X-12.696 Y4 E53.98106
G1 X-12.69 Y3.908 E53.98939
G1 X-12.67 Y3.814 E53.99806
G1 X-12.636 Y3.717 E54.00734
G1 X-12.598 Y3.643 E54.01485
G1 X-12.538 Y3.559 E54.02418
G1 X-12.473 Y3.49 E54.03273
G1 X-12.403 Y3.433 E54.04089
G1 X-12.318 Y3.381 E54.04988
G1 X-12.232 Y3.344 E54.05834
G1 X-12.146 Y3.32 E54.0664
G1 X-12.046 Y3.306 E54.07551
G1 X-11.954 Y3.306 E54.08382
G1 X-11.854 Y3.32 E54.09294
G0 F1200 X-11.65 Y2.338
G1 F300 X-11.436 Y2.398 E54.11301
G1 X-11.215 Y2.494 E54.13476
G1 X-11.02 Y2.613 E54.15539
G1 X-10.844 Y2.756 E54.17586
G1 X-10.683 Y2.929 E54.1972
G1 X-10.547 Y3.12 E54.21837
G1 X-10.443 Y3.322 E54.23889
G1 X-10.365 Y3.542 E54.25996
G1 X-10.317 Y3.771 E54.28109
G1 X-10.302 Y4 E54.30181
G1 X-10.317 Y4.229 E54.32253
G1 X-10.365 Y4.458 E54.34365
G1 X-10.443 Y4.678 E54.36473
G1 X-10.547 Y4.88 E54.38524
G1 X-10.683 Y5.071 E54.40641
G1 X-10.844 Y5.244 E54.42775
G1 X-11.02 Y5.387 E54.44823
G1 X-11.215 Y5.506 E54.46885
G1 X-11.436 Y5.602 E54.49061
G1 X-11.65 Y5.662 E54.51068
G1 X-11.886 Y5.694 E54.53218
G1 X-12.114 Y5.694 E54.55277
G1 X-12.35 Y5.662 E54.57427
G1 X-12.564 Y5.602 E54.59434
G1 X-12.785 Y5.506 E54.61609
G1 X-12.98 Y5.387 E54.63672
G1 X-13.156 Y5.244 E54.65719
G1 X-13.317 Y5.071 E54.67853
G1 X-13.453 Y4.88 E54.6997
G1 X-13.557 Y4.678 E54.72022
G1 X-13.635 Y4.458 E54.74129
G1 X-13.683 Y4.229 E54.76242
G1 X-13.698 Y4 E54.78314
G1 X-13.683 Y3.771 E54.80386
G1 X-13.635 Y3.542 E54.82499
G1 X-13.557 Y3.322 E54.84606
G1 X-13.453 Y3.12 E54.86658
G1 X-13.317 Y2.929 E54.88775
G1 X-13.156 Y2.756 E54.90908
G1 X-12.98 Y2.613 E54.92956
G1 X-12.785 Y2.494 E54.95019
G1 X-12.564 Y2.398 E54.97194
G1 X-12.35 Y2.338 E54.99201
G1 X-12.114 Y2.306 E55.01351
G1 X-11.886 Y2.306 E55.0341
G1 X-11.65 Y2.338 E55.0556
;TIME_ELAPSED:178.429700
M140 S0
M107
M104 S0 ;extruder heater off
M140 S0 ;heated bed heater off (if you have it)
G91 ;relative positioning
G1 E-1 F300  ;retract the filament a bit before lifting the nozzle, to release some of the pressure
G1 Z+0.5 E-5 X-20 Y-20 F9000 ;move Z up a bit and retract filament even more
G28 X0 Y0 ;move X/Y to min endstops, so the head is out of the way
M84 ;steppers off
G90 ;absolute positioning
M82 ;absolute extrusion mode
M104 S0
;End of Gcode
;SETTING_3 {"extruder_quality": ["[general]\\nversion = 4\\nname = Carolyn - Syr
;SETTING_3 inge\\ndefinition = fdmprinter\\n\\n[metadata]\\nquality_type = veryd
;SETTING_3 raft\\nposition = 0\\nsetting_version = 5\\ntype = quality_changes\\n
;SETTING_3 \\n[values]\\nbrim_width = 0\\ninfill_angles = [0,90]\\ninfill_line_d
;SETTING_3 istance = 1\\ninfill_pattern = concentric\\ninfill_sparse_density = 7
;SETTING_3 0\\nmaterial_flow = 120\\nretraction_enable = False\\nskirt_line_coun
;SETTING_3 t = 2\\nspeed_print = 5\\nspeed_travel = 20\\ntop_bottom_thickness = 
;SETTING_3 0.0\\nwall_thickness = 0.0\\n\\n"], "global_quality": "[general]\\nve
;SETTING_3 rsion = 4\\nname = Carolyn - Syringe\\ndefinition = fdmprinter\\n\\n[
;SETTING_3 metadata]\\nquality_type = verydraft\\ntype = quality_changes\\nsetti
;SETTING_3 ng_version = 5\\n\\n[values]\\nadhesion_type = none\\nlayer_height = 
;SETTING_3 1.2\\nmaterial_bed_temperature = 0\\nsupport_enable = False\\n\\n"}
