;FLAVOR:Marlin
;TIME:47
;Filament used: 0.00932998m
;Layer height: 0.8
;Generated with Cura_SteamEngine 3.6.0
M104 S200
M105
M109 S200
M82 ;absolute extrusion mode
G21 ;metric values
G90 ;absolute positioning
M82 ;set extruder to absolute mode
M107 ;start with the fan off
G28 ;move XYZ to min endstops
G1 Z15.0 F9000 ;move the platform down 15mm
G1 F9000
;Put printing message on LCD screen
M117 Printing...
G92 E0
;LAYER_COUNT:14
;LAYER:0
M107
;MESH:cylinder_for_rect.STL
G0 F600 X0.146 Y-.68 Z0.3
;TYPE:FILL
G1 F150 X0.232 Y-.656 E0.00168
G1 X0.318 Y-.619 E0.00344
G1 X0.403 Y-.567 E0.00531
G1 X0.473 Y-.51 E0.00701
G1 X0.538 Y-.441 E0.0088
G1 X0.598 Y-.357 E0.01074
G1 X0.636 Y-.283 E0.0123
G1 X0.67 Y-.186 E0.01424
G1 X0.69 Y-0.092 E0.01604
G1 X0.696 Y0.00 E0.01778
G1 X0.69 Y0.092 E0.01951
G1 X0.67 Y0.186 E0.02132
G1 X0.636 Y0.283 E0.02325
G1 X0.598 Y0.357 E0.02482
G1 X0.538 Y0.441 E0.02676
G1 X0.473 Y0.51 E0.02854
G1 X0.403 Y0.567 E0.03024
G1 X0.318 Y0.619 E0.03212
G1 X0.232 Y0.656 E0.03388
G1 X0.146 Y0.68 E0.03556
G1 X0.046 Y0.694 E0.03746
G1 X-0.046 Y0.694 E0.03919
G1 X-.146 Y0.68 E0.04109
G1 X-.232 Y0.656 E0.04277
G1 X-.318 Y0.619 E0.04453
G1 X-.403 Y0.567 E0.0464
G1 X-.473 Y0.51 E0.0481
G1 X-.538 Y0.441 E0.04988
G1 X-.598 Y0.357 E0.05182
G1 X-.636 Y0.283 E0.05339
G1 X-.67 Y0.186 E0.05532
G1 X-.69 Y0.092 E0.05713
G1 X-.696 Y0.00 E0.05886
G1 X-.69 Y-0.092 E0.0606
G1 X-.67 Y-.186 E0.06241
G1 X-.636 Y-.283 E0.06434
G1 X-.598 Y-.357 E0.0659
G1 X-.538 Y-.441 E0.06785
G1 X-.473 Y-.51 E0.06963
G1 X-.403 Y-.567 E0.07133
G1 X-.318 Y-.619 E0.0732
G1 X-.232 Y-.656 E0.07496
G1 X-.146 Y-.68 E0.07664
G1 X-0.046 Y-.694 E0.07854
G1 X0.046 Y-.694 E0.08027
G1 X0.146 Y-.68 E0.08217
G0 F600 X0.35 Y-1.662
G1 F150 X0.564 Y-1.602 E0.08635
G1 X0.785 Y-1.506 E0.09088
G1 X0.98 Y-1.387 E0.09518
G1 X1.156 Y-1.244 E0.09945
G1 X1.317 Y-1.071 E0.10389
G1 X1.453 Y-.88 E0.1083
G1 X1.557 Y-.678 E0.11258
G1 X1.635 Y-.458 E0.11697
G1 X1.683 Y-.229 E0.12137
G1 X1.698 Y0.00 E0.12569
G1 X1.683 Y0.229 E0.13
G1 X1.635 Y0.458 E0.1344
G1 X1.557 Y0.678 E0.13879
G1 X1.453 Y0.88 E0.14307
G1 X1.317 Y1.071 E0.14748
G1 X1.156 Y1.244 E0.15192
G1 X0.98 Y1.387 E0.15619
G1 X0.785 Y1.506 E0.16049
G1 X0.564 Y1.602 E0.16502
G1 X0.35 Y1.662 E0.1692
G1 X0.114 Y1.694 E0.17368
G1 X-.114 Y1.694 E0.17797
G1 X-.35 Y1.662 E0.18245
G1 X-.564 Y1.602 E0.18663
G1 X-.785 Y1.506 E0.19116
G1 X-.98 Y1.387 E0.19546
G1 X-1.156 Y1.244 E0.19972
G1 X-1.317 Y1.071 E0.20417
G1 X-1.453 Y0.88 E0.20858
G1 X-1.557 Y0.678 E0.21285
G1 X-1.635 Y0.458 E0.21725
G1 X-1.683 Y0.229 E0.22165
G1 X-1.698 Y0.00 E0.22596
G1 X-1.683 Y-.229 E0.23028
G1 X-1.635 Y-.458 E0.23468
G1 X-1.557 Y-.678 E0.23907
G1 X-1.453 Y-.88 E0.24335
G1 X-1.317 Y-1.071 E0.24776
G1 X-1.156 Y-1.244 E0.2522
G1 X-.98 Y-1.387 E0.25647
G1 X-.785 Y-1.506 E0.26076
G1 X-.564 Y-1.602 E0.2653
G1 X-.35 Y-1.662 E0.26948
G1 X-.114 Y-1.694 E0.27396
G1 X0.114 Y-1.694 E0.27825
G1 X0.35 Y-1.662 E0.28273
;MESH:NONMESH
G0 F600 X0.146 Y-.68
;TIME_ELAPSED:6.385873
;LAYER:1
M106 S255
;MESH:cylinder_for_rect.STL
G0 F900 X0.146 Y-.68 Z1.1
;TYPE:FILL
G1 F225 X0.232 Y-.656 E0.28721
G1 X0.318 Y-.619 E0.2919
G1 X0.403 Y-.567 E0.2969
G1 X0.473 Y-.51 E0.30143
G1 X0.538 Y-.441 E0.30618
G1 X0.598 Y-.357 E0.31136
G1 X0.636 Y-.283 E0.31553
G1 X0.67 Y-.186 E0.32069
G1 X0.69 Y-0.092 E0.32551
G1 X0.696 Y0.00 E0.33014
G1 X0.69 Y0.092 E0.33476
G1 X0.67 Y0.186 E0.33958
G1 X0.636 Y0.283 E0.34474
G1 X0.598 Y0.357 E0.34891
G1 X0.538 Y0.441 E0.35409
G1 X0.473 Y0.51 E0.35884
G1 X0.403 Y0.567 E0.36337
G1 X0.318 Y0.619 E0.36837
G1 X0.232 Y0.656 E0.37306
G1 X0.146 Y0.68 E0.37754
G1 X0.046 Y0.694 E0.38261
G1 X-0.046 Y0.694 E0.38722
G1 X-.146 Y0.68 E0.39229
G1 X-.232 Y0.656 E0.39677
G1 X-.318 Y0.619 E0.40146
G1 X-.403 Y0.567 E0.40646
G1 X-.473 Y0.51 E0.41099
G1 X-.538 Y0.441 E0.41575
G1 X-.598 Y0.357 E0.42092
G1 X-.636 Y0.283 E0.4251
G1 X-.67 Y0.186 E0.43025
G1 X-.69 Y0.092 E0.43507
G1 X-.696 Y0.00 E0.4397
G1 X-.69 Y-0.092 E0.44432
G1 X-.67 Y-.186 E0.44914
G1 X-.636 Y-.283 E0.4543
G1 X-.598 Y-.357 E0.45847
G1 X-.538 Y-.441 E0.46365
G1 X-.473 Y-.51 E0.4684
G1 X-.403 Y-.567 E0.47293
G1 X-.318 Y-.619 E0.47793
G1 X-.232 Y-.656 E0.48263
G1 X-.146 Y-.68 E0.48711
G1 X-0.046 Y-.694 E0.49217
G1 X0.046 Y-.694 E0.49679
G1 X0.146 Y-.68 E0.50185
G0 F900 X0.35 Y-1.662
G1 F225 X0.564 Y-1.602 E0.513
G1 X0.785 Y-1.506 E0.52509
G1 X0.98 Y-1.387 E0.53654
G1 X1.156 Y-1.244 E0.54792
G1 X1.317 Y-1.071 E0.55977
G1 X1.453 Y-.88 E0.57154
G1 X1.557 Y-.678 E0.58293
G1 X1.635 Y-.458 E0.59464
G1 X1.683 Y-.229 E0.60638
G1 X1.698 Y0.00 E0.61789
G1 X1.683 Y0.229 E0.6294
G1 X1.635 Y0.458 E0.64114
G1 X1.557 Y0.678 E0.65285
G1 X1.453 Y0.88 E0.66424
G1 X1.317 Y1.071 E0.676
G1 X1.156 Y1.244 E0.68786
G1 X0.98 Y1.387 E0.69923
G1 X0.785 Y1.506 E0.71069
G1 X0.564 Y1.602 E0.72278
G1 X0.35 Y1.662 E0.73393
G1 X0.114 Y1.694 E0.74587
G1 X-.114 Y1.694 E0.75731
G1 X-.35 Y1.662 E0.76926
G1 X-.564 Y1.602 E0.78041
G1 X-.785 Y1.506 E0.79249
G1 X-.98 Y1.387 E0.80395
G1 X-1.156 Y1.244 E0.81533
G1 X-1.317 Y1.071 E0.82718
G1 X-1.453 Y0.88 E0.83894
G1 X-1.557 Y0.678 E0.85034
G1 X-1.635 Y0.458 E0.86205
G1 X-1.683 Y0.229 E0.87378
G1 X-1.698 Y0.00 E0.8853
G1 X-1.683 Y-.229 E0.89681
G1 X-1.635 Y-.458 E0.90854
G1 X-1.557 Y-.678 E0.92025
G1 X-1.453 Y-.88 E0.93165
G1 X-1.317 Y-1.071 E0.94341
G1 X-1.156 Y-1.244 E0.95527
G1 X-.98 Y-1.387 E0.96664
G1 X-.785 Y-1.506 E0.9781
G1 X-.564 Y-1.602 E0.99019
G1 X-.35 Y-1.662 E1.00133
G1 X-.114 Y-1.694 E1.01328
G1 X0.114 Y-1.694 E1.02472
G1 X0.35 Y-1.662 E1.03666
;MESH:NONMESH
G0 F900 X0.146 Y-.68
;TIME_ELAPSED:10.738212
;LAYER:2
;MESH:cylinder_for_rect.STL
G0 F1200 X0.146 Y-.68 Z1.9
;TYPE:FILL
G1 F300 X0.232 Y-.656 E1.04114
G1 X0.318 Y-.619 E1.04584
G1 X0.403 Y-.567 E1.05084
G1 X0.473 Y-.51 E1.05537
G1 X0.538 Y-.441 E1.06012
G1 X0.598 Y-.357 E1.0653
G1 X0.636 Y-.283 E1.06947
G1 X0.67 Y-.186 E1.07463
G1 X0.69 Y-0.092 E1.07945
G1 X0.696 Y0.00 E1.08407
G1 X0.69 Y0.092 E1.0887
G1 X0.67 Y0.186 E1.09352
G1 X0.636 Y0.283 E1.09867
G1 X0.598 Y0.357 E1.10285
G1 X0.538 Y0.441 E1.10802
G1 X0.473 Y0.51 E1.11278
G1 X0.403 Y0.567 E1.11731
G1 X0.318 Y0.619 E1.12231
G1 X0.232 Y0.656 E1.127
G1 X0.146 Y0.68 E1.13148
G1 X0.046 Y0.694 E1.13655
G1 X-0.046 Y0.694 E1.14116
G1 X-.146 Y0.68 E1.14623
G1 X-.232 Y0.656 E1.15071
G1 X-.318 Y0.619 E1.1554
G1 X-.403 Y0.567 E1.1604
G1 X-.473 Y0.51 E1.16493
G1 X-.538 Y0.441 E1.16968
G1 X-.598 Y0.357 E1.17486
G1 X-.636 Y0.283 E1.17903
G1 X-.67 Y0.186 E1.18419
G1 X-.69 Y0.092 E1.18901
G1 X-.696 Y0.00 E1.19363
G1 X-.69 Y-0.092 E1.19826
G1 X-.67 Y-.186 E1.20308
G1 X-.636 Y-.283 E1.20824
G1 X-.598 Y-.357 E1.21241
G1 X-.538 Y-.441 E1.21759
G1 X-.473 Y-.51 E1.22234
G1 X-.403 Y-.567 E1.22687
G1 X-.318 Y-.619 E1.23187
G1 X-.232 Y-.656 E1.23656
G1 X-.146 Y-.68 E1.24104
G1 X-0.046 Y-.694 E1.24611
G1 X0.046 Y-.694 E1.25072
G1 X0.146 Y-.68 E1.25579
G0 F1200 X0.35 Y-1.662
G1 F300 X0.564 Y-1.602 E1.26694
G1 X0.785 Y-1.506 E1.27902
G1 X0.98 Y-1.387 E1.29048
G1 X1.156 Y-1.244 E1.30186
G1 X1.317 Y-1.071 E1.31371
G1 X1.453 Y-.88 E1.32547
G1 X1.557 Y-.678 E1.33687
G1 X1.635 Y-.458 E1.34858
G1 X1.683 Y-.229 E1.36032
G1 X1.698 Y0.00 E1.37183
G1 X1.683 Y0.229 E1.38334
G1 X1.635 Y0.458 E1.39508
G1 X1.557 Y0.678 E1.40678
G1 X1.453 Y0.88 E1.41818
G1 X1.317 Y1.071 E1.42994
G1 X1.156 Y1.244 E1.4418
G1 X0.98 Y1.387 E1.45317
G1 X0.785 Y1.506 E1.46463
G1 X0.564 Y1.602 E1.47672
G1 X0.35 Y1.662 E1.48787
G1 X0.114 Y1.694 E1.49981
G1 X-.114 Y1.694 E1.51125
G1 X-.35 Y1.662 E1.5232
G1 X-.564 Y1.602 E1.53434
G1 X-.785 Y1.506 E1.54643
G1 X-.98 Y1.387 E1.55789
G1 X-1.156 Y1.244 E1.56926
G1 X-1.317 Y1.071 E1.58112
G1 X-1.453 Y0.88 E1.59288
G1 X-1.557 Y0.678 E1.60428
G1 X-1.635 Y0.458 E1.61599
G1 X-1.683 Y0.229 E1.62772
G1 X-1.698 Y0.00 E1.63923
G1 X-1.683 Y-.229 E1.65075
G1 X-1.635 Y-.458 E1.66248
G1 X-1.557 Y-.678 E1.67419
G1 X-1.453 Y-.88 E1.68559
G1 X-1.317 Y-1.071 E1.69735
G1 X-1.156 Y-1.244 E1.7092
G1 X-.98 Y-1.387 E1.72058
G1 X-.785 Y-1.506 E1.73204
G1 X-.564 Y-1.602 E1.74412
G1 X-.35 Y-1.662 E1.75527
G1 X-.114 Y-1.694 E1.76722
G1 X0.114 Y-1.694 E1.77866
G1 X0.35 Y-1.662 E1.7906
;MESH:NONMESH
G0 F1200 X0.146 Y-.68
;TIME_ELAPSED:14.056029
;LAYER:3
;MESH:cylinder_for_rect.STL
G0 X0.146 Y-.68 Z2.7
;TYPE:FILL
G1 F300 X0.232 Y-.656 E1.79508
G1 X0.318 Y-.619 E1.79978
G1 X0.403 Y-.567 E1.80478
G1 X0.473 Y-.51 E1.8093
G1 X0.538 Y-.441 E1.81406
G1 X0.598 Y-.357 E1.81924
G1 X0.636 Y-.283 E1.82341
G1 X0.67 Y-.186 E1.82857
G1 X0.69 Y-0.092 E1.83339
G1 X0.696 Y0.00 E1.83801
G1 X0.69 Y0.092 E1.84264
G1 X0.67 Y0.186 E1.84746
G1 X0.636 Y0.283 E1.85261
G1 X0.598 Y0.357 E1.85678
G1 X0.538 Y0.441 E1.86196
G1 X0.473 Y0.51 E1.86672
G1 X0.403 Y0.567 E1.87125
G1 X0.318 Y0.619 E1.87624
G1 X0.232 Y0.656 E1.88094
G1 X0.146 Y0.68 E1.88542
G1 X0.046 Y0.694 E1.89048
G1 X-0.046 Y0.694 E1.8951
G1 X-.146 Y0.68 E1.90016
G1 X-.232 Y0.656 E1.90464
G1 X-.318 Y0.619 E1.90934
G1 X-.403 Y0.567 E1.91434
G1 X-.473 Y0.51 E1.91887
G1 X-.538 Y0.441 E1.92362
G1 X-.598 Y0.357 E1.9288
G1 X-.636 Y0.283 E1.93297
G1 X-.67 Y0.186 E1.93813
G1 X-.69 Y0.092 E1.94295
G1 X-.696 Y0.00 E1.94757
G1 X-.69 Y-0.092 E1.9522
G1 X-.67 Y-.186 E1.95702
G1 X-.636 Y-.283 E1.96217
G1 X-.598 Y-.357 E1.96635
G1 X-.538 Y-.441 E1.97152
G1 X-.473 Y-.51 E1.97628
G1 X-.403 Y-.567 E1.98081
G1 X-.318 Y-.619 E1.98581
G1 X-.232 Y-.656 E1.9905
G1 X-.146 Y-.68 E1.99498
G1 X-0.046 Y-.694 E2.00005
G1 X0.046 Y-.694 E2.00466
G1 X0.146 Y-.68 E2.00973
G0 F1200 X0.35 Y-1.662
G1 F300 X0.564 Y-1.602 E2.02087
G1 X0.785 Y-1.506 E2.03296
G1 X0.98 Y-1.387 E2.04442
G1 X1.156 Y-1.244 E2.0558
G1 X1.317 Y-1.071 E2.06765
G1 X1.453 Y-.88 E2.07941
G1 X1.557 Y-.678 E2.09081
G1 X1.635 Y-.458 E2.10252
G1 X1.683 Y-.229 E2.11425
G1 X1.698 Y0.00 E2.12576
G1 X1.683 Y0.229 E2.13728
G1 X1.635 Y0.458 E2.14901
G1 X1.557 Y0.678 E2.16072
G1 X1.453 Y0.88 E2.17212
G1 X1.317 Y1.071 E2.18388
G1 X1.156 Y1.244 E2.19573
G1 X0.98 Y1.387 E2.20711
G1 X0.785 Y1.506 E2.21857
G1 X0.564 Y1.602 E2.23065
G1 X0.35 Y1.662 E2.2418
G1 X0.114 Y1.694 E2.25375
G1 X-.114 Y1.694 E2.26519
G1 X-.35 Y1.662 E2.27713
G1 X-.564 Y1.602 E2.28828
G1 X-.785 Y1.506 E2.30037
G1 X-.98 Y1.387 E2.31183
G1 X-1.156 Y1.244 E2.3232
G1 X-1.317 Y1.071 E2.33506
G1 X-1.453 Y0.88 E2.34682
G1 X-1.557 Y0.678 E2.35821
G1 X-1.635 Y0.458 E2.36992
G1 X-1.683 Y0.229 E2.38166
G1 X-1.698 Y0.00 E2.39317
G1 X-1.683 Y-.229 E2.40468
G1 X-1.635 Y-.458 E2.41642
G1 X-1.557 Y-.678 E2.42813
G1 X-1.453 Y-.88 E2.43952
G1 X-1.317 Y-1.071 E2.45129
G1 X-1.156 Y-1.244 E2.46314
G1 X-.98 Y-1.387 E2.47452
G1 X-.785 Y-1.506 E2.48597
G1 X-.564 Y-1.602 E2.49806
G1 X-.35 Y-1.662 E2.50921
G1 X-.114 Y-1.694 E2.52116
G1 X0.114 Y-1.694 E2.53259
G1 X0.35 Y-1.662 E2.54454
;MESH:NONMESH
G0 F1200 X0.146 Y-.68
;TIME_ELAPSED:17.373847
;LAYER:4
;MESH:cylinder_for_rect.STL
G0 X0.146 Y-.68 Z3.5
;TYPE:FILL
G1 F300 X0.232 Y-.656 E2.54902
G1 X0.318 Y-.619 E2.55371
G1 X0.403 Y-.567 E2.55871
G1 X0.473 Y-.51 E2.56324
G1 X0.538 Y-.441 E2.568
G1 X0.598 Y-.357 E2.57317
G1 X0.636 Y-.283 E2.57735
G1 X0.67 Y-.186 E2.5825
G1 X0.69 Y-0.092 E2.58732
G1 X0.696 Y0.00 E2.59195
G1 X0.69 Y0.092 E2.59657
G1 X0.67 Y0.186 E2.60139
G1 X0.636 Y0.283 E2.60655
G1 X0.598 Y0.357 E2.61072
G1 X0.538 Y0.441 E2.6159
G1 X0.473 Y0.51 E2.62066
G1 X0.403 Y0.567 E2.62518
G1 X0.318 Y0.619 E2.63018
G1 X0.232 Y0.656 E2.63488
G1 X0.146 Y0.68 E2.63936
G1 X0.046 Y0.694 E2.64442
G1 X-0.046 Y0.694 E2.64904
G1 X-.146 Y0.68 E2.6541
G1 X-.232 Y0.656 E2.65858
G1 X-.318 Y0.619 E2.66328
G1 X-.403 Y0.567 E2.66827
G1 X-.473 Y0.51 E2.6728
G1 X-.538 Y0.441 E2.67756
G1 X-.598 Y0.357 E2.68274
G1 X-.636 Y0.283 E2.68691
G1 X-.67 Y0.186 E2.69206
G1 X-.69 Y0.092 E2.69689
G1 X-.696 Y0.00 E2.70151
G1 X-.69 Y-0.092 E2.70613
G1 X-.67 Y-.186 E2.71096
G1 X-.636 Y-.283 E2.71611
G1 X-.598 Y-.357 E2.72028
G1 X-.538 Y-.441 E2.72546
G1 X-.473 Y-.51 E2.73022
G1 X-.403 Y-.567 E2.73475
G1 X-.318 Y-.619 E2.73974
G1 X-.232 Y-.656 E2.74444
G1 X-.146 Y-.68 E2.74892
G1 X-0.046 Y-.694 E2.75398
G1 X0.046 Y-.694 E2.7586
G1 X0.146 Y-.68 E2.76366
G0 F1200 X0.35 Y-1.662
G1 F300 X0.564 Y-1.602 E2.77481
G1 X0.785 Y-1.506 E2.7869
G1 X0.98 Y-1.387 E2.79836
G1 X1.156 Y-1.244 E2.80973
G1 X1.317 Y-1.071 E2.82159
G1 X1.453 Y-.88 E2.83335
G1 X1.557 Y-.678 E2.84475
G1 X1.635 Y-.458 E2.85645
G1 X1.683 Y-.229 E2.86819
G1 X1.698 Y0.00 E2.8797
G1 X1.683 Y0.229 E2.89121
G1 X1.635 Y0.458 E2.90295
G1 X1.557 Y0.678 E2.91466
G1 X1.453 Y0.88 E2.92606
G1 X1.317 Y1.071 E2.93782
G1 X1.156 Y1.244 E2.94967
G1 X0.98 Y1.387 E2.96105
G1 X0.785 Y1.506 E2.97251
G1 X0.564 Y1.602 E2.98459
G1 X0.35 Y1.662 E2.99574
G1 X0.114 Y1.694 E3.00769
G1 X-.114 Y1.694 E3.01912
G1 X-.35 Y1.662 E3.03107
G1 X-.564 Y1.602 E3.04222
G1 X-.785 Y1.506 E3.05431
G1 X-.98 Y1.387 E3.06576
G1 X-1.156 Y1.244 E3.07714
G1 X-1.317 Y1.071 E3.08899
G1 X-1.453 Y0.88 E3.10076
G1 X-1.557 Y0.678 E3.11215
G1 X-1.635 Y0.458 E3.12386
G1 X-1.683 Y0.229 E3.1356
G1 X-1.698 Y0.00 E3.14711
G1 X-1.683 Y-.229 E3.15862
G1 X-1.635 Y-.458 E3.17036
G1 X-1.557 Y-.678 E3.18207
G1 X-1.453 Y-.88 E3.19346
G1 X-1.317 Y-1.071 E3.20522
G1 X-1.156 Y-1.244 E3.21708
G1 X-.98 Y-1.387 E3.22845
G1 X-.785 Y-1.506 E3.23991
G1 X-.564 Y-1.602 E3.252
G1 X-.35 Y-1.662 E3.26315
G1 X-.114 Y-1.694 E3.27509
G1 X0.114 Y-1.694 E3.28653
G1 X0.35 Y-1.662 E3.29848
;MESH:NONMESH
G0 F1200 X0.146 Y-.68
;TIME_ELAPSED:20.691665
;LAYER:5
;MESH:cylinder_for_rect.STL
G0 X0.146 Y-.68 Z4.3
;TYPE:FILL
G1 F300 X0.232 Y-.656 E3.30296
G1 X0.318 Y-.619 E3.30765
G1 X0.403 Y-.567 E3.31265
G1 X0.473 Y-.51 E3.31718
G1 X0.538 Y-.441 E3.32193
G1 X0.598 Y-.357 E3.32711
G1 X0.636 Y-.283 E3.33128
G1 X0.67 Y-.186 E3.33644
G1 X0.69 Y-0.092 E3.34126
G1 X0.696 Y0.00 E3.34589
G1 X0.69 Y0.092 E3.35051
G1 X0.67 Y0.186 E3.35533
G1 X0.636 Y0.283 E3.36049
G1 X0.598 Y0.357 E3.36466
G1 X0.538 Y0.441 E3.36984
G1 X0.473 Y0.51 E3.37459
G1 X0.403 Y0.567 E3.37912
G1 X0.318 Y0.619 E3.38412
G1 X0.232 Y0.656 E3.38882
G1 X0.146 Y0.68 E3.39329
G1 X0.046 Y0.694 E3.39836
G1 X-0.046 Y0.694 E3.40297
G1 X-.146 Y0.68 E3.40804
G1 X-.232 Y0.656 E3.41252
G1 X-.318 Y0.619 E3.41721
G1 X-.403 Y0.567 E3.42221
G1 X-.473 Y0.51 E3.42674
G1 X-.538 Y0.441 E3.4315
G1 X-.598 Y0.357 E3.43667
G1 X-.636 Y0.283 E3.44085
G1 X-.67 Y0.186 E3.446
G1 X-.69 Y0.092 E3.45082
G1 X-.696 Y0.00 E3.45545
G1 X-.69 Y-0.092 E3.46007
G1 X-.67 Y-.186 E3.46489
G1 X-.636 Y-.283 E3.47005
G1 X-.598 Y-.357 E3.47422
G1 X-.538 Y-.441 E3.4794
G1 X-.473 Y-.51 E3.48415
G1 X-.403 Y-.567 E3.48868
G1 X-.318 Y-.619 E3.49368
G1 X-.232 Y-.656 E3.49838
G1 X-.146 Y-.68 E3.50286
G1 X-0.046 Y-.694 E3.50792
G1 X0.046 Y-.694 E3.51254
G1 X0.146 Y-.68 E3.5176
G0 F1200 X0.35 Y-1.662
G1 F300 X0.564 Y-1.602 E3.52875
G1 X0.785 Y-1.506 E3.54084
G1 X0.98 Y-1.387 E3.5523
G1 X1.156 Y-1.244 E3.56367
G1 X1.317 Y-1.071 E3.57552
G1 X1.453 Y-.88 E3.58729
G1 X1.557 Y-.678 E3.59868
G1 X1.635 Y-.458 E3.61039
G1 X1.683 Y-.229 E3.62213
G1 X1.698 Y0.00 E3.63364
G1 X1.683 Y0.229 E3.64515
G1 X1.635 Y0.458 E3.65689
G1 X1.557 Y0.678 E3.6686
G1 X1.453 Y0.88 E3.67999
G1 X1.317 Y1.071 E3.69175
G1 X1.156 Y1.244 E3.70361
G1 X0.98 Y1.387 E3.71498
G1 X0.785 Y1.506 E3.72644
G1 X0.564 Y1.602 E3.73853
G1 X0.35 Y1.662 E3.74968
G1 X0.114 Y1.694 E3.76162
G1 X-.114 Y1.694 E3.77306
G1 X-.35 Y1.662 E3.78501
G1 X-.564 Y1.602 E3.79616
G1 X-.785 Y1.506 E3.80824
G1 X-.98 Y1.387 E3.8197
G1 X-1.156 Y1.244 E3.83108
G1 X-1.317 Y1.071 E3.84293
G1 X-1.453 Y0.88 E3.85469
G1 X-1.557 Y0.678 E3.86609
G1 X-1.635 Y0.458 E3.8778
G1 X-1.683 Y0.229 E3.88954
G1 X-1.698 Y0.00 E3.90105
G1 X-1.683 Y-.229 E3.91256
G1 X-1.635 Y-.458 E3.92429
G1 X-1.557 Y-.678 E3.936
G1 X-1.453 Y-.88 E3.9474
G1 X-1.317 Y-1.071 E3.95916
G1 X-1.156 Y-1.244 E3.97102
G1 X-.98 Y-1.387 E3.98239
G1 X-.785 Y-1.506 E3.99385
G1 X-.564 Y-1.602 E4.00594
G1 X-.35 Y-1.662 E4.01709
G1 X-.114 Y-1.694 E4.02903
G1 X0.114 Y-1.694 E4.04047
G1 X0.35 Y-1.662 E4.05241
;MESH:NONMESH
G0 F1200 X0.146 Y-.68
;TIME_ELAPSED:24.009482
;LAYER:6
;MESH:cylinder_for_rect.STL
G0 X0.146 Y-.68 Z5.1
;TYPE:FILL
G1 F300 X0.232 Y-.656 E4.05689
G1 X0.318 Y-.619 E4.06159
G1 X0.403 Y-.567 E4.06659
G1 X0.473 Y-.51 E4.07112
G1 X0.538 Y-.441 E4.07587
G1 X0.598 Y-.357 E4.08105
G1 X0.636 Y-.283 E4.08522
G1 X0.67 Y-.186 E4.09038
G1 X0.69 Y-0.092 E4.0952
G1 X0.696 Y0.00 E4.09982
G1 X0.69 Y0.092 E4.10445
G1 X0.67 Y0.186 E4.10927
G1 X0.636 Y0.283 E4.11442
G1 X0.598 Y0.357 E4.1186
G1 X0.538 Y0.441 E4.12378
G1 X0.473 Y0.51 E4.12853
G1 X0.403 Y0.567 E4.13306
G1 X0.318 Y0.619 E4.13806
G1 X0.232 Y0.656 E4.14275
G1 X0.146 Y0.68 E4.14723
G1 X0.046 Y0.694 E4.1523
G1 X-0.046 Y0.694 E4.15691
G1 X-.146 Y0.68 E4.16198
G1 X-.232 Y0.656 E4.16646
G1 X-.318 Y0.619 E4.17115
G1 X-.403 Y0.567 E4.17615
G1 X-.473 Y0.51 E4.18068
G1 X-.538 Y0.441 E4.18543
G1 X-.598 Y0.357 E4.19061
G1 X-.636 Y0.283 E4.19478
G1 X-.67 Y0.186 E4.19994
G1 X-.69 Y0.092 E4.20476
G1 X-.696 Y0.00 E4.20939
G1 X-.69 Y-0.092 E4.21401
G1 X-.67 Y-.186 E4.21883
G1 X-.636 Y-.283 E4.22399
G1 X-.598 Y-.357 E4.22816
G1 X-.538 Y-.441 E4.23334
G1 X-.473 Y-.51 E4.23809
G1 X-.403 Y-.567 E4.24262
G1 X-.318 Y-.619 E4.24762
G1 X-.232 Y-.656 E4.25232
G1 X-.146 Y-.68 E4.25679
G1 X-0.046 Y-.694 E4.26186
G1 X0.046 Y-.694 E4.26647
G1 X0.146 Y-.68 E4.27154
G0 F1200 X0.35 Y-1.662
G1 F300 X0.564 Y-1.602 E4.28269
G1 X0.785 Y-1.506 E4.29477
G1 X0.98 Y-1.387 E4.30623
G1 X1.156 Y-1.244 E4.31761
G1 X1.317 Y-1.071 E4.32946
G1 X1.453 Y-.88 E4.34122
G1 X1.557 Y-.678 E4.35262
G1 X1.635 Y-.458 E4.36433
G1 X1.683 Y-.229 E4.37607
G1 X1.698 Y0.00 E4.38758
G1 X1.683 Y0.229 E4.39909
G1 X1.635 Y0.458 E4.41083
G1 X1.557 Y0.678 E4.42253
G1 X1.453 Y0.88 E4.43393
G1 X1.317 Y1.071 E4.44569
G1 X1.156 Y1.244 E4.45755
G1 X0.98 Y1.387 E4.46892
G1 X0.785 Y1.506 E4.48038
G1 X0.564 Y1.602 E4.49247
G1 X0.35 Y1.662 E4.50362
G1 X0.114 Y1.694 E4.51556
G1 X-.114 Y1.694 E4.527
G1 X-.35 Y1.662 E4.53895
G1 X-.564 Y1.602 E4.55009
G1 X-.785 Y1.506 E4.56218
G1 X-.98 Y1.387 E4.57364
G1 X-1.156 Y1.244 E4.58501
G1 X-1.317 Y1.071 E4.59687
G1 X-1.453 Y0.88 E4.60863
G1 X-1.557 Y0.678 E4.62003
G1 X-1.635 Y0.458 E4.63174
G1 X-1.683 Y0.229 E4.64347
G1 X-1.698 Y0.00 E4.65498
G1 X-1.683 Y-.229 E4.6665
G1 X-1.635 Y-.458 E4.67823
G1 X-1.557 Y-.678 E4.68994
G1 X-1.453 Y-.88 E4.70134
G1 X-1.317 Y-1.071 E4.7131
G1 X-1.156 Y-1.244 E4.72495
G1 X-.98 Y-1.387 E4.73633
G1 X-.785 Y-1.506 E4.74779
G1 X-.564 Y-1.602 E4.75987
G1 X-.35 Y-1.662 E4.77102
G1 X-.114 Y-1.694 E4.78297
G1 X0.114 Y-1.694 E4.79441
G1 X0.35 Y-1.662 E4.80635
;MESH:NONMESH
G0 F1200 X0.146 Y-.68
;TIME_ELAPSED:27.327300
;LAYER:7
;MESH:cylinder_for_rect.STL
G0 X0.146 Y-.68 Z5.9
;TYPE:FILL
G1 F300 X0.232 Y-.656 E4.81083
G1 X0.318 Y-.619 E4.81553
G1 X0.403 Y-.567 E4.82053
G1 X0.473 Y-.51 E4.82505
G1 X0.538 Y-.441 E4.82981
G1 X0.598 Y-.357 E4.83499
G1 X0.636 Y-.283 E4.83916
G1 X0.67 Y-.186 E4.84432
G1 X0.69 Y-0.092 E4.84914
G1 X0.696 Y0.00 E4.85376
G1 X0.69 Y0.092 E4.85839
G1 X0.67 Y0.186 E4.86321
G1 X0.636 Y0.283 E4.86836
G1 X0.598 Y0.357 E4.87254
G1 X0.538 Y0.441 E4.87771
G1 X0.473 Y0.51 E4.88247
G1 X0.403 Y0.567 E4.887
G1 X0.318 Y0.619 E4.89199
G1 X0.232 Y0.656 E4.89669
G1 X0.146 Y0.68 E4.90117
G1 X0.046 Y0.694 E4.90623
G1 X-0.046 Y0.694 E4.91085
G1 X-.146 Y0.68 E4.91591
G1 X-.232 Y0.656 E4.92039
G1 X-.318 Y0.619 E4.92509
G1 X-.403 Y0.567 E4.93009
G1 X-.473 Y0.51 E4.93462
G1 X-.538 Y0.441 E4.93937
G1 X-.598 Y0.357 E4.94455
G1 X-.636 Y0.283 E4.94872
G1 X-.67 Y0.186 E4.95388
G1 X-.69 Y0.092 E4.9587
G1 X-.696 Y0.00 E4.96332
G1 X-.69 Y-0.092 E4.96795
G1 X-.67 Y-.186 E4.97277
G1 X-.636 Y-.283 E4.97792
G1 X-.598 Y-.357 E4.9821
G1 X-.538 Y-.441 E4.98728
G1 X-.473 Y-.51 E4.99203
G1 X-.403 Y-.567 E4.99656
G1 X-.318 Y-.619 E5.00156
G1 X-.232 Y-.656 E5.00625
G1 X-.146 Y-.68 E5.01073
G1 X-0.046 Y-.694 E5.0158
G1 X0.046 Y-.694 E5.02041
G1 X0.146 Y-.68 E5.02548
G0 F1200 X0.35 Y-1.662
G1 F300 X0.564 Y-1.602 E5.03663
G1 X0.785 Y-1.506 E5.04871
G1 X0.98 Y-1.387 E5.06017
G1 X1.156 Y-1.244 E5.07155
G1 X1.317 Y-1.071 E5.0834
G1 X1.453 Y-.88 E5.09516
G1 X1.557 Y-.678 E5.10656
G1 X1.635 Y-.458 E5.11827
G1 X1.683 Y-.229 E5.13
G1 X1.698 Y0.00 E5.14152
G1 X1.683 Y0.229 E5.15303
G1 X1.635 Y0.458 E5.16476
G1 X1.557 Y0.678 E5.17647
G1 X1.453 Y0.88 E5.18787
G1 X1.317 Y1.071 E5.19963
G1 X1.156 Y1.244 E5.21148
G1 X0.98 Y1.387 E5.22286
G1 X0.785 Y1.506 E5.23432
G1 X0.564 Y1.602 E5.24641
G1 X0.35 Y1.662 E5.25755
G1 X0.114 Y1.694 E5.2695
G1 X-.114 Y1.694 E5.28094
G1 X-.35 Y1.662 E5.29288
G1 X-.564 Y1.602 E5.30403
G1 X-.785 Y1.506 E5.31612
G1 X-.98 Y1.387 E5.32758
G1 X-1.156 Y1.244 E5.33895
G1 X-1.317 Y1.071 E5.35081
G1 X-1.453 Y0.88 E5.36257
G1 X-1.557 Y0.678 E5.37397
G1 X-1.635 Y0.458 E5.38567
G1 X-1.683 Y0.229 E5.39741
G1 X-1.698 Y0.00 E5.40892
G1 X-1.683 Y-.229 E5.42043
G1 X-1.635 Y-.458 E5.43217
G1 X-1.557 Y-.678 E5.44388
G1 X-1.453 Y-.88 E5.45528
G1 X-1.317 Y-1.071 E5.46704
G1 X-1.156 Y-1.244 E5.47889
G1 X-.98 Y-1.387 E5.49027
G1 X-.785 Y-1.506 E5.50173
G1 X-.564 Y-1.602 E5.51381
G1 X-.35 Y-1.662 E5.52496
G1 X-.114 Y-1.694 E5.53691
G1 X0.114 Y-1.694 E5.54834
G1 X0.35 Y-1.662 E5.56029
;MESH:NONMESH
G0 F1200 X0.146 Y-.68
;TIME_ELAPSED:30.645118
;LAYER:8
;MESH:cylinder_for_rect.STL
G0 X0.146 Y-.68 Z6.7
;TYPE:FILL
G1 F300 X0.232 Y-.656 E5.56477
G1 X0.318 Y-.619 E5.56947
G1 X0.403 Y-.567 E5.57446
G1 X0.473 Y-.51 E5.57899
G1 X0.538 Y-.441 E5.58375
G1 X0.598 Y-.357 E5.58892
G1 X0.636 Y-.283 E5.5931
G1 X0.67 Y-.186 E5.59825
G1 X0.69 Y-0.092 E5.60307
G1 X0.696 Y0.00 E5.6077
G1 X0.69 Y0.092 E5.61232
G1 X0.67 Y0.186 E5.61714
G1 X0.636 Y0.283 E5.6223
G1 X0.598 Y0.357 E5.62647
G1 X0.538 Y0.441 E5.63165
G1 X0.473 Y0.51 E5.63641
G1 X0.403 Y0.567 E5.64093
G1 X0.318 Y0.619 E5.64593
G1 X0.232 Y0.656 E5.65063
G1 X0.146 Y0.68 E5.65511
G1 X0.046 Y0.694 E5.66017
G1 X-0.046 Y0.694 E5.66479
G1 X-.146 Y0.68 E5.66985
G1 X-.232 Y0.656 E5.67433
G1 X-.318 Y0.619 E5.67903
G1 X-.403 Y0.567 E5.68403
G1 X-.473 Y0.51 E5.68855
G1 X-.538 Y0.441 E5.69331
G1 X-.598 Y0.357 E5.69849
G1 X-.636 Y0.283 E5.70266
G1 X-.67 Y0.186 E5.70782
G1 X-.69 Y0.092 E5.71264
G1 X-.696 Y0.00 E5.71726
G1 X-.69 Y-0.092 E5.72189
G1 X-.67 Y-.186 E5.72671
G1 X-.636 Y-.283 E5.73186
G1 X-.598 Y-.357 E5.73603
G1 X-.538 Y-.441 E5.74121
G1 X-.473 Y-.51 E5.74597
G1 X-.403 Y-.567 E5.7505
G1 X-.318 Y-.619 E5.75549
G1 X-.232 Y-.656 E5.76019
G1 X-.146 Y-.68 E5.76467
G1 X-0.046 Y-.694 E5.76973
G1 X0.046 Y-.694 E5.77435
G1 X0.146 Y-.68 E5.77941
G0 F1200 X0.35 Y-1.662
G1 F300 X0.564 Y-1.602 E5.79056
G1 X0.785 Y-1.506 E5.80265
G1 X0.98 Y-1.387 E5.81411
G1 X1.156 Y-1.244 E5.82548
G1 X1.317 Y-1.071 E5.83734
G1 X1.453 Y-.88 E5.8491
G1 X1.557 Y-.678 E5.8605
G1 X1.635 Y-.458 E5.8722
G1 X1.683 Y-.229 E5.88394
G1 X1.698 Y0.00 E5.89545
G1 X1.683 Y0.229 E5.90696
G1 X1.635 Y0.458 E5.9187
G1 X1.557 Y0.678 E5.93041
G1 X1.453 Y0.88 E5.94181
G1 X1.317 Y1.071 E5.95357
G1 X1.156 Y1.244 E5.96542
G1 X0.98 Y1.387 E5.9768
G1 X0.785 Y1.506 E5.98826
G1 X0.564 Y1.602 E6.00034
G1 X0.35 Y1.662 E6.01149
G1 X0.114 Y1.694 E6.02344
G1 X-.114 Y1.694 E6.03487
G1 X-.35 Y1.662 E6.04682
G1 X-.564 Y1.602 E6.05797
G1 X-.785 Y1.506 E6.07006
G1 X-.98 Y1.387 E6.08151
G1 X-1.156 Y1.244 E6.09289
G1 X-1.317 Y1.071 E6.10474
G1 X-1.453 Y0.88 E6.11651
G1 X-1.557 Y0.678 E6.1279
G1 X-1.635 Y0.458 E6.13961
G1 X-1.683 Y0.229 E6.15135
G1 X-1.698 Y0.00 E6.16286
G1 X-1.683 Y-.229 E6.17437
G1 X-1.635 Y-.458 E6.18611
G1 X-1.557 Y-.678 E6.19782
G1 X-1.453 Y-.88 E6.20921
G1 X-1.317 Y-1.071 E6.22097
G1 X-1.156 Y-1.244 E6.23283
G1 X-.98 Y-1.387 E6.2442
G1 X-.785 Y-1.506 E6.25566
G1 X-.564 Y-1.602 E6.26775
G1 X-.35 Y-1.662 E6.2789
G1 X-.114 Y-1.694 E6.29084
G1 X0.114 Y-1.694 E6.30228
G1 X0.35 Y-1.662 E6.31423
;MESH:NONMESH
G0 F1200 X0.146 Y-.68
;TIME_ELAPSED:33.962935
;LAYER:9
;MESH:cylinder_for_rect.STL
G0 X0.146 Y-.68 Z7.5
;TYPE:FILL
G1 F300 X0.232 Y-.656 E6.31871
G1 X0.318 Y-.619 E6.3234
G1 X0.403 Y-.567 E6.3284
G1 X0.473 Y-.51 E6.33293
G1 X0.538 Y-.441 E6.33768
G1 X0.598 Y-.357 E6.34286
G1 X0.636 Y-.283 E6.34703
G1 X0.67 Y-.186 E6.35219
G1 X0.69 Y-0.092 E6.35701
G1 X0.696 Y0.00 E6.36164
G1 X0.69 Y0.092 E6.36626
G1 X0.67 Y0.186 E6.37108
G1 X0.636 Y0.283 E6.37624
G1 X0.598 Y0.357 E6.38041
G1 X0.538 Y0.441 E6.38559
G1 X0.473 Y0.51 E6.39034
G1 X0.403 Y0.567 E6.39487
G1 X0.318 Y0.619 E6.39987
G1 X0.232 Y0.656 E6.40457
G1 X0.146 Y0.68 E6.40904
G1 X0.046 Y0.694 E6.41411
G1 X-0.046 Y0.694 E6.41872
G1 X-.146 Y0.68 E6.42379
G1 X-.232 Y0.656 E6.42827
G1 X-.318 Y0.619 E6.43296
G1 X-.403 Y0.567 E6.43796
G1 X-.473 Y0.51 E6.44249
G1 X-.538 Y0.441 E6.44725
G1 X-.598 Y0.357 E6.45242
G1 X-.636 Y0.283 E6.4566
G1 X-.67 Y0.186 E6.46175
G1 X-.69 Y0.092 E6.46657
G1 X-.696 Y0.00 E6.4712
G1 X-.69 Y-0.092 E6.47582
G1 X-.67 Y-.186 E6.48064
G1 X-.636 Y-.283 E6.4858
G1 X-.598 Y-.357 E6.48997
G1 X-.538 Y-.441 E6.49515
G1 X-.473 Y-.51 E6.49991
G1 X-.403 Y-.567 E6.50443
G1 X-.318 Y-.619 E6.50943
G1 X-.232 Y-.656 E6.51413
G1 X-.146 Y-.68 E6.51861
G1 X-0.046 Y-.694 E6.52367
G1 X0.046 Y-.694 E6.52829
G1 X0.146 Y-.68 E6.53335
G0 F1200 X0.35 Y-1.662
G1 F300 X0.564 Y-1.602 E6.5445
G1 X0.785 Y-1.506 E6.55659
G1 X0.98 Y-1.387 E6.56805
G1 X1.156 Y-1.244 E6.57942
G1 X1.317 Y-1.071 E6.59128
G1 X1.453 Y-.88 E6.60304
G1 X1.557 Y-.678 E6.61443
G1 X1.635 Y-.458 E6.62614
G1 X1.683 Y-.229 E6.63788
G1 X1.698 Y0.00 E6.64939
G1 X1.683 Y0.229 E6.6609
G1 X1.635 Y0.458 E6.67264
G1 X1.557 Y0.678 E6.68435
G1 X1.453 Y0.88 E6.69574
G1 X1.317 Y1.071 E6.70751
G1 X1.156 Y1.244 E6.71936
G1 X0.98 Y1.387 E6.73074
G1 X0.785 Y1.506 E6.74219
G1 X0.564 Y1.602 E6.75428
G1 X0.35 Y1.662 E6.76543
G1 X0.114 Y1.694 E6.77738
G1 X-.114 Y1.694 E6.78881
G1 X-.35 Y1.662 E6.80076
G1 X-.564 Y1.602 E6.81191
G1 X-.785 Y1.506 E6.82399
G1 X-.98 Y1.387 E6.83545
G1 X-1.156 Y1.244 E6.84683
G1 X-1.317 Y1.071 E6.85868
G1 X-1.453 Y0.88 E6.87044
G1 X-1.557 Y0.678 E6.88184
G1 X-1.635 Y0.458 E6.89355
G1 X-1.683 Y0.229 E6.90529
G1 X-1.698 Y0.00 E6.9168
G1 X-1.683 Y-.229 E6.92831
G1 X-1.635 Y-.458 E6.94005
G1 X-1.557 Y-.678 E6.95175
G1 X-1.453 Y-.88 E6.96315
G1 X-1.317 Y-1.071 E6.97491
G1 X-1.156 Y-1.244 E6.98677
G1 X-.98 Y-1.387 E6.99814
G1 X-.785 Y-1.506 E7.0096
G1 X-.564 Y-1.602 E7.02169
G1 X-.35 Y-1.662 E7.03284
G1 X-.114 Y-1.694 E7.04478
G1 X0.114 Y-1.694 E7.05622
G1 X0.35 Y-1.662 E7.06817
;MESH:NONMESH
G0 F1200 X0.146 Y-.68
;TIME_ELAPSED:37.280753
;LAYER:10
;MESH:cylinder_for_rect.STL
G0 X0.146 Y-.68 Z8.3
;TYPE:FILL
G1 F300 X0.232 Y-.656 E7.07264
G1 X0.318 Y-.619 E7.07734
G1 X0.403 Y-.567 E7.08234
G1 X0.473 Y-.51 E7.08687
G1 X0.538 Y-.441 E7.09162
G1 X0.598 Y-.357 E7.0968
G1 X0.636 Y-.283 E7.10097
G1 X0.67 Y-.186 E7.10613
G1 X0.69 Y-0.092 E7.11095
G1 X0.696 Y0.00 E7.11557
G1 X0.69 Y0.092 E7.1202
G1 X0.67 Y0.186 E7.12502
G1 X0.636 Y0.283 E7.13018
G1 X0.598 Y0.357 E7.13435
G1 X0.538 Y0.441 E7.13953
G1 X0.473 Y0.51 E7.14428
G1 X0.403 Y0.567 E7.14881
G1 X0.318 Y0.619 E7.15381
G1 X0.232 Y0.656 E7.1585
G1 X0.146 Y0.68 E7.16298
G1 X0.046 Y0.694 E7.16805
G1 X-0.046 Y0.694 E7.17266
G1 X-.146 Y0.68 E7.17773
G1 X-.232 Y0.656 E7.18221
G1 X-.318 Y0.619 E7.1869
G1 X-.403 Y0.567 E7.1919
G1 X-.473 Y0.51 E7.19643
G1 X-.538 Y0.441 E7.20118
G1 X-.598 Y0.357 E7.20636
G1 X-.636 Y0.283 E7.21053
G1 X-.67 Y0.186 E7.21569
G1 X-.69 Y0.092 E7.22051
G1 X-.696 Y0.00 E7.22514
G1 X-.69 Y-0.092 E7.22976
G1 X-.67 Y-.186 E7.23458
G1 X-.636 Y-.283 E7.23974
G1 X-.598 Y-.357 E7.24391
G1 X-.538 Y-.441 E7.24909
G1 X-.473 Y-.51 E7.25384
G1 X-.403 Y-.567 E7.25837
G1 X-.318 Y-.619 E7.26337
G1 X-.232 Y-.656 E7.26807
G1 X-.146 Y-.68 E7.27254
G1 X-0.046 Y-.694 E7.27761
G1 X0.046 Y-.694 E7.28222
G1 X0.146 Y-.68 E7.28729
G0 F1200 X0.35 Y-1.662
G1 F300 X0.564 Y-1.602 E7.29844
G1 X0.785 Y-1.506 E7.31052
G1 X0.98 Y-1.387 E7.32198
G1 X1.156 Y-1.244 E7.33336
G1 X1.317 Y-1.071 E7.34521
G1 X1.453 Y-.88 E7.35697
G1 X1.557 Y-.678 E7.36837
G1 X1.635 Y-.458 E7.38008
G1 X1.683 Y-.229 E7.39182
G1 X1.698 Y0.00 E7.40333
G1 X1.683 Y0.229 E7.41484
G1 X1.635 Y0.458 E7.42658
G1 X1.557 Y0.678 E7.43828
G1 X1.453 Y0.88 E7.44968
G1 X1.317 Y1.071 E7.46144
G1 X1.156 Y1.244 E7.4733
G1 X0.98 Y1.387 E7.48467
G1 X0.785 Y1.506 E7.49613
G1 X0.564 Y1.602 E7.50822
G1 X0.35 Y1.662 E7.51937
G1 X0.114 Y1.694 E7.53131
G1 X-.114 Y1.694 E7.54275
G1 X-.35 Y1.662 E7.5547
G1 X-.564 Y1.602 E7.56584
G1 X-.785 Y1.506 E7.57793
G1 X-.98 Y1.387 E7.58939
G1 X-1.156 Y1.244 E7.60077
G1 X-1.317 Y1.071 E7.61262
G1 X-1.453 Y0.88 E7.62438
G1 X-1.557 Y0.678 E7.63578
G1 X-1.635 Y0.458 E7.64749
G1 X-1.683 Y0.229 E7.65922
G1 X-1.698 Y0.00 E7.67073
G1 X-1.683 Y-.229 E7.68225
G1 X-1.635 Y-.458 E7.69398
G1 X-1.557 Y-.678 E7.70569
G1 X-1.453 Y-.88 E7.71709
G1 X-1.317 Y-1.071 E7.72885
G1 X-1.156 Y-1.244 E7.7407
G1 X-.98 Y-1.387 E7.75208
G1 X-.785 Y-1.506 E7.76354
G1 X-.564 Y-1.602 E7.77562
G1 X-.35 Y-1.662 E7.78677
G1 X-.114 Y-1.694 E7.79872
G1 X0.114 Y-1.694 E7.81016
G1 X0.35 Y-1.662 E7.8221
;MESH:NONMESH
G0 F1200 X0.146 Y-.68
;TIME_ELAPSED:40.598571
;LAYER:11
;MESH:cylinder_for_rect.STL
G0 X0.146 Y-.68 Z9.1
;TYPE:FILL
G1 F300 X0.232 Y-.656 E7.82658
G1 X0.318 Y-.619 E7.83128
G1 X0.403 Y-.567 E7.83628
G1 X0.473 Y-.51 E7.8408
G1 X0.538 Y-.441 E7.84556
G1 X0.598 Y-.357 E7.85074
G1 X0.636 Y-.283 E7.85491
G1 X0.67 Y-.186 E7.86007
G1 X0.69 Y-0.092 E7.86489
G1 X0.696 Y0.00 E7.86951
G1 X0.69 Y0.092 E7.87414
G1 X0.67 Y0.186 E7.87896
G1 X0.636 Y0.283 E7.88411
G1 X0.598 Y0.357 E7.88829
G1 X0.538 Y0.441 E7.89346
G1 X0.473 Y0.51 E7.89822
G1 X0.403 Y0.567 E7.90275
G1 X0.318 Y0.619 E7.90775
G1 X0.232 Y0.656 E7.91244
G1 X0.146 Y0.68 E7.91692
G1 X0.046 Y0.694 E7.92199
G1 X-0.046 Y0.694 E7.9266
G1 X-.146 Y0.68 E7.93167
G1 X-.232 Y0.656 E7.93614
G1 X-.318 Y0.619 E7.94084
G1 X-.403 Y0.567 E7.94584
G1 X-.473 Y0.51 E7.95037
G1 X-.538 Y0.441 E7.95512
G1 X-.598 Y0.357 E7.9603
G1 X-.636 Y0.283 E7.96447
G1 X-.67 Y0.186 E7.96963
G1 X-.69 Y0.092 E7.97445
G1 X-.696 Y0.00 E7.97907
G1 X-.69 Y-0.092 E7.9837
G1 X-.67 Y-.186 E7.98852
G1 X-.636 Y-.283 E7.99367
G1 X-.598 Y-.357 E7.99785
G1 X-.538 Y-.441 E8.00303
G1 X-.473 Y-.51 E8.00778
G1 X-.403 Y-.567 E8.01231
G1 X-.318 Y-.619 E8.01731
G1 X-.232 Y-.656 E8.022
G1 X-.146 Y-.68 E8.02648
G1 X-0.046 Y-.694 E8.03155
G1 X0.046 Y-.694 E8.03616
G1 X0.146 Y-.68 E8.04123
G0 F1200 X0.35 Y-1.662
G1 F300 X0.564 Y-1.602 E8.05238
G1 X0.785 Y-1.506 E8.06446
G1 X0.98 Y-1.387 E8.07592
G1 X1.156 Y-1.244 E8.0873
G1 X1.317 Y-1.071 E8.09915
G1 X1.453 Y-.88 E8.11091
G1 X1.557 Y-.678 E8.12231
G1 X1.635 Y-.458 E8.13402
G1 X1.683 Y-.229 E8.14575
G1 X1.698 Y0.00 E8.15727
G1 X1.683 Y0.229 E8.16878
G1 X1.635 Y0.458 E8.18051
G1 X1.557 Y0.678 E8.19222
G1 X1.453 Y0.88 E8.20362
G1 X1.317 Y1.071 E8.21538
G1 X1.156 Y1.244 E8.22724
G1 X0.98 Y1.387 E8.23861
G1 X0.785 Y1.506 E8.25007
G1 X0.564 Y1.602 E8.26216
G1 X0.35 Y1.662 E8.2733
G1 X0.114 Y1.694 E8.28525
G1 X-.114 Y1.694 E8.29669
G1 X-.35 Y1.662 E8.30863
G1 X-.564 Y1.602 E8.31978
G1 X-.785 Y1.506 E8.33187
G1 X-.98 Y1.387 E8.34333
G1 X-1.156 Y1.244 E8.3547
G1 X-1.317 Y1.071 E8.36656
G1 X-1.453 Y0.88 E8.37832
G1 X-1.557 Y0.678 E8.38972
G1 X-1.635 Y0.458 E8.40142
G1 X-1.683 Y0.229 E8.41316
G1 X-1.698 Y0.00 E8.42467
G1 X-1.683 Y-.229 E8.43618
G1 X-1.635 Y-.458 E8.44792
G1 X-1.557 Y-.678 E8.45963
G1 X-1.453 Y-.88 E8.47103
G1 X-1.317 Y-1.071 E8.48279
G1 X-1.156 Y-1.244 E8.49464
G1 X-.98 Y-1.387 E8.50602
G1 X-.785 Y-1.506 E8.51748
G1 X-.564 Y-1.602 E8.52956
G1 X-.35 Y-1.662 E8.54071
G1 X-.114 Y-1.694 E8.55266
G1 X0.114 Y-1.694 E8.56409
G1 X0.35 Y-1.662 E8.57604
;MESH:NONMESH
G0 F1200 X0.146 Y-.68
;TIME_ELAPSED:43.916389
;LAYER:12
;MESH:cylinder_for_rect.STL
G0 X0.146 Y-.68 Z9.9
;TYPE:FILL
G1 F300 X0.232 Y-.656 E8.58052
G1 X0.318 Y-.619 E8.58522
G1 X0.403 Y-.567 E8.59021
G1 X0.473 Y-.51 E8.59474
G1 X0.538 Y-.441 E8.5995
G1 X0.598 Y-.357 E8.60468
G1 X0.636 Y-.283 E8.60885
G1 X0.67 Y-.186 E8.614
G1 X0.69 Y-0.092 E8.61882
G1 X0.696 Y0.00 E8.62345
G1 X0.69 Y0.092 E8.62807
G1 X0.67 Y0.186 E8.63289
G1 X0.636 Y0.283 E8.63805
G1 X0.598 Y0.357 E8.64222
G1 X0.538 Y0.441 E8.6474
G1 X0.473 Y0.51 E8.65216
G1 X0.403 Y0.567 E8.65668
G1 X0.318 Y0.619 E8.66168
G1 X0.232 Y0.656 E8.66638
G1 X0.146 Y0.68 E8.67086
G1 X0.046 Y0.694 E8.67592
G1 X-0.046 Y0.694 E8.68054
G1 X-.146 Y0.68 E8.6856
G1 X-.232 Y0.656 E8.69008
G1 X-.318 Y0.619 E8.69478
G1 X-.403 Y0.567 E8.69978
G1 X-.473 Y0.51 E8.7043
G1 X-.538 Y0.441 E8.70906
G1 X-.598 Y0.357 E8.71424
G1 X-.636 Y0.283 E8.71841
G1 X-.67 Y0.186 E8.72357
G1 X-.69 Y0.092 E8.72839
G1 X-.696 Y0.00 E8.73301
G1 X-.69 Y-0.092 E8.73764
G1 X-.67 Y-.186 E8.74246
G1 X-.636 Y-.283 E8.74761
G1 X-.598 Y-.357 E8.75179
G1 X-.538 Y-.441 E8.75696
G1 X-.473 Y-.51 E8.76172
G1 X-.403 Y-.567 E8.76625
G1 X-.318 Y-.619 E8.77124
G1 X-.232 Y-.656 E8.77594
G1 X-.146 Y-.68 E8.78042
G1 X-0.046 Y-.694 E8.78548
G1 X0.046 Y-.694 E8.7901
G1 X0.146 Y-.68 E8.79516
G0 F1200 X0.35 Y-1.662
G1 F300 X0.564 Y-1.602 E8.80631
G1 X0.785 Y-1.506 E8.8184
G1 X0.98 Y-1.387 E8.82986
G1 X1.156 Y-1.244 E8.84123
G1 X1.317 Y-1.071 E8.85309
G1 X1.453 Y-.88 E8.86485
G1 X1.557 Y-.678 E8.87625
G1 X1.635 Y-.458 E8.88796
G1 X1.683 Y-.229 E8.89969
G1 X1.698 Y0.00 E8.9112
G1 X1.683 Y0.229 E8.92271
G1 X1.635 Y0.458 E8.93445
G1 X1.557 Y0.678 E8.94616
G1 X1.453 Y0.88 E8.95756
G1 X1.317 Y1.071 E8.96932
G1 X1.156 Y1.244 E8.98117
G1 X0.98 Y1.387 E8.99255
G1 X0.785 Y1.506 E9.00401
G1 X0.564 Y1.602 E9.01609
G1 X0.35 Y1.662 E9.02724
G1 X0.114 Y1.694 E9.03919
G1 X-.114 Y1.694 E9.05063
G1 X-.35 Y1.662 E9.06257
G1 X-.564 Y1.602 E9.07372
G1 X-.785 Y1.506 E9.08581
G1 X-.98 Y1.387 E9.09727
G1 X-1.156 Y1.244 E9.10864
G1 X-1.317 Y1.071 E9.1205
G1 X-1.453 Y0.88 E9.13226
G1 X-1.557 Y0.678 E9.14365
G1 X-1.635 Y0.458 E9.15536
G1 X-1.683 Y0.229 E9.1671
G1 X-1.698 Y0.00 E9.17861
G1 X-1.683 Y-.229 E9.19012
G1 X-1.635 Y-.458 E9.20186
G1 X-1.557 Y-.678 E9.21357
G1 X-1.453 Y-.88 E9.22496
G1 X-1.317 Y-1.071 E9.23673
G1 X-1.156 Y-1.244 E9.24858
G1 X-.98 Y-1.387 E9.25995
G1 X-.785 Y-1.506 E9.27141
G1 X-.564 Y-1.602 E9.2835
G1 X-.35 Y-1.662 E9.29465
G1 X-.114 Y-1.694 E9.3066
G1 X0.114 Y-1.694 E9.31803
G1 X0.35 Y-1.662 E9.32998
;TIME_ELAPSED:47.180777
M140 S0
M107
M104 S0 ;extruder heater off
M140 S0 ;heated bed heater off (if you have it)
G91 ;relative positioning
G1 E-1 F300  ;retract the filament a bit before lifting the nozzle, to release some of the pressure
G1 Z+0.5 E-5 X-20 Y-20 F9000 ;move Z up a bit and retract filament even more
G28 X0 Y0 ;move X/Y to min endstops, so the head is out of the way
M84 ;steppers off
G90 ;absolute positioning
M82 ;absolute extrusion mode
M104 S0
;End of Gcode
;SETTING_3 {"extruder_quality": ["[general]\\nversion = 4\\nname = Carolyn - Syr
;SETTING_3 inge\\ndefinition = fdmprinter\\n\\n[metadata]\\nquality_type = veryd
;SETTING_3 raft\\nposition = 0\\nsetting_version = 5\\ntype = quality_changes\\n
;SETTING_3 \\n[values]\\nbrim_width = 0\\ninfill_angles = [0,90]\\ninfill_line_d
;SETTING_3 istance = 1\\ninfill_pattern = concentric\\ninfill_sparse_density = 7
;SETTING_3 0\\nmaterial_flow = 100\\nretraction_enable = False\\nskirt_line_coun
;SETTING_3 t = 2\\nspeed_print = 5\\nspeed_travel = 20\\ntop_bottom_thickness = 
;SETTING_3 0.0\\nwall_thickness = 0.0\\n\\n"], "global_quality": "[general]\\nve
;SETTING_3 rsion = 4\\nname = Carolyn - Syringe\\ndefinition = fdmprinter\\n\\n[
;SETTING_3 metadata]\\nquality_type = verydraft\\nsetting_version = 5\\ntype = q
;SETTING_3 uality_changes\\n\\n[values]\\nadhesion_type = none\\nlayer_height = 
;SETTING_3 0.8\\nmaterial_bed_temperature = 0\\nsupport_enable = False\\n\\n"}
