;FLAVOR:Marlin
;TIME:85
;Filament used: 0.00746398m
;Layer height: 0.4
;Generated with Cura_SteamEngine 3.6.0
M104 S200
M105
M109 S200
M82 ;absolute extrusion mode
G21 ;metric values
G90 ;absolute positioning
M82 ;set extruder to absolute mode
M107 ;start with the fan off
G28 ;move XYZ to min endstops
G1 Z15.0 F9000 ;move the platform down 15mm
G1 F9000
;Put printing message on LCD screen
M117 Printing...
G92 E0
;LAYER_COUNT:26
;LAYER:0
M107
;MESH:cylinder_for_rect.STL
G0 F600 X0.146 Y-.68 Z0.3
;TYPE:FILL
G1 F150 X0.232 Y-.656 E0.00134
G1 X0.318 Y-.619 E0.00275
G1 X0.403 Y-.567 E0.00425
G1 X0.473 Y-.51 E0.00561
G1 X0.538 Y-.441 E0.00704
G1 X0.598 Y-.357 E0.00859
G1 X0.636 Y-.283 E0.00984
G1 X0.67 Y-.186 E0.01139
G1 X0.69 Y-0.092 E0.01284
G1 X0.696 Y0.00 E0.01422
G1 X0.69 Y0.092 E0.01561
G1 X0.67 Y0.186 E0.01706
G1 X0.636 Y0.283 E0.0186
G1 X0.598 Y0.357 E0.01985
G1 X0.538 Y0.441 E0.02141
G1 X0.473 Y0.51 E0.02283
G1 X0.403 Y0.567 E0.02419
G1 X0.318 Y0.619 E0.02569
G1 X0.232 Y0.656 E0.0271
G1 X0.146 Y0.68 E0.02845
G1 X0.046 Y0.694 E0.02996
G1 X-0.046 Y0.694 E0.03135
G1 X-.146 Y0.68 E0.03287
G1 X-.232 Y0.656 E0.03421
G1 X-.318 Y0.619 E0.03562
G1 X-.403 Y0.567 E0.03712
G1 X-.473 Y0.51 E0.03848
G1 X-.538 Y0.441 E0.03991
G1 X-.598 Y0.357 E0.04146
G1 X-.636 Y0.283 E0.04271
G1 X-.67 Y0.186 E0.04426
G1 X-.69 Y0.092 E0.0457
G1 X-.696 Y0.00 E0.04709
G1 X-.69 Y-0.092 E0.04848
G1 X-.67 Y-.186 E0.04992
G1 X-.636 Y-.283 E0.05147
G1 X-.598 Y-.357 E0.05272
G1 X-.538 Y-.441 E0.05428
G1 X-.473 Y-.51 E0.0557
G1 X-.403 Y-.567 E0.05706
G1 X-.318 Y-.619 E0.05856
G1 X-.232 Y-.656 E0.05997
G1 X-.146 Y-.68 E0.06131
G1 X-0.046 Y-.694 E0.06283
G1 X0.046 Y-.694 E0.06422
G1 X0.146 Y-.68 E0.06574
G0 F600 X0.35 Y-1.662
G1 F150 X0.564 Y-1.602 E0.06908
G1 X0.785 Y-1.506 E0.07271
G1 X0.98 Y-1.387 E0.07615
G1 X1.156 Y-1.244 E0.07956
G1 X1.317 Y-1.071 E0.08311
G1 X1.453 Y-.88 E0.08664
G1 X1.557 Y-.678 E0.09006
G1 X1.635 Y-.458 E0.09357
G1 X1.683 Y-.229 E0.0971
G1 X1.698 Y0.00 E0.10055
G1 X1.683 Y0.229 E0.104
G1 X1.635 Y0.458 E0.10752
G1 X1.557 Y0.678 E0.11104
G1 X1.453 Y0.88 E0.11445
G1 X1.317 Y1.071 E0.11798
G1 X1.156 Y1.244 E0.12154
G1 X0.98 Y1.387 E0.12495
G1 X0.785 Y1.506 E0.12839
G1 X0.564 Y1.602 E0.13202
G1 X0.35 Y1.662 E0.13536
G1 X0.114 Y1.694 E0.13894
G1 X-.114 Y1.694 E0.14238
G1 X-.35 Y1.662 E0.14596
G1 X-.564 Y1.602 E0.1493
G1 X-.785 Y1.506 E0.15293
G1 X-.98 Y1.387 E0.15637
G1 X-1.156 Y1.244 E0.15978
G1 X-1.317 Y1.071 E0.16334
G1 X-1.453 Y0.88 E0.16686
G1 X-1.557 Y0.678 E0.17028
G1 X-1.635 Y0.458 E0.1738
G1 X-1.683 Y0.229 E0.17732
G1 X-1.698 Y0.00 E0.18077
G1 X-1.683 Y-.229 E0.18422
G1 X-1.635 Y-.458 E0.18775
G1 X-1.557 Y-.678 E0.19126
G1 X-1.453 Y-.88 E0.19468
G1 X-1.317 Y-1.071 E0.19821
G1 X-1.156 Y-1.244 E0.20176
G1 X-.98 Y-1.387 E0.20517
G1 X-.785 Y-1.506 E0.20861
G1 X-.564 Y-1.602 E0.21224
G1 X-.35 Y-1.662 E0.21558
G1 X-.114 Y-1.694 E0.21917
G1 X0.114 Y-1.694 E0.2226
G1 X0.35 Y-1.662 E0.22618
;MESH:NONMESH
G0 F600 X0.146 Y-.68
;TIME_ELAPSED:6.385873
;LAYER:1
M106 S255
;MESH:cylinder_for_rect.STL
G0 F900 X0.146 Y-.68 Z0.7
;TYPE:FILL
G1 F225 X0.232 Y-.656 E0.22797
G1 X0.318 Y-.619 E0.22985
G1 X0.403 Y-.567 E0.23185
G1 X0.473 Y-.51 E0.23366
G1 X0.538 Y-.441 E0.23556
G1 X0.598 Y-.357 E0.23764
G1 X0.636 Y-.283 E0.2393
G1 X0.67 Y-.186 E0.24137
G1 X0.69 Y-0.092 E0.24329
G1 X0.696 Y0.00 E0.24514
G1 X0.69 Y0.092 E0.24699
G1 X0.67 Y0.186 E0.24892
G1 X0.636 Y0.283 E0.25099
G1 X0.598 Y0.357 E0.25265
G1 X0.538 Y0.441 E0.25473
G1 X0.473 Y0.51 E0.25663
G1 X0.403 Y0.567 E0.25844
G1 X0.318 Y0.619 E0.26044
G1 X0.232 Y0.656 E0.26232
G1 X0.146 Y0.68 E0.26411
G1 X0.046 Y0.694 E0.26613
G1 X-0.046 Y0.694 E0.26798
G1 X-.146 Y0.68 E0.27001
G1 X-.232 Y0.656 E0.2718
G1 X-.318 Y0.619 E0.27368
G1 X-.403 Y0.567 E0.27568
G1 X-.473 Y0.51 E0.27749
G1 X-.538 Y0.441 E0.27939
G1 X-.598 Y0.357 E0.28146
G1 X-.636 Y0.283 E0.28313
G1 X-.67 Y0.186 E0.28519
G1 X-.69 Y0.092 E0.28712
G1 X-.696 Y0.00 E0.28897
G1 X-.69 Y-0.092 E0.29082
G1 X-.67 Y-.186 E0.29275
G1 X-.636 Y-.283 E0.29481
G1 X-.598 Y-.357 E0.29648
G1 X-.538 Y-.441 E0.29855
G1 X-.473 Y-.51 E0.30045
G1 X-.403 Y-.567 E0.30226
G1 X-.318 Y-.619 E0.30426
G1 X-.232 Y-.656 E0.30614
G1 X-.146 Y-.68 E0.30793
G1 X-0.046 Y-.694 E0.30996
G1 X0.046 Y-.694 E0.3118
G1 X0.146 Y-.68 E0.31383
G0 F900 X0.35 Y-1.662
G1 F225 X0.564 Y-1.602 E0.31829
G1 X0.785 Y-1.506 E0.32312
G1 X0.98 Y-1.387 E0.32771
G1 X1.156 Y-1.244 E0.33226
G1 X1.317 Y-1.071 E0.337
G1 X1.453 Y-.88 E0.3417
G1 X1.557 Y-.678 E0.34626
G1 X1.635 Y-.458 E0.35095
G1 X1.683 Y-.229 E0.35564
G1 X1.698 Y0.00 E0.36025
G1 X1.683 Y0.229 E0.36485
G1 X1.635 Y0.458 E0.36955
G1 X1.557 Y0.678 E0.37423
G1 X1.453 Y0.88 E0.37879
G1 X1.317 Y1.071 E0.38349
G1 X1.156 Y1.244 E0.38823
G1 X0.98 Y1.387 E0.39278
G1 X0.785 Y1.506 E0.39737
G1 X0.564 Y1.602 E0.4022
G1 X0.35 Y1.662 E0.40666
G1 X0.114 Y1.694 E0.41144
G1 X-.114 Y1.694 E0.41602
G1 X-.35 Y1.662 E0.42079
G1 X-.564 Y1.602 E0.42525
G1 X-.785 Y1.506 E0.43009
G1 X-.98 Y1.387 E0.43467
G1 X-1.156 Y1.244 E0.43922
G1 X-1.317 Y1.071 E0.44396
G1 X-1.453 Y0.88 E0.44867
G1 X-1.557 Y0.678 E0.45323
G1 X-1.635 Y0.458 E0.45791
G1 X-1.683 Y0.229 E0.4626
G1 X-1.698 Y0.00 E0.46721
G1 X-1.683 Y-.229 E0.47181
G1 X-1.635 Y-.458 E0.47651
G1 X-1.557 Y-.678 E0.48119
G1 X-1.453 Y-.88 E0.48575
G1 X-1.317 Y-1.071 E0.49046
G1 X-1.156 Y-1.244 E0.4952
G1 X-.98 Y-1.387 E0.49975
G1 X-.785 Y-1.506 E0.50433
G1 X-.564 Y-1.602 E0.50917
G1 X-.35 Y-1.662 E0.51362
G1 X-.114 Y-1.694 E0.5184
G1 X0.114 Y-1.694 E0.52298
G1 X0.35 Y-1.662 E0.52776
;MESH:NONMESH
G0 F900 X0.146 Y-.68
;TIME_ELAPSED:10.658212
;LAYER:2
;MESH:cylinder_for_rect.STL
G0 F1200 X0.146 Y-.68 Z1.1
;TYPE:FILL
G1 F300 X0.232 Y-.656 E0.52955
G1 X0.318 Y-.619 E0.53143
G1 X0.403 Y-.567 E0.53343
G1 X0.473 Y-.51 E0.53524
G1 X0.538 Y-.441 E0.53714
G1 X0.598 Y-.357 E0.53921
G1 X0.636 Y-.283 E0.54088
G1 X0.67 Y-.186 E0.54294
G1 X0.69 Y-0.092 E0.54487
G1 X0.696 Y0.00 E0.54672
G1 X0.69 Y0.092 E0.54857
G1 X0.67 Y0.186 E0.5505
G1 X0.636 Y0.283 E0.55256
G1 X0.598 Y0.357 E0.55423
G1 X0.538 Y0.441 E0.5563
G1 X0.473 Y0.51 E0.5582
G1 X0.403 Y0.567 E0.56001
G1 X0.318 Y0.619 E0.56201
G1 X0.232 Y0.656 E0.56389
G1 X0.146 Y0.68 E0.56568
G1 X0.046 Y0.694 E0.56771
G1 X-0.046 Y0.694 E0.56956
G1 X-.146 Y0.68 E0.57158
G1 X-.232 Y0.656 E0.57337
G1 X-.318 Y0.619 E0.57525
G1 X-.403 Y0.567 E0.57725
G1 X-.473 Y0.51 E0.57906
G1 X-.538 Y0.441 E0.58096
G1 X-.598 Y0.357 E0.58303
G1 X-.636 Y0.283 E0.5847
G1 X-.67 Y0.186 E0.58677
G1 X-.69 Y0.092 E0.58869
G1 X-.696 Y0.00 E0.59054
G1 X-.69 Y-0.092 E0.59239
G1 X-.67 Y-.186 E0.59432
G1 X-.636 Y-.283 E0.59639
G1 X-.598 Y-.357 E0.59805
G1 X-.538 Y-.441 E0.60013
G1 X-.473 Y-.51 E0.60203
G1 X-.403 Y-.567 E0.60384
G1 X-.318 Y-.619 E0.60584
G1 X-.232 Y-.656 E0.60772
G1 X-.146 Y-.68 E0.60951
G1 X-0.046 Y-.694 E0.61153
G1 X0.046 Y-.694 E0.61338
G1 X0.146 Y-.68 E0.61541
G0 F1200 X0.35 Y-1.662
G1 F300 X0.564 Y-1.602 E0.61987
G1 X0.785 Y-1.506 E0.6247
G1 X0.98 Y-1.387 E0.62928
G1 X1.156 Y-1.244 E0.63383
G1 X1.317 Y-1.071 E0.63858
G1 X1.453 Y-.88 E0.64328
G1 X1.557 Y-.678 E0.64784
G1 X1.635 Y-.458 E0.65252
G1 X1.683 Y-.229 E0.65722
G1 X1.698 Y0.00 E0.66182
G1 X1.683 Y0.229 E0.66643
G1 X1.635 Y0.458 E0.67112
G1 X1.557 Y0.678 E0.6758
G1 X1.453 Y0.88 E0.68036
G1 X1.317 Y1.071 E0.68507
G1 X1.156 Y1.244 E0.68981
G1 X0.98 Y1.387 E0.69436
G1 X0.785 Y1.506 E0.69894
G1 X0.564 Y1.602 E0.70378
G1 X0.35 Y1.662 E0.70824
G1 X0.114 Y1.694 E0.71302
G1 X-.114 Y1.694 E0.71759
G1 X-.35 Y1.662 E0.72237
G1 X-.564 Y1.602 E0.72683
G1 X-.785 Y1.506 E0.73166
G1 X-.98 Y1.387 E0.73625
G1 X-1.156 Y1.244 E0.7408
G1 X-1.317 Y1.071 E0.74554
G1 X-1.453 Y0.88 E0.75024
G1 X-1.557 Y0.678 E0.7548
G1 X-1.635 Y0.458 E0.75948
G1 X-1.683 Y0.229 E0.76418
G1 X-1.698 Y0.00 E0.76878
G1 X-1.683 Y-.229 E0.77339
G1 X-1.635 Y-.458 E0.77808
G1 X-1.557 Y-.678 E0.78277
G1 X-1.453 Y-.88 E0.78733
G1 X-1.317 Y-1.071 E0.79203
G1 X-1.156 Y-1.244 E0.79677
G1 X-.98 Y-1.387 E0.80132
G1 X-.785 Y-1.506 E0.80591
G1 X-.564 Y-1.602 E0.81074
G1 X-.35 Y-1.662 E0.8152
G1 X-.114 Y-1.694 E0.81998
G1 X0.114 Y-1.694 E0.82455
G1 X0.35 Y-1.662 E0.82933
;MESH:NONMESH
G0 F1200 X0.146 Y-.68
;TIME_ELAPSED:13.896029
;LAYER:3
;MESH:cylinder_for_rect.STL
G0 X0.146 Y-.68 Z1.5
;TYPE:FILL
G1 F300 X0.232 Y-.656 E0.83112
G1 X0.318 Y-.619 E0.833
G1 X0.403 Y-.567 E0.835
G1 X0.473 Y-.51 E0.83681
G1 X0.538 Y-.441 E0.83871
G1 X0.598 Y-.357 E0.84079
G1 X0.636 Y-.283 E0.84245
G1 X0.67 Y-.186 E0.84452
G1 X0.69 Y-0.092 E0.84644
G1 X0.696 Y0.00 E0.84829
G1 X0.69 Y0.092 E0.85014
G1 X0.67 Y0.186 E0.85207
G1 X0.636 Y0.283 E0.85414
G1 X0.598 Y0.357 E0.8558
G1 X0.538 Y0.441 E0.85788
G1 X0.473 Y0.51 E0.85978
G1 X0.403 Y0.567 E0.86159
G1 X0.318 Y0.619 E0.86359
G1 X0.232 Y0.656 E0.86547
G1 X0.146 Y0.68 E0.86726
G1 X0.046 Y0.694 E0.86928
G1 X-0.046 Y0.694 E0.87113
G1 X-.146 Y0.68 E0.87316
G1 X-.232 Y0.656 E0.87495
G1 X-.318 Y0.619 E0.87683
G1 X-.403 Y0.567 E0.87883
G1 X-.473 Y0.51 E0.88064
G1 X-.538 Y0.441 E0.88254
G1 X-.598 Y0.357 E0.88461
G1 X-.636 Y0.283 E0.88628
G1 X-.67 Y0.186 E0.88834
G1 X-.69 Y0.092 E0.89027
G1 X-.696 Y0.00 E0.89212
G1 X-.69 Y-0.092 E0.89397
G1 X-.67 Y-.186 E0.8959
G1 X-.636 Y-.283 E0.89796
G1 X-.598 Y-.357 E0.89963
G1 X-.538 Y-.441 E0.9017
G1 X-.473 Y-.51 E0.9036
G1 X-.403 Y-.567 E0.90541
G1 X-.318 Y-.619 E0.90741
G1 X-.232 Y-.656 E0.90929
G1 X-.146 Y-.68 E0.91108
G1 X-0.046 Y-.694 E0.91311
G1 X0.046 Y-.694 E0.91496
G1 X0.146 Y-.68 E0.91698
G0 F1200 X0.35 Y-1.662
G1 F300 X0.564 Y-1.602 E0.92144
G1 X0.785 Y-1.506 E0.92628
G1 X0.98 Y-1.387 E0.93086
G1 X1.156 Y-1.244 E0.93541
G1 X1.317 Y-1.071 E0.94015
G1 X1.453 Y-.88 E0.94486
G1 X1.557 Y-.678 E0.94941
G1 X1.635 Y-.458 E0.9541
G1 X1.683 Y-.229 E0.95879
G1 X1.698 Y0.00 E0.9634
G1 X1.683 Y0.229 E0.968
G1 X1.635 Y0.458 E0.9727
G1 X1.557 Y0.678 E0.97738
G1 X1.453 Y0.88 E0.98194
G1 X1.317 Y1.071 E0.98664
G1 X1.156 Y1.244 E0.99138
G1 X0.98 Y1.387 E0.99593
G1 X0.785 Y1.506 E1.00052
G1 X0.564 Y1.602 E1.00535
G1 X0.35 Y1.662 E1.00981
G1 X0.114 Y1.694 E1.01459
G1 X-.114 Y1.694 E1.01917
G1 X-.35 Y1.662 E1.02394
G1 X-.564 Y1.602 E1.0284
G1 X-.785 Y1.506 E1.03324
G1 X-.98 Y1.387 E1.03782
G1 X-1.156 Y1.244 E1.04237
G1 X-1.317 Y1.071 E1.04711
G1 X-1.453 Y0.88 E1.05182
G1 X-1.557 Y0.678 E1.05638
G1 X-1.635 Y0.458 E1.06106
G1 X-1.683 Y0.229 E1.06575
G1 X-1.698 Y0.00 E1.07036
G1 X-1.683 Y-.229 E1.07496
G1 X-1.635 Y-.458 E1.07966
G1 X-1.557 Y-.678 E1.08434
G1 X-1.453 Y-.88 E1.0889
G1 X-1.317 Y-1.071 E1.09361
G1 X-1.156 Y-1.244 E1.09835
G1 X-.98 Y-1.387 E1.1029
G1 X-.785 Y-1.506 E1.10748
G1 X-.564 Y-1.602 E1.11232
G1 X-.35 Y-1.662 E1.11677
G1 X-.114 Y-1.694 E1.12155
G1 X0.114 Y-1.694 E1.12613
G1 X0.35 Y-1.662 E1.13091
;MESH:NONMESH
G0 F1200 X0.146 Y-.68
;TIME_ELAPSED:17.133847
;LAYER:4
;MESH:cylinder_for_rect.STL
G0 X0.146 Y-.68 Z1.9
;TYPE:FILL
G1 F300 X0.232 Y-.656 E1.1327
G1 X0.318 Y-.619 E1.13458
G1 X0.403 Y-.567 E1.13658
G1 X0.473 Y-.51 E1.13839
G1 X0.538 Y-.441 E1.14029
G1 X0.598 Y-.357 E1.14236
G1 X0.636 Y-.283 E1.14403
G1 X0.67 Y-.186 E1.14609
G1 X0.69 Y-0.092 E1.14802
G1 X0.696 Y0.00 E1.14987
G1 X0.69 Y0.092 E1.15172
G1 X0.67 Y0.186 E1.15365
G1 X0.636 Y0.283 E1.15571
G1 X0.598 Y0.357 E1.15738
G1 X0.538 Y0.441 E1.15945
G1 X0.473 Y0.51 E1.16135
G1 X0.403 Y0.567 E1.16316
G1 X0.318 Y0.619 E1.16516
G1 X0.232 Y0.656 E1.16704
G1 X0.146 Y0.68 E1.16883
G1 X0.046 Y0.694 E1.17086
G1 X-0.046 Y0.694 E1.17271
G1 X-.146 Y0.68 E1.17473
G1 X-.232 Y0.656 E1.17652
G1 X-.318 Y0.619 E1.1784
G1 X-.403 Y0.567 E1.1804
G1 X-.473 Y0.51 E1.18221
G1 X-.538 Y0.441 E1.18411
G1 X-.598 Y0.357 E1.18619
G1 X-.636 Y0.283 E1.18785
G1 X-.67 Y0.186 E1.18992
G1 X-.69 Y0.092 E1.19184
G1 X-.696 Y0.00 E1.19369
G1 X-.69 Y-0.092 E1.19554
G1 X-.67 Y-.186 E1.19747
G1 X-.636 Y-.283 E1.19954
G1 X-.598 Y-.357 E1.2012
G1 X-.538 Y-.441 E1.20328
G1 X-.473 Y-.51 E1.20518
G1 X-.403 Y-.567 E1.20699
G1 X-.318 Y-.619 E1.20899
G1 X-.232 Y-.656 E1.21087
G1 X-.146 Y-.68 E1.21266
G1 X-0.046 Y-.694 E1.21468
G1 X0.046 Y-.694 E1.21653
G1 X0.146 Y-.68 E1.21856
G0 F1200 X0.35 Y-1.662
G1 F300 X0.564 Y-1.602 E1.22302
G1 X0.785 Y-1.506 E1.22785
G1 X0.98 Y-1.387 E1.23243
G1 X1.156 Y-1.244 E1.23698
G1 X1.317 Y-1.071 E1.24173
G1 X1.453 Y-.88 E1.24643
G1 X1.557 Y-.678 E1.25099
G1 X1.635 Y-.458 E1.25567
G1 X1.683 Y-.229 E1.26037
G1 X1.698 Y0.00 E1.26497
G1 X1.683 Y0.229 E1.26958
G1 X1.635 Y0.458 E1.27427
G1 X1.557 Y0.678 E1.27895
G1 X1.453 Y0.88 E1.28351
G1 X1.317 Y1.071 E1.28822
G1 X1.156 Y1.244 E1.29296
G1 X0.98 Y1.387 E1.29751
G1 X0.785 Y1.506 E1.30209
G1 X0.564 Y1.602 E1.30693
G1 X0.35 Y1.662 E1.31139
G1 X0.114 Y1.694 E1.31617
G1 X-.114 Y1.694 E1.32074
G1 X-.35 Y1.662 E1.32552
G1 X-.564 Y1.602 E1.32998
G1 X-.785 Y1.506 E1.33481
G1 X-.98 Y1.387 E1.3394
G1 X-1.156 Y1.244 E1.34395
G1 X-1.317 Y1.071 E1.34869
G1 X-1.453 Y0.88 E1.35339
G1 X-1.557 Y0.678 E1.35795
G1 X-1.635 Y0.458 E1.36263
G1 X-1.683 Y0.229 E1.36733
G1 X-1.698 Y0.00 E1.37193
G1 X-1.683 Y-.229 E1.37654
G1 X-1.635 Y-.458 E1.38123
G1 X-1.557 Y-.678 E1.38592
G1 X-1.453 Y-.88 E1.39048
G1 X-1.317 Y-1.071 E1.39518
G1 X-1.156 Y-1.244 E1.39992
G1 X-.98 Y-1.387 E1.40447
G1 X-.785 Y-1.506 E1.40906
G1 X-.564 Y-1.602 E1.41389
G1 X-.35 Y-1.662 E1.41835
G1 X-.114 Y-1.694 E1.42313
G1 X0.114 Y-1.694 E1.4277
G1 X0.35 Y-1.662 E1.43248
;MESH:NONMESH
G0 F1200 X0.146 Y-.68
;TIME_ELAPSED:20.371665
;LAYER:5
;MESH:cylinder_for_rect.STL
G0 X0.146 Y-.68 Z2.3
;TYPE:FILL
G1 F300 X0.232 Y-.656 E1.43427
G1 X0.318 Y-.619 E1.43615
G1 X0.403 Y-.567 E1.43815
G1 X0.473 Y-.51 E1.43996
G1 X0.538 Y-.441 E1.44186
G1 X0.598 Y-.357 E1.44394
G1 X0.636 Y-.283 E1.4456
G1 X0.67 Y-.186 E1.44767
G1 X0.69 Y-0.092 E1.4496
G1 X0.696 Y0.00 E1.45144
G1 X0.69 Y0.092 E1.45329
G1 X0.67 Y0.186 E1.45522
G1 X0.636 Y0.283 E1.45729
G1 X0.598 Y0.357 E1.45895
G1 X0.538 Y0.441 E1.46103
G1 X0.473 Y0.51 E1.46293
G1 X0.403 Y0.567 E1.46474
G1 X0.318 Y0.619 E1.46674
G1 X0.232 Y0.656 E1.46862
G1 X0.146 Y0.68 E1.47041
G1 X0.046 Y0.694 E1.47243
G1 X-0.046 Y0.694 E1.47428
G1 X-.146 Y0.68 E1.47631
G1 X-.232 Y0.656 E1.4781
G1 X-.318 Y0.619 E1.47998
G1 X-.403 Y0.567 E1.48198
G1 X-.473 Y0.51 E1.48379
G1 X-.538 Y0.441 E1.48569
G1 X-.598 Y0.357 E1.48776
G1 X-.636 Y0.283 E1.48943
G1 X-.67 Y0.186 E1.49149
G1 X-.69 Y0.092 E1.49342
G1 X-.696 Y0.00 E1.49527
G1 X-.69 Y-0.092 E1.49712
G1 X-.67 Y-.186 E1.49905
G1 X-.636 Y-.283 E1.50111
G1 X-.598 Y-.357 E1.50278
G1 X-.538 Y-.441 E1.50485
G1 X-.473 Y-.51 E1.50675
G1 X-.403 Y-.567 E1.50856
G1 X-.318 Y-.619 E1.51056
G1 X-.232 Y-.656 E1.51244
G1 X-.146 Y-.68 E1.51423
G1 X-0.046 Y-.694 E1.51626
G1 X0.046 Y-.694 E1.51811
G1 X0.146 Y-.68 E1.52013
G0 F1200 X0.35 Y-1.662
G1 F300 X0.564 Y-1.602 E1.52459
G1 X0.785 Y-1.506 E1.52943
G1 X0.98 Y-1.387 E1.53401
G1 X1.156 Y-1.244 E1.53856
G1 X1.317 Y-1.071 E1.5433
G1 X1.453 Y-.88 E1.54801
G1 X1.557 Y-.678 E1.55256
G1 X1.635 Y-.458 E1.55725
G1 X1.683 Y-.229 E1.56194
G1 X1.698 Y0.00 E1.56655
G1 X1.683 Y0.229 E1.57115
G1 X1.635 Y0.458 E1.57585
G1 X1.557 Y0.678 E1.58053
G1 X1.453 Y0.88 E1.58509
G1 X1.317 Y1.071 E1.58979
G1 X1.156 Y1.244 E1.59453
G1 X0.98 Y1.387 E1.59908
G1 X0.785 Y1.506 E1.60367
G1 X0.564 Y1.602 E1.6085
G1 X0.35 Y1.662 E1.61296
G1 X0.114 Y1.694 E1.61774
G1 X-.114 Y1.694 E1.62232
G1 X-.35 Y1.662 E1.62709
G1 X-.564 Y1.602 E1.63155
G1 X-.785 Y1.506 E1.63639
G1 X-.98 Y1.387 E1.64097
G1 X-1.156 Y1.244 E1.64552
G1 X-1.317 Y1.071 E1.65026
G1 X-1.453 Y0.88 E1.65497
G1 X-1.557 Y0.678 E1.65953
G1 X-1.635 Y0.458 E1.66421
G1 X-1.683 Y0.229 E1.6689
G1 X-1.698 Y0.00 E1.67351
G1 X-1.683 Y-.229 E1.67811
G1 X-1.635 Y-.458 E1.68281
G1 X-1.557 Y-.678 E1.68749
G1 X-1.453 Y-.88 E1.69205
G1 X-1.317 Y-1.071 E1.69676
G1 X-1.156 Y-1.244 E1.7015
G1 X-.98 Y-1.387 E1.70605
G1 X-.785 Y-1.506 E1.71063
G1 X-.564 Y-1.602 E1.71547
G1 X-.35 Y-1.662 E1.71992
G1 X-.114 Y-1.694 E1.7247
G1 X0.114 Y-1.694 E1.72928
G1 X0.35 Y-1.662 E1.73406
;MESH:NONMESH
G0 F1200 X0.146 Y-.68
;TIME_ELAPSED:23.609482
;LAYER:6
;MESH:cylinder_for_rect.STL
G0 X0.146 Y-.68 Z2.7
;TYPE:FILL
G1 F300 X0.232 Y-.656 E1.73585
G1 X0.318 Y-.619 E1.73773
G1 X0.403 Y-.567 E1.73973
G1 X0.473 Y-.51 E1.74154
G1 X0.538 Y-.441 E1.74344
G1 X0.598 Y-.357 E1.74551
G1 X0.636 Y-.283 E1.74718
G1 X0.67 Y-.186 E1.74924
G1 X0.69 Y-0.092 E1.75117
G1 X0.696 Y0.00 E1.75302
G1 X0.69 Y0.092 E1.75487
G1 X0.67 Y0.186 E1.7568
G1 X0.636 Y0.283 E1.75886
G1 X0.598 Y0.357 E1.76053
G1 X0.538 Y0.441 E1.7626
G1 X0.473 Y0.51 E1.7645
G1 X0.403 Y0.567 E1.76631
G1 X0.318 Y0.619 E1.76831
G1 X0.232 Y0.656 E1.77019
G1 X0.146 Y0.68 E1.77198
G1 X0.046 Y0.694 E1.77401
G1 X-0.046 Y0.694 E1.77586
G1 X-.146 Y0.68 E1.77788
G1 X-.232 Y0.656 E1.77967
G1 X-.318 Y0.619 E1.78155
G1 X-.403 Y0.567 E1.78355
G1 X-.473 Y0.51 E1.78536
G1 X-.538 Y0.441 E1.78726
G1 X-.598 Y0.357 E1.78934
G1 X-.636 Y0.283 E1.791
G1 X-.67 Y0.186 E1.79307
G1 X-.69 Y0.092 E1.79499
G1 X-.696 Y0.00 E1.79684
G1 X-.69 Y-0.092 E1.79869
G1 X-.67 Y-.186 E1.80062
G1 X-.636 Y-.283 E1.80269
G1 X-.598 Y-.357 E1.80435
G1 X-.538 Y-.441 E1.80643
G1 X-.473 Y-.51 E1.80833
G1 X-.403 Y-.567 E1.81014
G1 X-.318 Y-.619 E1.81214
G1 X-.232 Y-.656 E1.81402
G1 X-.146 Y-.68 E1.81581
G1 X-0.046 Y-.694 E1.81783
G1 X0.046 Y-.694 E1.81968
G1 X0.146 Y-.68 E1.82171
G0 F1200 X0.35 Y-1.662
G1 F300 X0.564 Y-1.602 E1.82617
G1 X0.785 Y-1.506 E1.831
G1 X0.98 Y-1.387 E1.83558
G1 X1.156 Y-1.244 E1.84013
G1 X1.317 Y-1.071 E1.84488
G1 X1.453 Y-.88 E1.84958
G1 X1.557 Y-.678 E1.85414
G1 X1.635 Y-.458 E1.85882
G1 X1.683 Y-.229 E1.86352
G1 X1.698 Y0.00 E1.86812
G1 X1.683 Y0.229 E1.87273
G1 X1.635 Y0.458 E1.87742
G1 X1.557 Y0.678 E1.8821
G1 X1.453 Y0.88 E1.88666
G1 X1.317 Y1.071 E1.89137
G1 X1.156 Y1.244 E1.89611
G1 X0.98 Y1.387 E1.90066
G1 X0.785 Y1.506 E1.90524
G1 X0.564 Y1.602 E1.91008
G1 X0.35 Y1.662 E1.91454
G1 X0.114 Y1.694 E1.91932
G1 X-.114 Y1.694 E1.92389
G1 X-.35 Y1.662 E1.92867
G1 X-.564 Y1.602 E1.93313
G1 X-.785 Y1.506 E1.93796
G1 X-.98 Y1.387 E1.94255
G1 X-1.156 Y1.244 E1.9471
G1 X-1.317 Y1.071 E1.95184
G1 X-1.453 Y0.88 E1.95654
G1 X-1.557 Y0.678 E1.9611
G1 X-1.635 Y0.458 E1.96579
G1 X-1.683 Y0.229 E1.97048
G1 X-1.698 Y0.00 E1.97508
G1 X-1.683 Y-.229 E1.97969
G1 X-1.635 Y-.458 E1.98438
G1 X-1.557 Y-.678 E1.98907
G1 X-1.453 Y-.88 E1.99363
G1 X-1.317 Y-1.071 E1.99833
G1 X-1.156 Y-1.244 E2.00307
G1 X-.98 Y-1.387 E2.00762
G1 X-.785 Y-1.506 E2.01221
G1 X-.564 Y-1.602 E2.01704
G1 X-.35 Y-1.662 E2.0215
G1 X-.114 Y-1.694 E2.02628
G1 X0.114 Y-1.694 E2.03085
G1 X0.35 Y-1.662 E2.03563
;MESH:NONMESH
G0 F1200 X0.146 Y-.68
;TIME_ELAPSED:26.847300
;LAYER:7
;MESH:cylinder_for_rect.STL
G0 X0.146 Y-.68 Z3.1
;TYPE:FILL
G1 F300 X0.232 Y-.656 E2.03742
G1 X0.318 Y-.619 E2.0393
G1 X0.403 Y-.567 E2.0413
G1 X0.473 Y-.51 E2.04311
G1 X0.538 Y-.441 E2.04501
G1 X0.598 Y-.357 E2.04709
G1 X0.636 Y-.283 E2.04875
G1 X0.67 Y-.186 E2.05082
G1 X0.69 Y-0.092 E2.05275
G1 X0.696 Y0.00 E2.0546
G1 X0.69 Y0.092 E2.05644
G1 X0.67 Y0.186 E2.05837
G1 X0.636 Y0.283 E2.06044
G1 X0.598 Y0.357 E2.0621
G1 X0.538 Y0.441 E2.06418
G1 X0.473 Y0.51 E2.06608
G1 X0.403 Y0.567 E2.06789
G1 X0.318 Y0.619 E2.06989
G1 X0.232 Y0.656 E2.07177
G1 X0.146 Y0.68 E2.07356
G1 X0.046 Y0.694 E2.07558
G1 X-0.046 Y0.694 E2.07743
G1 X-.146 Y0.68 E2.07946
G1 X-.232 Y0.656 E2.08125
G1 X-.318 Y0.619 E2.08313
G1 X-.403 Y0.567 E2.08513
G1 X-.473 Y0.51 E2.08694
G1 X-.538 Y0.441 E2.08884
G1 X-.598 Y0.357 E2.09091
G1 X-.636 Y0.283 E2.09258
G1 X-.67 Y0.186 E2.09464
G1 X-.69 Y0.092 E2.09657
G1 X-.696 Y0.00 E2.09842
G1 X-.69 Y-0.092 E2.10027
G1 X-.67 Y-.186 E2.1022
G1 X-.636 Y-.283 E2.10426
G1 X-.598 Y-.357 E2.10593
G1 X-.538 Y-.441 E2.108
G1 X-.473 Y-.51 E2.1099
G1 X-.403 Y-.567 E2.11171
G1 X-.318 Y-.619 E2.11371
G1 X-.232 Y-.656 E2.11559
G1 X-.146 Y-.68 E2.11738
G1 X-0.046 Y-.694 E2.11941
G1 X0.046 Y-.694 E2.12126
G1 X0.146 Y-.68 E2.12328
G0 F1200 X0.35 Y-1.662
G1 F300 X0.564 Y-1.602 E2.12774
G1 X0.785 Y-1.506 E2.13258
G1 X0.98 Y-1.387 E2.13716
G1 X1.156 Y-1.244 E2.14171
G1 X1.317 Y-1.071 E2.14645
G1 X1.453 Y-.88 E2.15116
G1 X1.557 Y-.678 E2.15571
G1 X1.635 Y-.458 E2.1604
G1 X1.683 Y-.229 E2.16509
G1 X1.698 Y0.00 E2.1697
G1 X1.683 Y0.229 E2.1743
G1 X1.635 Y0.458 E2.179
G1 X1.557 Y0.678 E2.18368
G1 X1.453 Y0.88 E2.18824
G1 X1.317 Y1.071 E2.19294
G1 X1.156 Y1.244 E2.19768
G1 X0.98 Y1.387 E2.20223
G1 X0.785 Y1.506 E2.20682
G1 X0.564 Y1.602 E2.21165
G1 X0.35 Y1.662 E2.21611
G1 X0.114 Y1.694 E2.22089
G1 X-.114 Y1.694 E2.22547
G1 X-.35 Y1.662 E2.23024
G1 X-.564 Y1.602 E2.2347
G1 X-.785 Y1.506 E2.23954
G1 X-.98 Y1.387 E2.24412
G1 X-1.156 Y1.244 E2.24867
G1 X-1.317 Y1.071 E2.25341
G1 X-1.453 Y0.88 E2.25812
G1 X-1.557 Y0.678 E2.26268
G1 X-1.635 Y0.458 E2.26736
G1 X-1.683 Y0.229 E2.27205
G1 X-1.698 Y0.00 E2.27666
G1 X-1.683 Y-.229 E2.28126
G1 X-1.635 Y-.458 E2.28596
G1 X-1.557 Y-.678 E2.29064
G1 X-1.453 Y-.88 E2.2952
G1 X-1.317 Y-1.071 E2.29991
G1 X-1.156 Y-1.244 E2.30465
G1 X-.98 Y-1.387 E2.3092
G1 X-.785 Y-1.506 E2.31378
G1 X-.564 Y-1.602 E2.31862
G1 X-.35 Y-1.662 E2.32307
G1 X-.114 Y-1.694 E2.32785
G1 X0.114 Y-1.694 E2.33243
G1 X0.35 Y-1.662 E2.33721
;MESH:NONMESH
G0 F1200 X0.146 Y-.68
;TIME_ELAPSED:30.085118
;LAYER:8
;MESH:cylinder_for_rect.STL
G0 X0.146 Y-.68 Z3.5
;TYPE:FILL
G1 F300 X0.232 Y-.656 E2.339
G1 X0.318 Y-.619 E2.34088
G1 X0.403 Y-.567 E2.34288
G1 X0.473 Y-.51 E2.34469
G1 X0.538 Y-.441 E2.34659
G1 X0.598 Y-.357 E2.34866
G1 X0.636 Y-.283 E2.35033
G1 X0.67 Y-.186 E2.35239
G1 X0.69 Y-0.092 E2.35432
G1 X0.696 Y0.00 E2.35617
G1 X0.69 Y0.092 E2.35802
G1 X0.67 Y0.186 E2.35995
G1 X0.636 Y0.283 E2.36201
G1 X0.598 Y0.357 E2.36368
G1 X0.538 Y0.441 E2.36575
G1 X0.473 Y0.51 E2.36765
G1 X0.403 Y0.567 E2.36946
G1 X0.318 Y0.619 E2.37146
G1 X0.232 Y0.656 E2.37334
G1 X0.146 Y0.68 E2.37513
G1 X0.046 Y0.694 E2.37716
G1 X-0.046 Y0.694 E2.37901
G1 X-.146 Y0.68 E2.38103
G1 X-.232 Y0.656 E2.38282
G1 X-.318 Y0.619 E2.3847
G1 X-.403 Y0.567 E2.3867
G1 X-.473 Y0.51 E2.38851
G1 X-.538 Y0.441 E2.39041
G1 X-.598 Y0.357 E2.39249
G1 X-.636 Y0.283 E2.39415
G1 X-.67 Y0.186 E2.39622
G1 X-.69 Y0.092 E2.39815
G1 X-.696 Y0.00 E2.39999
G1 X-.69 Y-0.092 E2.40184
G1 X-.67 Y-.186 E2.40377
G1 X-.636 Y-.283 E2.40584
G1 X-.598 Y-.357 E2.4075
G1 X-.538 Y-.441 E2.40958
G1 X-.473 Y-.51 E2.41148
G1 X-.403 Y-.567 E2.41329
G1 X-.318 Y-.619 E2.41529
G1 X-.232 Y-.656 E2.41717
G1 X-.146 Y-.68 E2.41896
G1 X-0.046 Y-.694 E2.42098
G1 X0.046 Y-.694 E2.42283
G1 X0.146 Y-.68 E2.42486
G0 F1200 X0.35 Y-1.662
G1 F300 X0.564 Y-1.602 E2.42932
G1 X0.785 Y-1.506 E2.43415
G1 X0.98 Y-1.387 E2.43873
G1 X1.156 Y-1.244 E2.44328
G1 X1.317 Y-1.071 E2.44803
G1 X1.453 Y-.88 E2.45273
G1 X1.557 Y-.678 E2.45729
G1 X1.635 Y-.458 E2.46197
G1 X1.683 Y-.229 E2.46667
G1 X1.698 Y0.00 E2.47127
G1 X1.683 Y0.229 E2.47588
G1 X1.635 Y0.458 E2.48057
G1 X1.557 Y0.678 E2.48525
G1 X1.453 Y0.88 E2.48981
G1 X1.317 Y1.071 E2.49452
G1 X1.156 Y1.244 E2.49926
G1 X0.98 Y1.387 E2.50381
G1 X0.785 Y1.506 E2.50839
G1 X0.564 Y1.602 E2.51323
G1 X0.35 Y1.662 E2.51769
G1 X0.114 Y1.694 E2.52247
G1 X-.114 Y1.694 E2.52704
G1 X-.35 Y1.662 E2.53182
G1 X-.564 Y1.602 E2.53628
G1 X-.785 Y1.506 E2.54111
G1 X-.98 Y1.387 E2.5457
G1 X-1.156 Y1.244 E2.55025
G1 X-1.317 Y1.071 E2.55499
G1 X-1.453 Y0.88 E2.55969
G1 X-1.557 Y0.678 E2.56425
G1 X-1.635 Y0.458 E2.56894
G1 X-1.683 Y0.229 E2.57363
G1 X-1.698 Y0.00 E2.57823
G1 X-1.683 Y-.229 E2.58284
G1 X-1.635 Y-.458 E2.58753
G1 X-1.557 Y-.678 E2.59222
G1 X-1.453 Y-.88 E2.59678
G1 X-1.317 Y-1.071 E2.60148
G1 X-1.156 Y-1.244 E2.60622
G1 X-.98 Y-1.387 E2.61077
G1 X-.785 Y-1.506 E2.61536
G1 X-.564 Y-1.602 E2.62019
G1 X-.35 Y-1.662 E2.62465
G1 X-.114 Y-1.694 E2.62943
G1 X0.114 Y-1.694 E2.634
G1 X0.35 Y-1.662 E2.63878
;MESH:NONMESH
G0 F1200 X0.146 Y-.68
;TIME_ELAPSED:33.322935
;LAYER:9
;MESH:cylinder_for_rect.STL
G0 X0.146 Y-.68 Z3.9
;TYPE:FILL
G1 F300 X0.232 Y-.656 E2.64057
G1 X0.318 Y-.619 E2.64245
G1 X0.403 Y-.567 E2.64445
G1 X0.473 Y-.51 E2.64626
G1 X0.538 Y-.441 E2.64816
G1 X0.598 Y-.357 E2.65024
G1 X0.636 Y-.283 E2.6519
G1 X0.67 Y-.186 E2.65397
G1 X0.69 Y-0.092 E2.6559
G1 X0.696 Y0.00 E2.65775
G1 X0.69 Y0.092 E2.6596
G1 X0.67 Y0.186 E2.66152
G1 X0.636 Y0.283 E2.66359
G1 X0.598 Y0.357 E2.66525
G1 X0.538 Y0.441 E2.66733
G1 X0.473 Y0.51 E2.66923
G1 X0.403 Y0.567 E2.67104
G1 X0.318 Y0.619 E2.67304
G1 X0.232 Y0.656 E2.67492
G1 X0.146 Y0.68 E2.67671
G1 X0.046 Y0.694 E2.67873
G1 X-0.046 Y0.694 E2.68058
G1 X-.146 Y0.68 E2.68261
G1 X-.232 Y0.656 E2.6844
G1 X-.318 Y0.619 E2.68628
G1 X-.403 Y0.567 E2.68828
G1 X-.473 Y0.51 E2.69009
G1 X-.538 Y0.441 E2.69199
G1 X-.598 Y0.357 E2.69406
G1 X-.636 Y0.283 E2.69573
G1 X-.67 Y0.186 E2.69779
G1 X-.69 Y0.092 E2.69972
G1 X-.696 Y0.00 E2.70157
G1 X-.69 Y-0.092 E2.70342
G1 X-.67 Y-.186 E2.70535
G1 X-.636 Y-.283 E2.70741
G1 X-.598 Y-.357 E2.70908
G1 X-.538 Y-.441 E2.71115
G1 X-.473 Y-.51 E2.71305
G1 X-.403 Y-.567 E2.71486
G1 X-.318 Y-.619 E2.71686
G1 X-.232 Y-.656 E2.71874
G1 X-.146 Y-.68 E2.72053
G1 X-0.046 Y-.694 E2.72256
G1 X0.046 Y-.694 E2.72441
G1 X0.146 Y-.68 E2.72643
G0 F1200 X0.35 Y-1.662
G1 F300 X0.564 Y-1.602 E2.73089
G1 X0.785 Y-1.506 E2.73573
G1 X0.98 Y-1.387 E2.74031
G1 X1.156 Y-1.244 E2.74486
G1 X1.317 Y-1.071 E2.7496
G1 X1.453 Y-.88 E2.75431
G1 X1.557 Y-.678 E2.75886
G1 X1.635 Y-.458 E2.76355
G1 X1.683 Y-.229 E2.76824
G1 X1.698 Y0.00 E2.77285
G1 X1.683 Y0.229 E2.77745
G1 X1.635 Y0.458 E2.78215
G1 X1.557 Y0.678 E2.78683
G1 X1.453 Y0.88 E2.79139
G1 X1.317 Y1.071 E2.79609
G1 X1.156 Y1.244 E2.80083
G1 X0.98 Y1.387 E2.80538
G1 X0.785 Y1.506 E2.80997
G1 X0.564 Y1.602 E2.8148
G1 X0.35 Y1.662 E2.81926
G1 X0.114 Y1.694 E2.82404
G1 X-.114 Y1.694 E2.82862
G1 X-.35 Y1.662 E2.83339
G1 X-.564 Y1.602 E2.83785
G1 X-.785 Y1.506 E2.84269
G1 X-.98 Y1.387 E2.84727
G1 X-1.156 Y1.244 E2.85182
G1 X-1.317 Y1.071 E2.85656
G1 X-1.453 Y0.88 E2.86127
G1 X-1.557 Y0.678 E2.86583
G1 X-1.635 Y0.458 E2.87051
G1 X-1.683 Y0.229 E2.8752
G1 X-1.698 Y0.00 E2.87981
G1 X-1.683 Y-.229 E2.88441
G1 X-1.635 Y-.458 E2.88911
G1 X-1.557 Y-.678 E2.89379
G1 X-1.453 Y-.88 E2.89835
G1 X-1.317 Y-1.071 E2.90306
G1 X-1.156 Y-1.244 E2.9078
G1 X-.98 Y-1.387 E2.91235
G1 X-.785 Y-1.506 E2.91693
G1 X-.564 Y-1.602 E2.92177
G1 X-.35 Y-1.662 E2.92622
G1 X-.114 Y-1.694 E2.931
G1 X0.114 Y-1.694 E2.93558
G1 X0.35 Y-1.662 E2.94036
;MESH:NONMESH
G0 F1200 X0.146 Y-.68
;TIME_ELAPSED:36.560753
;LAYER:10
;MESH:cylinder_for_rect.STL
G0 X0.146 Y-.68 Z4.3
;TYPE:FILL
G1 F300 X0.232 Y-.656 E2.94215
G1 X0.318 Y-.619 E2.94403
G1 X0.403 Y-.567 E2.94603
G1 X0.473 Y-.51 E2.94784
G1 X0.538 Y-.441 E2.94974
G1 X0.598 Y-.357 E2.95181
G1 X0.636 Y-.283 E2.95348
G1 X0.67 Y-.186 E2.95554
G1 X0.69 Y-0.092 E2.95747
G1 X0.696 Y0.00 E2.95932
G1 X0.69 Y0.092 E2.96117
G1 X0.67 Y0.186 E2.9631
G1 X0.636 Y0.283 E2.96516
G1 X0.598 Y0.357 E2.96683
G1 X0.538 Y0.441 E2.9689
G1 X0.473 Y0.51 E2.9708
G1 X0.403 Y0.567 E2.97261
G1 X0.318 Y0.619 E2.97461
G1 X0.232 Y0.656 E2.97649
G1 X0.146 Y0.68 E2.97828
G1 X0.046 Y0.694 E2.98031
G1 X-0.046 Y0.694 E2.98216
G1 X-.146 Y0.68 E2.98418
G1 X-.232 Y0.656 E2.98597
G1 X-.318 Y0.619 E2.98785
G1 X-.403 Y0.567 E2.98985
G1 X-.473 Y0.51 E2.99166
G1 X-.538 Y0.441 E2.99356
G1 X-.598 Y0.357 E2.99564
G1 X-.636 Y0.283 E2.9973
G1 X-.67 Y0.186 E2.99937
G1 X-.69 Y0.092 E3.0013
G1 X-.696 Y0.00 E3.00315
G1 X-.69 Y-0.092 E3.00499
G1 X-.67 Y-.186 E3.00692
G1 X-.636 Y-.283 E3.00899
G1 X-.598 Y-.357 E3.01065
G1 X-.538 Y-.441 E3.01273
G1 X-.473 Y-.51 E3.01463
G1 X-.403 Y-.567 E3.01644
G1 X-.318 Y-.619 E3.01844
G1 X-.232 Y-.656 E3.02032
G1 X-.146 Y-.68 E3.02211
G1 X-0.046 Y-.694 E3.02413
G1 X0.046 Y-.694 E3.02598
G1 X0.146 Y-.68 E3.02801
G0 F1200 X0.35 Y-1.662
G1 F300 X0.564 Y-1.602 E3.03247
G1 X0.785 Y-1.506 E3.0373
G1 X0.98 Y-1.387 E3.04188
G1 X1.156 Y-1.244 E3.04643
G1 X1.317 Y-1.071 E3.05118
G1 X1.453 Y-.88 E3.05588
G1 X1.557 Y-.678 E3.06044
G1 X1.635 Y-.458 E3.06512
G1 X1.683 Y-.229 E3.06982
G1 X1.698 Y0.00 E3.07442
G1 X1.683 Y0.229 E3.07903
G1 X1.635 Y0.458 E3.08372
G1 X1.557 Y0.678 E3.0884
G1 X1.453 Y0.88 E3.09296
G1 X1.317 Y1.071 E3.09767
G1 X1.156 Y1.244 E3.10241
G1 X0.98 Y1.387 E3.10696
G1 X0.785 Y1.506 E3.11154
G1 X0.564 Y1.602 E3.11638
G1 X0.35 Y1.662 E3.12084
G1 X0.114 Y1.694 E3.12562
G1 X-.114 Y1.694 E3.13019
G1 X-.35 Y1.662 E3.13497
G1 X-.564 Y1.602 E3.13943
G1 X-.785 Y1.506 E3.14426
G1 X-.98 Y1.387 E3.14885
G1 X-1.156 Y1.244 E3.1534
G1 X-1.317 Y1.071 E3.15814
G1 X-1.453 Y0.88 E3.16284
G1 X-1.557 Y0.678 E3.1674
G1 X-1.635 Y0.458 E3.17209
G1 X-1.683 Y0.229 E3.17678
G1 X-1.698 Y0.00 E3.18138
G1 X-1.683 Y-.229 E3.18599
G1 X-1.635 Y-.458 E3.19068
G1 X-1.557 Y-.678 E3.19537
G1 X-1.453 Y-.88 E3.19993
G1 X-1.317 Y-1.071 E3.20463
G1 X-1.156 Y-1.244 E3.20937
G1 X-.98 Y-1.387 E3.21392
G1 X-.785 Y-1.506 E3.21851
G1 X-.564 Y-1.602 E3.22334
G1 X-.35 Y-1.662 E3.2278
G1 X-.114 Y-1.694 E3.23258
G1 X0.114 Y-1.694 E3.23715
G1 X0.35 Y-1.662 E3.24193
;MESH:NONMESH
G0 F1200 X0.146 Y-.68
;TIME_ELAPSED:39.798571
;LAYER:11
;MESH:cylinder_for_rect.STL
G0 X0.146 Y-.68 Z4.7
;TYPE:FILL
G1 F300 X0.232 Y-.656 E3.24372
G1 X0.318 Y-.619 E3.2456
G1 X0.403 Y-.567 E3.2476
G1 X0.473 Y-.51 E3.24941
G1 X0.538 Y-.441 E3.25131
G1 X0.598 Y-.357 E3.25339
G1 X0.636 Y-.283 E3.25505
G1 X0.67 Y-.186 E3.25712
G1 X0.69 Y-0.092 E3.25905
G1 X0.696 Y0.00 E3.2609
G1 X0.69 Y0.092 E3.26275
G1 X0.67 Y0.186 E3.26467
G1 X0.636 Y0.283 E3.26674
G1 X0.598 Y0.357 E3.2684
G1 X0.538 Y0.441 E3.27048
G1 X0.473 Y0.51 E3.27238
G1 X0.403 Y0.567 E3.27419
G1 X0.318 Y0.619 E3.27619
G1 X0.232 Y0.656 E3.27807
G1 X0.146 Y0.68 E3.27986
G1 X0.046 Y0.694 E3.28188
G1 X-0.046 Y0.694 E3.28373
G1 X-.146 Y0.68 E3.28576
G1 X-.232 Y0.656 E3.28755
G1 X-.318 Y0.619 E3.28943
G1 X-.403 Y0.567 E3.29143
G1 X-.473 Y0.51 E3.29324
G1 X-.538 Y0.441 E3.29514
G1 X-.598 Y0.357 E3.29721
G1 X-.636 Y0.283 E3.29888
G1 X-.67 Y0.186 E3.30094
G1 X-.69 Y0.092 E3.30287
G1 X-.696 Y0.00 E3.30472
G1 X-.69 Y-0.092 E3.30657
G1 X-.67 Y-.186 E3.3085
G1 X-.636 Y-.283 E3.31056
G1 X-.598 Y-.357 E3.31223
G1 X-.538 Y-.441 E3.3143
G1 X-.473 Y-.51 E3.3162
G1 X-.403 Y-.567 E3.31801
G1 X-.318 Y-.619 E3.32001
G1 X-.232 Y-.656 E3.32189
G1 X-.146 Y-.68 E3.32368
G1 X-0.046 Y-.694 E3.32571
G1 X0.046 Y-.694 E3.32756
G1 X0.146 Y-.68 E3.32958
G0 F1200 X0.35 Y-1.662
G1 F300 X0.564 Y-1.602 E3.33404
G1 X0.785 Y-1.506 E3.33888
G1 X0.98 Y-1.387 E3.34346
G1 X1.156 Y-1.244 E3.34801
G1 X1.317 Y-1.071 E3.35275
G1 X1.453 Y-.88 E3.35746
G1 X1.557 Y-.678 E3.36201
G1 X1.635 Y-.458 E3.3667
G1 X1.683 Y-.229 E3.37139
G1 X1.698 Y0.00 E3.376
G1 X1.683 Y0.229 E3.3806
G1 X1.635 Y0.458 E3.3853
G1 X1.557 Y0.678 E3.38998
G1 X1.453 Y0.88 E3.39454
G1 X1.317 Y1.071 E3.39924
G1 X1.156 Y1.244 E3.40398
G1 X0.98 Y1.387 E3.40853
G1 X0.785 Y1.506 E3.41312
G1 X0.564 Y1.602 E3.41795
G1 X0.35 Y1.662 E3.42241
G1 X0.114 Y1.694 E3.42719
G1 X-.114 Y1.694 E3.43177
G1 X-.35 Y1.662 E3.43654
G1 X-.564 Y1.602 E3.441
G1 X-.785 Y1.506 E3.44584
G1 X-.98 Y1.387 E3.45042
G1 X-1.156 Y1.244 E3.45497
G1 X-1.317 Y1.071 E3.45971
G1 X-1.453 Y0.88 E3.46442
G1 X-1.557 Y0.678 E3.46898
G1 X-1.635 Y0.458 E3.47366
G1 X-1.683 Y0.229 E3.47835
G1 X-1.698 Y0.00 E3.48296
G1 X-1.683 Y-.229 E3.48756
G1 X-1.635 Y-.458 E3.49226
G1 X-1.557 Y-.678 E3.49694
G1 X-1.453 Y-.88 E3.5015
G1 X-1.317 Y-1.071 E3.50621
G1 X-1.156 Y-1.244 E3.51095
G1 X-.98 Y-1.387 E3.5155
G1 X-.785 Y-1.506 E3.52008
G1 X-.564 Y-1.602 E3.52492
G1 X-.35 Y-1.662 E3.52938
G1 X-.114 Y-1.694 E3.53415
G1 X0.114 Y-1.694 E3.53873
G1 X0.35 Y-1.662 E3.54351
;MESH:NONMESH
G0 F1200 X0.146 Y-.68
;TIME_ELAPSED:43.036389
;LAYER:12
;MESH:cylinder_for_rect.STL
G0 X0.146 Y-.68 Z5.1
;TYPE:FILL
G1 F300 X0.232 Y-.656 E3.5453
G1 X0.318 Y-.619 E3.54718
G1 X0.403 Y-.567 E3.54918
G1 X0.473 Y-.51 E3.55099
G1 X0.538 Y-.441 E3.55289
G1 X0.598 Y-.357 E3.55496
G1 X0.636 Y-.283 E3.55663
G1 X0.67 Y-.186 E3.55869
G1 X0.69 Y-0.092 E3.56062
G1 X0.696 Y0.00 E3.56247
G1 X0.69 Y0.092 E3.56432
G1 X0.67 Y0.186 E3.56625
G1 X0.636 Y0.283 E3.56831
G1 X0.598 Y0.357 E3.56998
G1 X0.538 Y0.441 E3.57205
G1 X0.473 Y0.51 E3.57395
G1 X0.403 Y0.567 E3.57576
G1 X0.318 Y0.619 E3.57776
G1 X0.232 Y0.656 E3.57964
G1 X0.146 Y0.68 E3.58143
G1 X0.046 Y0.694 E3.58346
G1 X-0.046 Y0.694 E3.58531
G1 X-.146 Y0.68 E3.58733
G1 X-.232 Y0.656 E3.58912
G1 X-.318 Y0.619 E3.591
G1 X-.403 Y0.567 E3.593
G1 X-.473 Y0.51 E3.59481
G1 X-.538 Y0.441 E3.59671
G1 X-.598 Y0.357 E3.59879
G1 X-.636 Y0.283 E3.60045
G1 X-.67 Y0.186 E3.60252
G1 X-.69 Y0.092 E3.60445
G1 X-.696 Y0.00 E3.6063
G1 X-.69 Y-0.092 E3.60815
G1 X-.67 Y-.186 E3.61007
G1 X-.636 Y-.283 E3.61214
G1 X-.598 Y-.357 E3.6138
G1 X-.538 Y-.441 E3.61588
G1 X-.473 Y-.51 E3.61778
G1 X-.403 Y-.567 E3.61959
G1 X-.318 Y-.619 E3.62159
G1 X-.232 Y-.656 E3.62347
G1 X-.146 Y-.68 E3.62526
G1 X-0.046 Y-.694 E3.62728
G1 X0.046 Y-.694 E3.62913
G1 X0.146 Y-.68 E3.63116
G0 F1200 X0.35 Y-1.662
G1 F300 X0.564 Y-1.602 E3.63562
G1 X0.785 Y-1.506 E3.64045
G1 X0.98 Y-1.387 E3.64503
G1 X1.156 Y-1.244 E3.64958
G1 X1.317 Y-1.071 E3.65433
G1 X1.453 Y-.88 E3.65903
G1 X1.557 Y-.678 E3.66359
G1 X1.635 Y-.458 E3.66827
G1 X1.683 Y-.229 E3.67297
G1 X1.698 Y0.00 E3.67757
G1 X1.683 Y0.229 E3.68218
G1 X1.635 Y0.458 E3.68687
G1 X1.557 Y0.678 E3.69155
G1 X1.453 Y0.88 E3.69611
G1 X1.317 Y1.071 E3.70082
G1 X1.156 Y1.244 E3.70556
G1 X0.98 Y1.387 E3.71011
G1 X0.785 Y1.506 E3.71469
G1 X0.564 Y1.602 E3.71953
G1 X0.35 Y1.662 E3.72399
G1 X0.114 Y1.694 E3.72877
G1 X-.114 Y1.694 E3.73334
G1 X-.35 Y1.662 E3.73812
G1 X-.564 Y1.602 E3.74258
G1 X-.785 Y1.506 E3.74741
G1 X-.98 Y1.387 E3.752
G1 X-1.156 Y1.244 E3.75655
G1 X-1.317 Y1.071 E3.76129
G1 X-1.453 Y0.88 E3.76599
G1 X-1.557 Y0.678 E3.77055
G1 X-1.635 Y0.458 E3.77524
G1 X-1.683 Y0.229 E3.77993
G1 X-1.698 Y0.00 E3.78453
G1 X-1.683 Y-.229 E3.78914
G1 X-1.635 Y-.458 E3.79383
G1 X-1.557 Y-.678 E3.79852
G1 X-1.453 Y-.88 E3.80308
G1 X-1.317 Y-1.071 E3.80778
G1 X-1.156 Y-1.244 E3.81252
G1 X-.98 Y-1.387 E3.81707
G1 X-.785 Y-1.506 E3.82166
G1 X-.564 Y-1.602 E3.82649
G1 X-.35 Y-1.662 E3.83095
G1 X-.114 Y-1.694 E3.83573
G1 X0.114 Y-1.694 E3.8403
G1 X0.35 Y-1.662 E3.84508
;MESH:NONMESH
G0 F1200 X0.146 Y-.68
;TIME_ELAPSED:46.274206
;LAYER:13
;MESH:cylinder_for_rect.STL
G0 X0.146 Y-.68 Z5.5
;TYPE:FILL
G1 F300 X0.232 Y-.656 E3.84687
G1 X0.318 Y-.619 E3.84875
G1 X0.403 Y-.567 E3.85075
G1 X0.473 Y-.51 E3.85256
G1 X0.538 Y-.441 E3.85446
G1 X0.598 Y-.357 E3.85654
G1 X0.636 Y-.283 E3.8582
G1 X0.67 Y-.186 E3.86027
G1 X0.69 Y-0.092 E3.8622
G1 X0.696 Y0.00 E3.86405
G1 X0.69 Y0.092 E3.8659
G1 X0.67 Y0.186 E3.86782
G1 X0.636 Y0.283 E3.86989
G1 X0.598 Y0.357 E3.87156
G1 X0.538 Y0.441 E3.87363
G1 X0.473 Y0.51 E3.87553
G1 X0.403 Y0.567 E3.87734
G1 X0.318 Y0.619 E3.87934
G1 X0.232 Y0.656 E3.88122
G1 X0.146 Y0.68 E3.88301
G1 X0.046 Y0.694 E3.88503
G1 X-0.046 Y0.694 E3.88688
G1 X-.146 Y0.68 E3.88891
G1 X-.232 Y0.656 E3.8907
G1 X-.318 Y0.619 E3.89258
G1 X-.403 Y0.567 E3.89458
G1 X-.473 Y0.51 E3.89639
G1 X-.538 Y0.441 E3.89829
G1 X-.598 Y0.357 E3.90036
G1 X-.636 Y0.283 E3.90203
G1 X-.67 Y0.186 E3.90409
G1 X-.69 Y0.092 E3.90602
G1 X-.696 Y0.00 E3.90787
G1 X-.69 Y-0.092 E3.90972
G1 X-.67 Y-.186 E3.91165
G1 X-.636 Y-.283 E3.91371
G1 X-.598 Y-.357 E3.91538
G1 X-.538 Y-.441 E3.91745
G1 X-.473 Y-.51 E3.91935
G1 X-.403 Y-.567 E3.92116
G1 X-.318 Y-.619 E3.92316
G1 X-.232 Y-.656 E3.92504
G1 X-.146 Y-.68 E3.92683
G1 X-0.046 Y-.694 E3.92886
G1 X0.046 Y-.694 E3.93071
G1 X0.146 Y-.68 E3.93273
G0 F1200 X0.35 Y-1.662
G1 F300 X0.564 Y-1.602 E3.93719
G1 X0.785 Y-1.506 E3.94203
G1 X0.98 Y-1.387 E3.94661
G1 X1.156 Y-1.244 E3.95116
G1 X1.317 Y-1.071 E3.9559
G1 X1.453 Y-.88 E3.96061
G1 X1.557 Y-.678 E3.96516
G1 X1.635 Y-.458 E3.96985
G1 X1.683 Y-.229 E3.97454
G1 X1.698 Y0.00 E3.97915
G1 X1.683 Y0.229 E3.98375
G1 X1.635 Y0.458 E3.98845
G1 X1.557 Y0.678 E3.99313
G1 X1.453 Y0.88 E3.99769
G1 X1.317 Y1.071 E4.00239
G1 X1.156 Y1.244 E4.00713
G1 X0.98 Y1.387 E4.01168
G1 X0.785 Y1.506 E4.01627
G1 X0.564 Y1.602 E4.0211
G1 X0.35 Y1.662 E4.02556
G1 X0.114 Y1.694 E4.03034
G1 X-.114 Y1.694 E4.03492
G1 X-.35 Y1.662 E4.03969
G1 X-.564 Y1.602 E4.04415
G1 X-.785 Y1.506 E4.04899
G1 X-.98 Y1.387 E4.05357
G1 X-1.156 Y1.244 E4.05812
G1 X-1.317 Y1.071 E4.06286
G1 X-1.453 Y0.88 E4.06757
G1 X-1.557 Y0.678 E4.07213
G1 X-1.635 Y0.458 E4.07681
G1 X-1.683 Y0.229 E4.08151
G1 X-1.698 Y0.00 E4.08611
G1 X-1.683 Y-.229 E4.09071
G1 X-1.635 Y-.458 E4.09541
G1 X-1.557 Y-.678 E4.10009
G1 X-1.453 Y-.88 E4.10465
G1 X-1.317 Y-1.071 E4.10936
G1 X-1.156 Y-1.244 E4.1141
G1 X-.98 Y-1.387 E4.11865
G1 X-.785 Y-1.506 E4.12323
G1 X-.564 Y-1.602 E4.12807
G1 X-.35 Y-1.662 E4.13253
G1 X-.114 Y-1.694 E4.1373
G1 X0.114 Y-1.694 E4.14188
G1 X0.35 Y-1.662 E4.14666
;MESH:NONMESH
G0 F1200 X0.146 Y-.68
;TIME_ELAPSED:49.512024
;LAYER:14
;MESH:cylinder_for_rect.STL
G0 X0.146 Y-.68 Z5.9
;TYPE:FILL
G1 F300 X0.232 Y-.656 E4.14845
G1 X0.318 Y-.619 E4.15033
G1 X0.403 Y-.567 E4.15233
G1 X0.473 Y-.51 E4.15414
G1 X0.538 Y-.441 E4.15604
G1 X0.598 Y-.357 E4.15811
G1 X0.636 Y-.283 E4.15978
G1 X0.67 Y-.186 E4.16184
G1 X0.69 Y-0.092 E4.16377
G1 X0.696 Y0.00 E4.16562
G1 X0.69 Y0.092 E4.16747
G1 X0.67 Y0.186 E4.1694
G1 X0.636 Y0.283 E4.17146
G1 X0.598 Y0.357 E4.17313
G1 X0.538 Y0.441 E4.1752
G1 X0.473 Y0.51 E4.1771
G1 X0.403 Y0.567 E4.17891
G1 X0.318 Y0.619 E4.18091
G1 X0.232 Y0.656 E4.18279
G1 X0.146 Y0.68 E4.18458
G1 X0.046 Y0.694 E4.18661
G1 X-0.046 Y0.694 E4.18846
G1 X-.146 Y0.68 E4.19048
G1 X-.232 Y0.656 E4.19227
G1 X-.318 Y0.619 E4.19415
G1 X-.403 Y0.567 E4.19615
G1 X-.473 Y0.51 E4.19796
G1 X-.538 Y0.441 E4.19986
G1 X-.598 Y0.357 E4.20194
G1 X-.636 Y0.283 E4.2036
G1 X-.67 Y0.186 E4.20567
G1 X-.69 Y0.092 E4.2076
G1 X-.696 Y0.00 E4.20945
G1 X-.69 Y-0.092 E4.2113
G1 X-.67 Y-.186 E4.21322
G1 X-.636 Y-.283 E4.21529
G1 X-.598 Y-.357 E4.21695
G1 X-.538 Y-.441 E4.21903
G1 X-.473 Y-.51 E4.22093
G1 X-.403 Y-.567 E4.22274
G1 X-.318 Y-.619 E4.22474
G1 X-.232 Y-.656 E4.22662
G1 X-.146 Y-.68 E4.22841
G1 X-0.046 Y-.694 E4.23043
G1 X0.046 Y-.694 E4.23228
G1 X0.146 Y-.68 E4.23431
G0 F1200 X0.35 Y-1.662
G1 F300 X0.564 Y-1.602 E4.23877
G1 X0.785 Y-1.506 E4.2436
G1 X0.98 Y-1.387 E4.24818
G1 X1.156 Y-1.244 E4.25273
G1 X1.317 Y-1.071 E4.25748
G1 X1.453 Y-.88 E4.26218
G1 X1.557 Y-.678 E4.26674
G1 X1.635 Y-.458 E4.27142
G1 X1.683 Y-.229 E4.27612
G1 X1.698 Y0.00 E4.28072
G1 X1.683 Y0.229 E4.28533
G1 X1.635 Y0.458 E4.29002
G1 X1.557 Y0.678 E4.2947
G1 X1.453 Y0.88 E4.29926
G1 X1.317 Y1.071 E4.30397
G1 X1.156 Y1.244 E4.30871
G1 X0.98 Y1.387 E4.31326
G1 X0.785 Y1.506 E4.31784
G1 X0.564 Y1.602 E4.32268
G1 X0.35 Y1.662 E4.32714
G1 X0.114 Y1.694 E4.33192
G1 X-.114 Y1.694 E4.33649
G1 X-.35 Y1.662 E4.34127
G1 X-.564 Y1.602 E4.34573
G1 X-.785 Y1.506 E4.35056
G1 X-.98 Y1.387 E4.35515
G1 X-1.156 Y1.244 E4.3597
G1 X-1.317 Y1.071 E4.36444
G1 X-1.453 Y0.88 E4.36914
G1 X-1.557 Y0.678 E4.3737
G1 X-1.635 Y0.458 E4.37839
G1 X-1.683 Y0.229 E4.38308
G1 X-1.698 Y0.00 E4.38768
G1 X-1.683 Y-.229 E4.39229
G1 X-1.635 Y-.458 E4.39698
G1 X-1.557 Y-.678 E4.40167
G1 X-1.453 Y-.88 E4.40623
G1 X-1.317 Y-1.071 E4.41093
G1 X-1.156 Y-1.244 E4.41567
G1 X-.98 Y-1.387 E4.42022
G1 X-.785 Y-1.506 E4.42481
G1 X-.564 Y-1.602 E4.42964
G1 X-.35 Y-1.662 E4.4341
G1 X-.114 Y-1.694 E4.43888
G1 X0.114 Y-1.694 E4.44345
G1 X0.35 Y-1.662 E4.44823
;MESH:NONMESH
G0 F1200 X0.146 Y-.68
;TIME_ELAPSED:52.749842
;LAYER:15
;MESH:cylinder_for_rect.STL
G0 X0.146 Y-.68 Z6.3
;TYPE:FILL
G1 F300 X0.232 Y-.656 E4.45002
G1 X0.318 Y-.619 E4.4519
G1 X0.403 Y-.567 E4.4539
G1 X0.473 Y-.51 E4.45571
G1 X0.538 Y-.441 E4.45761
G1 X0.598 Y-.357 E4.45969
G1 X0.636 Y-.283 E4.46135
G1 X0.67 Y-.186 E4.46342
G1 X0.69 Y-0.092 E4.46535
G1 X0.696 Y0.00 E4.4672
G1 X0.69 Y0.092 E4.46905
G1 X0.67 Y0.186 E4.47097
G1 X0.636 Y0.283 E4.47304
G1 X0.598 Y0.357 E4.47471
G1 X0.538 Y0.441 E4.47678
G1 X0.473 Y0.51 E4.47868
G1 X0.403 Y0.567 E4.48049
G1 X0.318 Y0.619 E4.48249
G1 X0.232 Y0.656 E4.48437
G1 X0.146 Y0.68 E4.48616
G1 X0.046 Y0.694 E4.48818
G1 X-0.046 Y0.694 E4.49003
G1 X-.146 Y0.68 E4.49206
G1 X-.232 Y0.656 E4.49385
G1 X-.318 Y0.619 E4.49573
G1 X-.403 Y0.567 E4.49773
G1 X-.473 Y0.51 E4.49954
G1 X-.538 Y0.441 E4.50144
G1 X-.598 Y0.357 E4.50351
G1 X-.636 Y0.283 E4.50518
G1 X-.67 Y0.186 E4.50724
G1 X-.69 Y0.092 E4.50917
G1 X-.696 Y0.00 E4.51102
G1 X-.69 Y-0.092 E4.51287
G1 X-.67 Y-.186 E4.5148
G1 X-.636 Y-.283 E4.51686
G1 X-.598 Y-.357 E4.51853
G1 X-.538 Y-.441 E4.5206
G1 X-.473 Y-.51 E4.5225
G1 X-.403 Y-.567 E4.52431
G1 X-.318 Y-.619 E4.52631
G1 X-.232 Y-.656 E4.52819
G1 X-.146 Y-.68 E4.52998
G1 X-0.046 Y-.694 E4.53201
G1 X0.046 Y-.694 E4.53386
G1 X0.146 Y-.68 E4.53588
G0 F1200 X0.35 Y-1.662
G1 F300 X0.564 Y-1.602 E4.54034
G1 X0.785 Y-1.506 E4.54518
G1 X0.98 Y-1.387 E4.54976
G1 X1.156 Y-1.244 E4.55431
G1 X1.317 Y-1.071 E4.55905
G1 X1.453 Y-.88 E4.56376
G1 X1.557 Y-.678 E4.56831
G1 X1.635 Y-.458 E4.573
G1 X1.683 Y-.229 E4.57769
G1 X1.698 Y0.00 E4.5823
G1 X1.683 Y0.229 E4.5869
G1 X1.635 Y0.458 E4.5916
G1 X1.557 Y0.678 E4.59628
G1 X1.453 Y0.88 E4.60084
G1 X1.317 Y1.071 E4.60554
G1 X1.156 Y1.244 E4.61028
G1 X0.98 Y1.387 E4.61483
G1 X0.785 Y1.506 E4.61942
G1 X0.564 Y1.602 E4.62425
G1 X0.35 Y1.662 E4.62871
G1 X0.114 Y1.694 E4.63349
G1 X-.114 Y1.694 E4.63807
G1 X-.35 Y1.662 E4.64284
G1 X-.564 Y1.602 E4.6473
G1 X-.785 Y1.506 E4.65214
G1 X-.98 Y1.387 E4.65672
G1 X-1.156 Y1.244 E4.66127
G1 X-1.317 Y1.071 E4.66601
G1 X-1.453 Y0.88 E4.67072
G1 X-1.557 Y0.678 E4.67528
G1 X-1.635 Y0.458 E4.67996
G1 X-1.683 Y0.229 E4.68466
G1 X-1.698 Y0.00 E4.68926
G1 X-1.683 Y-.229 E4.69386
G1 X-1.635 Y-.458 E4.69856
G1 X-1.557 Y-.678 E4.70324
G1 X-1.453 Y-.88 E4.7078
G1 X-1.317 Y-1.071 E4.71251
G1 X-1.156 Y-1.244 E4.71725
G1 X-.98 Y-1.387 E4.7218
G1 X-.785 Y-1.506 E4.72638
G1 X-.564 Y-1.602 E4.73122
G1 X-.35 Y-1.662 E4.73568
G1 X-.114 Y-1.694 E4.74045
G1 X0.114 Y-1.694 E4.74503
G1 X0.35 Y-1.662 E4.74981
;MESH:NONMESH
G0 F1200 X0.146 Y-.68
;TIME_ELAPSED:55.987659
;LAYER:16
;MESH:cylinder_for_rect.STL
G0 X0.146 Y-.68 Z6.7
;TYPE:FILL
G1 F300 X0.232 Y-.656 E4.7516
G1 X0.318 Y-.619 E4.75348
G1 X0.403 Y-.567 E4.75548
G1 X0.473 Y-.51 E4.75729
G1 X0.538 Y-.441 E4.75919
G1 X0.598 Y-.357 E4.76126
G1 X0.636 Y-.283 E4.76293
G1 X0.67 Y-.186 E4.76499
G1 X0.69 Y-0.092 E4.76692
G1 X0.696 Y0.00 E4.76877
G1 X0.69 Y0.092 E4.77062
G1 X0.67 Y0.186 E4.77255
G1 X0.636 Y0.283 E4.77461
G1 X0.598 Y0.357 E4.77628
G1 X0.538 Y0.441 E4.77835
G1 X0.473 Y0.51 E4.78025
G1 X0.403 Y0.567 E4.78206
G1 X0.318 Y0.619 E4.78406
G1 X0.232 Y0.656 E4.78594
G1 X0.146 Y0.68 E4.78773
G1 X0.046 Y0.694 E4.78976
G1 X-0.046 Y0.694 E4.79161
G1 X-.146 Y0.68 E4.79363
G1 X-.232 Y0.656 E4.79542
G1 X-.318 Y0.619 E4.7973
G1 X-.403 Y0.567 E4.7993
G1 X-.473 Y0.51 E4.80111
G1 X-.538 Y0.441 E4.80301
G1 X-.598 Y0.357 E4.80509
G1 X-.636 Y0.283 E4.80675
G1 X-.67 Y0.186 E4.80882
G1 X-.69 Y0.092 E4.81075
G1 X-.696 Y0.00 E4.8126
G1 X-.69 Y-0.092 E4.81445
G1 X-.67 Y-.186 E4.81637
G1 X-.636 Y-.283 E4.81844
G1 X-.598 Y-.357 E4.82011
G1 X-.538 Y-.441 E4.82218
G1 X-.473 Y-.51 E4.82408
G1 X-.403 Y-.567 E4.82589
G1 X-.318 Y-.619 E4.82789
G1 X-.232 Y-.656 E4.82977
G1 X-.146 Y-.68 E4.83156
G1 X-0.046 Y-.694 E4.83358
G1 X0.046 Y-.694 E4.83543
G1 X0.146 Y-.68 E4.83746
G0 F1200 X0.35 Y-1.662
G1 F300 X0.564 Y-1.602 E4.84192
G1 X0.785 Y-1.506 E4.84675
G1 X0.98 Y-1.387 E4.85133
G1 X1.156 Y-1.244 E4.85588
G1 X1.317 Y-1.071 E4.86063
G1 X1.453 Y-.88 E4.86533
G1 X1.557 Y-.678 E4.86989
G1 X1.635 Y-.458 E4.87457
G1 X1.683 Y-.229 E4.87927
G1 X1.698 Y0.00 E4.88387
G1 X1.683 Y0.229 E4.88848
G1 X1.635 Y0.458 E4.89317
G1 X1.557 Y0.678 E4.89785
G1 X1.453 Y0.88 E4.90241
G1 X1.317 Y1.071 E4.90712
G1 X1.156 Y1.244 E4.91186
G1 X0.98 Y1.387 E4.91641
G1 X0.785 Y1.506 E4.92099
G1 X0.564 Y1.602 E4.92583
G1 X0.35 Y1.662 E4.93029
G1 X0.114 Y1.694 E4.93507
G1 X-.114 Y1.694 E4.93964
G1 X-.35 Y1.662 E4.94442
G1 X-.564 Y1.602 E4.94888
G1 X-.785 Y1.506 E4.95371
G1 X-.98 Y1.387 E4.9583
G1 X-1.156 Y1.244 E4.96285
G1 X-1.317 Y1.071 E4.96759
G1 X-1.453 Y0.88 E4.97229
G1 X-1.557 Y0.678 E4.97685
G1 X-1.635 Y0.458 E4.98154
G1 X-1.683 Y0.229 E4.98623
G1 X-1.698 Y0.00 E4.99083
G1 X-1.683 Y-.229 E4.99544
G1 X-1.635 Y-.458 E5.00013
G1 X-1.557 Y-.678 E5.00482
G1 X-1.453 Y-.88 E5.00938
G1 X-1.317 Y-1.071 E5.01408
G1 X-1.156 Y-1.244 E5.01882
G1 X-.98 Y-1.387 E5.02337
G1 X-.785 Y-1.506 E5.02796
G1 X-.564 Y-1.602 E5.03279
G1 X-.35 Y-1.662 E5.03725
G1 X-.114 Y-1.694 E5.04203
G1 X0.114 Y-1.694 E5.0466
G1 X0.35 Y-1.662 E5.05138
;MESH:NONMESH
G0 F1200 X0.146 Y-.68
;TIME_ELAPSED:59.225477
;LAYER:17
;MESH:cylinder_for_rect.STL
G0 X0.146 Y-.68 Z7.1
;TYPE:FILL
G1 F300 X0.232 Y-.656 E5.05317
G1 X0.318 Y-.619 E5.05505
G1 X0.403 Y-.567 E5.05705
G1 X0.473 Y-.51 E5.05886
G1 X0.538 Y-.441 E5.06076
G1 X0.598 Y-.357 E5.06284
G1 X0.636 Y-.283 E5.06451
G1 X0.67 Y-.186 E5.06657
G1 X0.69 Y-0.092 E5.0685
G1 X0.696 Y0.00 E5.07035
G1 X0.69 Y0.092 E5.0722
G1 X0.67 Y0.186 E5.07412
G1 X0.636 Y0.283 E5.07619
G1 X0.598 Y0.357 E5.07786
G1 X0.538 Y0.441 E5.07993
G1 X0.473 Y0.51 E5.08183
G1 X0.403 Y0.567 E5.08364
G1 X0.318 Y0.619 E5.08564
G1 X0.232 Y0.656 E5.08752
G1 X0.146 Y0.68 E5.08931
G1 X0.046 Y0.694 E5.09134
G1 X-0.046 Y0.694 E5.09318
G1 X-.146 Y0.68 E5.09521
G1 X-.232 Y0.656 E5.097
G1 X-.318 Y0.619 E5.09888
G1 X-.403 Y0.567 E5.10088
G1 X-.473 Y0.51 E5.10269
G1 X-.538 Y0.441 E5.10459
G1 X-.598 Y0.357 E5.10666
G1 X-.636 Y0.283 E5.10833
G1 X-.67 Y0.186 E5.11039
G1 X-.69 Y0.092 E5.11232
G1 X-.696 Y0.00 E5.11417
G1 X-.69 Y-0.092 E5.11602
G1 X-.67 Y-.186 E5.11795
G1 X-.636 Y-.283 E5.12001
G1 X-.598 Y-.357 E5.12168
G1 X-.538 Y-.441 E5.12375
G1 X-.473 Y-.51 E5.12565
G1 X-.403 Y-.567 E5.12746
G1 X-.318 Y-.619 E5.12946
G1 X-.232 Y-.656 E5.13134
G1 X-.146 Y-.68 E5.13313
G1 X-0.046 Y-.694 E5.13516
G1 X0.046 Y-.694 E5.13701
G1 X0.146 Y-.68 E5.13903
G0 F1200 X0.35 Y-1.662
G1 F300 X0.564 Y-1.602 E5.14349
G1 X0.785 Y-1.506 E5.14833
G1 X0.98 Y-1.387 E5.15291
G1 X1.156 Y-1.244 E5.15746
G1 X1.317 Y-1.071 E5.1622
G1 X1.453 Y-.88 E5.16691
G1 X1.557 Y-.678 E5.17146
G1 X1.635 Y-.458 E5.17615
G1 X1.683 Y-.229 E5.18084
G1 X1.698 Y0.00 E5.18545
G1 X1.683 Y0.229 E5.19005
G1 X1.635 Y0.458 E5.19475
G1 X1.557 Y0.678 E5.19943
G1 X1.453 Y0.88 E5.20399
G1 X1.317 Y1.071 E5.20869
G1 X1.156 Y1.244 E5.21344
G1 X0.98 Y1.387 E5.21799
G1 X0.785 Y1.506 E5.22257
G1 X0.564 Y1.602 E5.2274
G1 X0.35 Y1.662 E5.23186
G1 X0.114 Y1.694 E5.23664
G1 X-.114 Y1.694 E5.24122
G1 X-.35 Y1.662 E5.24599
G1 X-.564 Y1.602 E5.25045
G1 X-.785 Y1.506 E5.25529
G1 X-.98 Y1.387 E5.25987
G1 X-1.156 Y1.244 E5.26442
G1 X-1.317 Y1.071 E5.26916
G1 X-1.453 Y0.88 E5.27387
G1 X-1.557 Y0.678 E5.27843
G1 X-1.635 Y0.458 E5.28311
G1 X-1.683 Y0.229 E5.28781
G1 X-1.698 Y0.00 E5.29241
G1 X-1.683 Y-.229 E5.29701
G1 X-1.635 Y-.458 E5.30171
G1 X-1.557 Y-.678 E5.30639
G1 X-1.453 Y-.88 E5.31095
G1 X-1.317 Y-1.071 E5.31566
G1 X-1.156 Y-1.244 E5.3204
G1 X-.98 Y-1.387 E5.32495
G1 X-.785 Y-1.506 E5.32953
G1 X-.564 Y-1.602 E5.33437
G1 X-.35 Y-1.662 E5.33883
G1 X-.114 Y-1.694 E5.3436
G1 X0.114 Y-1.694 E5.34818
G1 X0.35 Y-1.662 E5.35296
;MESH:NONMESH
G0 F1200 X0.146 Y-.68
;TIME_ELAPSED:62.463295
;LAYER:18
;MESH:cylinder_for_rect.STL
G0 X0.146 Y-.68 Z7.5
;TYPE:FILL
G1 F300 X0.232 Y-.656 E5.35475
G1 X0.318 Y-.619 E5.35663
G1 X0.403 Y-.567 E5.35863
G1 X0.473 Y-.51 E5.36044
G1 X0.538 Y-.441 E5.36234
G1 X0.598 Y-.357 E5.36441
G1 X0.636 Y-.283 E5.36608
G1 X0.67 Y-.186 E5.36814
G1 X0.69 Y-0.092 E5.37007
G1 X0.696 Y0.00 E5.37192
G1 X0.69 Y0.092 E5.37377
G1 X0.67 Y0.186 E5.3757
G1 X0.636 Y0.283 E5.37776
G1 X0.598 Y0.357 E5.37943
G1 X0.538 Y0.441 E5.3815
G1 X0.473 Y0.51 E5.3834
G1 X0.403 Y0.567 E5.38521
G1 X0.318 Y0.619 E5.38721
G1 X0.232 Y0.656 E5.38909
G1 X0.146 Y0.68 E5.39088
G1 X0.046 Y0.694 E5.39291
G1 X-0.046 Y0.694 E5.39476
G1 X-.146 Y0.68 E5.39678
G1 X-.232 Y0.656 E5.39857
G1 X-.318 Y0.619 E5.40045
G1 X-.403 Y0.567 E5.40245
G1 X-.473 Y0.51 E5.40426
G1 X-.538 Y0.441 E5.40616
G1 X-.598 Y0.357 E5.40824
G1 X-.636 Y0.283 E5.4099
G1 X-.67 Y0.186 E5.41197
G1 X-.69 Y0.092 E5.4139
G1 X-.696 Y0.00 E5.41575
G1 X-.69 Y-0.092 E5.4176
G1 X-.67 Y-.186 E5.41952
G1 X-.636 Y-.283 E5.42159
G1 X-.598 Y-.357 E5.42326
G1 X-.538 Y-.441 E5.42533
G1 X-.473 Y-.51 E5.42723
G1 X-.403 Y-.567 E5.42904
G1 X-.318 Y-.619 E5.43104
G1 X-.232 Y-.656 E5.43292
G1 X-.146 Y-.68 E5.43471
G1 X-0.046 Y-.694 E5.43673
G1 X0.046 Y-.694 E5.43858
G1 X0.146 Y-.68 E5.44061
G0 F1200 X0.35 Y-1.662
G1 F300 X0.564 Y-1.602 E5.44507
G1 X0.785 Y-1.506 E5.4499
G1 X0.98 Y-1.387 E5.45448
G1 X1.156 Y-1.244 E5.45903
G1 X1.317 Y-1.071 E5.46378
G1 X1.453 Y-.88 E5.46848
G1 X1.557 Y-.678 E5.47304
G1 X1.635 Y-.458 E5.47772
G1 X1.683 Y-.229 E5.48242
G1 X1.698 Y0.00 E5.48702
G1 X1.683 Y0.229 E5.49163
G1 X1.635 Y0.458 E5.49632
G1 X1.557 Y0.678 E5.50101
G1 X1.453 Y0.88 E5.50556
G1 X1.317 Y1.071 E5.51027
G1 X1.156 Y1.244 E5.51501
G1 X0.98 Y1.387 E5.51956
G1 X0.785 Y1.506 E5.52414
G1 X0.564 Y1.602 E5.52898
G1 X0.35 Y1.662 E5.53344
G1 X0.114 Y1.694 E5.53822
G1 X-.114 Y1.694 E5.54279
G1 X-.35 Y1.662 E5.54757
G1 X-.564 Y1.602 E5.55203
G1 X-.785 Y1.506 E5.55686
G1 X-.98 Y1.387 E5.56145
G1 X-1.156 Y1.244 E5.566
G1 X-1.317 Y1.071 E5.57074
G1 X-1.453 Y0.88 E5.57544
G1 X-1.557 Y0.678 E5.58
G1 X-1.635 Y0.458 E5.58469
G1 X-1.683 Y0.229 E5.58938
G1 X-1.698 Y0.00 E5.59399
G1 X-1.683 Y-.229 E5.59859
G1 X-1.635 Y-.458 E5.60328
G1 X-1.557 Y-.678 E5.60797
G1 X-1.453 Y-.88 E5.61253
G1 X-1.317 Y-1.071 E5.61723
G1 X-1.156 Y-1.244 E5.62197
G1 X-.98 Y-1.387 E5.62652
G1 X-.785 Y-1.506 E5.63111
G1 X-.564 Y-1.602 E5.63594
G1 X-.35 Y-1.662 E5.6404
G1 X-.114 Y-1.694 E5.64518
G1 X0.114 Y-1.694 E5.64975
G1 X0.35 Y-1.662 E5.65453
;MESH:NONMESH
G0 F1200 X0.146 Y-.68
;TIME_ELAPSED:65.701112
;LAYER:19
;MESH:cylinder_for_rect.STL
G0 X0.146 Y-.68 Z7.9
;TYPE:FILL
G1 F300 X0.232 Y-.656 E5.65632
G1 X0.318 Y-.619 E5.6582
G1 X0.403 Y-.567 E5.6602
G1 X0.473 Y-.51 E5.66201
G1 X0.538 Y-.441 E5.66391
G1 X0.598 Y-.357 E5.66599
G1 X0.636 Y-.283 E5.66766
G1 X0.67 Y-.186 E5.66972
G1 X0.69 Y-0.092 E5.67165
G1 X0.696 Y0.00 E5.6735
G1 X0.69 Y0.092 E5.67535
G1 X0.67 Y0.186 E5.67727
G1 X0.636 Y0.283 E5.67934
G1 X0.598 Y0.357 E5.68101
G1 X0.538 Y0.441 E5.68308
G1 X0.473 Y0.51 E5.68498
G1 X0.403 Y0.567 E5.68679
G1 X0.318 Y0.619 E5.68879
G1 X0.232 Y0.656 E5.69067
G1 X0.146 Y0.68 E5.69246
G1 X0.046 Y0.694 E5.69449
G1 X-0.046 Y0.694 E5.69633
G1 X-.146 Y0.68 E5.69836
G1 X-.232 Y0.656 E5.70015
G1 X-.318 Y0.619 E5.70203
G1 X-.403 Y0.567 E5.70403
G1 X-.473 Y0.51 E5.70584
G1 X-.538 Y0.441 E5.70774
G1 X-.598 Y0.357 E5.70981
G1 X-.636 Y0.283 E5.71148
G1 X-.67 Y0.186 E5.71354
G1 X-.69 Y0.092 E5.71547
G1 X-.696 Y0.00 E5.71732
G1 X-.69 Y-0.092 E5.71917
G1 X-.67 Y-.186 E5.7211
G1 X-.636 Y-.283 E5.72316
G1 X-.598 Y-.357 E5.72483
G1 X-.538 Y-.441 E5.7269
G1 X-.473 Y-.51 E5.7288
G1 X-.403 Y-.567 E5.73061
G1 X-.318 Y-.619 E5.73261
G1 X-.232 Y-.656 E5.73449
G1 X-.146 Y-.68 E5.73628
G1 X-0.046 Y-.694 E5.73831
G1 X0.046 Y-.694 E5.74016
G1 X0.146 Y-.68 E5.74218
G0 F1200 X0.35 Y-1.662
G1 F300 X0.564 Y-1.602 E5.74664
G1 X0.785 Y-1.506 E5.75148
G1 X0.98 Y-1.387 E5.75606
G1 X1.156 Y-1.244 E5.76061
G1 X1.317 Y-1.071 E5.76535
G1 X1.453 Y-.88 E5.77006
G1 X1.557 Y-.678 E5.77461
G1 X1.635 Y-.458 E5.7793
G1 X1.683 Y-.229 E5.78399
G1 X1.698 Y0.00 E5.7886
G1 X1.683 Y0.229 E5.7932
G1 X1.635 Y0.458 E5.7979
G1 X1.557 Y0.678 E5.80258
G1 X1.453 Y0.88 E5.80714
G1 X1.317 Y1.071 E5.81184
G1 X1.156 Y1.244 E5.81659
G1 X0.98 Y1.387 E5.82114
G1 X0.785 Y1.506 E5.82572
G1 X0.564 Y1.602 E5.83055
G1 X0.35 Y1.662 E5.83501
G1 X0.114 Y1.694 E5.83979
G1 X-.114 Y1.694 E5.84437
G1 X-.35 Y1.662 E5.84914
G1 X-.564 Y1.602 E5.8536
G1 X-.785 Y1.506 E5.85844
G1 X-.98 Y1.387 E5.86302
G1 X-1.156 Y1.244 E5.86757
G1 X-1.317 Y1.071 E5.87231
G1 X-1.453 Y0.88 E5.87702
G1 X-1.557 Y0.678 E5.88158
G1 X-1.635 Y0.458 E5.88626
G1 X-1.683 Y0.229 E5.89096
G1 X-1.698 Y0.00 E5.89556
G1 X-1.683 Y-.229 E5.90016
G1 X-1.635 Y-.458 E5.90486
G1 X-1.557 Y-.678 E5.90954
G1 X-1.453 Y-.88 E5.9141
G1 X-1.317 Y-1.071 E5.91881
G1 X-1.156 Y-1.244 E5.92355
G1 X-.98 Y-1.387 E5.9281
G1 X-.785 Y-1.506 E5.93268
G1 X-.564 Y-1.602 E5.93752
G1 X-.35 Y-1.662 E5.94198
G1 X-.114 Y-1.694 E5.94675
G1 X0.114 Y-1.694 E5.95133
G1 X0.35 Y-1.662 E5.95611
;MESH:NONMESH
G0 F1200 X0.146 Y-.68
;TIME_ELAPSED:68.938930
;LAYER:20
;MESH:cylinder_for_rect.STL
G0 X0.146 Y-.68 Z8.3
;TYPE:FILL
G1 F300 X0.232 Y-.656 E5.9579
G1 X0.318 Y-.619 E5.95978
G1 X0.403 Y-.567 E5.96178
G1 X0.473 Y-.51 E5.96359
G1 X0.538 Y-.441 E5.96549
G1 X0.598 Y-.357 E5.96756
G1 X0.636 Y-.283 E5.96923
G1 X0.67 Y-.186 E5.97129
G1 X0.69 Y-0.092 E5.97322
G1 X0.696 Y0.00 E5.97507
G1 X0.69 Y0.092 E5.97692
G1 X0.67 Y0.186 E5.97885
G1 X0.636 Y0.283 E5.98091
G1 X0.598 Y0.357 E5.98258
G1 X0.538 Y0.441 E5.98465
G1 X0.473 Y0.51 E5.98655
G1 X0.403 Y0.567 E5.98836
G1 X0.318 Y0.619 E5.99036
G1 X0.232 Y0.656 E5.99224
G1 X0.146 Y0.68 E5.99403
G1 X0.046 Y0.694 E5.99606
G1 X-0.046 Y0.694 E5.99791
G1 X-.146 Y0.68 E5.99993
G1 X-.232 Y0.656 E6.00172
G1 X-.318 Y0.619 E6.0036
G1 X-.403 Y0.567 E6.0056
G1 X-.473 Y0.51 E6.00741
G1 X-.538 Y0.441 E6.00931
G1 X-.598 Y0.357 E6.01139
G1 X-.636 Y0.283 E6.01306
G1 X-.67 Y0.186 E6.01512
G1 X-.69 Y0.092 E6.01705
G1 X-.696 Y0.00 E6.0189
G1 X-.69 Y-0.092 E6.02075
G1 X-.67 Y-.186 E6.02267
G1 X-.636 Y-.283 E6.02474
G1 X-.598 Y-.357 E6.02641
G1 X-.538 Y-.441 E6.02848
G1 X-.473 Y-.51 E6.03038
G1 X-.403 Y-.567 E6.03219
G1 X-.318 Y-.619 E6.03419
G1 X-.232 Y-.656 E6.03607
G1 X-.146 Y-.68 E6.03786
G1 X-0.046 Y-.694 E6.03989
G1 X0.046 Y-.694 E6.04173
G1 X0.146 Y-.68 E6.04376
G0 F1200 X0.35 Y-1.662
G1 F300 X0.564 Y-1.602 E6.04822
G1 X0.785 Y-1.506 E6.05305
G1 X0.98 Y-1.387 E6.05763
G1 X1.156 Y-1.244 E6.06218
G1 X1.317 Y-1.071 E6.06693
G1 X1.453 Y-.88 E6.07163
G1 X1.557 Y-.678 E6.07619
G1 X1.635 Y-.458 E6.08087
G1 X1.683 Y-.229 E6.08557
G1 X1.698 Y0.00 E6.09017
G1 X1.683 Y0.229 E6.09478
G1 X1.635 Y0.458 E6.09947
G1 X1.557 Y0.678 E6.10416
G1 X1.453 Y0.88 E6.10871
G1 X1.317 Y1.071 E6.11342
G1 X1.156 Y1.244 E6.11816
G1 X0.98 Y1.387 E6.12271
G1 X0.785 Y1.506 E6.12729
G1 X0.564 Y1.602 E6.13213
G1 X0.35 Y1.662 E6.13659
G1 X0.114 Y1.694 E6.14137
G1 X-.114 Y1.694 E6.14594
G1 X-.35 Y1.662 E6.15072
G1 X-.564 Y1.602 E6.15518
G1 X-.785 Y1.506 E6.16001
G1 X-.98 Y1.387 E6.1646
G1 X-1.156 Y1.244 E6.16915
G1 X-1.317 Y1.071 E6.17389
G1 X-1.453 Y0.88 E6.17859
G1 X-1.557 Y0.678 E6.18315
G1 X-1.635 Y0.458 E6.18784
G1 X-1.683 Y0.229 E6.19253
G1 X-1.698 Y0.00 E6.19714
G1 X-1.683 Y-.229 E6.20174
G1 X-1.635 Y-.458 E6.20643
G1 X-1.557 Y-.678 E6.21112
G1 X-1.453 Y-.88 E6.21568
G1 X-1.317 Y-1.071 E6.22038
G1 X-1.156 Y-1.244 E6.22512
G1 X-.98 Y-1.387 E6.22967
G1 X-.785 Y-1.506 E6.23426
G1 X-.564 Y-1.602 E6.23909
G1 X-.35 Y-1.662 E6.24355
G1 X-.114 Y-1.694 E6.24833
G1 X0.114 Y-1.694 E6.2529
G1 X0.35 Y-1.662 E6.25768
;MESH:NONMESH
G0 F1200 X0.146 Y-.68
;TIME_ELAPSED:72.176748
;LAYER:21
;MESH:cylinder_for_rect.STL
G0 X0.146 Y-.68 Z8.7
;TYPE:FILL
G1 F300 X0.232 Y-.656 E6.25947
G1 X0.318 Y-.619 E6.26135
G1 X0.403 Y-.567 E6.26335
G1 X0.473 Y-.51 E6.26516
G1 X0.538 Y-.441 E6.26706
G1 X0.598 Y-.357 E6.26914
G1 X0.636 Y-.283 E6.27081
G1 X0.67 Y-.186 E6.27287
G1 X0.69 Y-0.092 E6.2748
G1 X0.696 Y0.00 E6.27665
G1 X0.69 Y0.092 E6.2785
G1 X0.67 Y0.186 E6.28042
G1 X0.636 Y0.283 E6.28249
G1 X0.598 Y0.357 E6.28416
G1 X0.538 Y0.441 E6.28623
G1 X0.473 Y0.51 E6.28813
G1 X0.403 Y0.567 E6.28994
G1 X0.318 Y0.619 E6.29194
G1 X0.232 Y0.656 E6.29382
G1 X0.146 Y0.68 E6.29561
G1 X0.046 Y0.694 E6.29764
G1 X-0.046 Y0.694 E6.29948
G1 X-.146 Y0.68 E6.30151
G1 X-.232 Y0.656 E6.3033
G1 X-.318 Y0.619 E6.30518
G1 X-.403 Y0.567 E6.30718
G1 X-.473 Y0.51 E6.30899
G1 X-.538 Y0.441 E6.31089
G1 X-.598 Y0.357 E6.31296
G1 X-.636 Y0.283 E6.31463
G1 X-.67 Y0.186 E6.31669
G1 X-.69 Y0.092 E6.31862
G1 X-.696 Y0.00 E6.32047
G1 X-.69 Y-0.092 E6.32232
G1 X-.67 Y-.186 E6.32425
G1 X-.636 Y-.283 E6.32631
G1 X-.598 Y-.357 E6.32798
G1 X-.538 Y-.441 E6.33005
G1 X-.473 Y-.51 E6.33195
G1 X-.403 Y-.567 E6.33376
G1 X-.318 Y-.619 E6.33576
G1 X-.232 Y-.656 E6.33764
G1 X-.146 Y-.68 E6.33943
G1 X-0.046 Y-.694 E6.34146
G1 X0.046 Y-.694 E6.34331
G1 X0.146 Y-.68 E6.34533
G0 F1200 X0.35 Y-1.662
G1 F300 X0.564 Y-1.602 E6.34979
G1 X0.785 Y-1.506 E6.35463
G1 X0.98 Y-1.387 E6.35921
G1 X1.156 Y-1.244 E6.36376
G1 X1.317 Y-1.071 E6.3685
G1 X1.453 Y-.88 E6.37321
G1 X1.557 Y-.678 E6.37776
G1 X1.635 Y-.458 E6.38245
G1 X1.683 Y-.229 E6.38714
G1 X1.698 Y0.00 E6.39175
G1 X1.683 Y0.229 E6.39635
G1 X1.635 Y0.458 E6.40105
G1 X1.557 Y0.678 E6.40573
G1 X1.453 Y0.88 E6.41029
G1 X1.317 Y1.071 E6.41499
G1 X1.156 Y1.244 E6.41974
G1 X0.98 Y1.387 E6.42429
G1 X0.785 Y1.506 E6.42887
G1 X0.564 Y1.602 E6.4337
G1 X0.35 Y1.662 E6.43816
G1 X0.114 Y1.694 E6.44294
G1 X-.114 Y1.694 E6.44752
G1 X-.35 Y1.662 E6.45229
G1 X-.564 Y1.602 E6.45675
G1 X-.785 Y1.506 E6.46159
G1 X-.98 Y1.387 E6.46617
G1 X-1.156 Y1.244 E6.47072
G1 X-1.317 Y1.071 E6.47546
G1 X-1.453 Y0.88 E6.48017
G1 X-1.557 Y0.678 E6.48473
G1 X-1.635 Y0.458 E6.48941
G1 X-1.683 Y0.229 E6.49411
G1 X-1.698 Y0.00 E6.49871
G1 X-1.683 Y-.229 E6.50331
G1 X-1.635 Y-.458 E6.50801
G1 X-1.557 Y-.678 E6.51269
G1 X-1.453 Y-.88 E6.51725
G1 X-1.317 Y-1.071 E6.52196
G1 X-1.156 Y-1.244 E6.5267
G1 X-.98 Y-1.387 E6.53125
G1 X-.785 Y-1.506 E6.53583
G1 X-.564 Y-1.602 E6.54067
G1 X-.35 Y-1.662 E6.54513
G1 X-.114 Y-1.694 E6.5499
G1 X0.114 Y-1.694 E6.55448
G1 X0.35 Y-1.662 E6.55926
;MESH:NONMESH
G0 F1200 X0.146 Y-.68
;TIME_ELAPSED:75.414566
;LAYER:22
;MESH:cylinder_for_rect.STL
G0 X0.146 Y-.68 Z9.1
;TYPE:FILL
G1 F300 X0.232 Y-.656 E6.56105
G1 X0.318 Y-.619 E6.56293
G1 X0.403 Y-.567 E6.56493
G1 X0.473 Y-.51 E6.56674
G1 X0.538 Y-.441 E6.56864
G1 X0.598 Y-.357 E6.57071
G1 X0.636 Y-.283 E6.57238
G1 X0.67 Y-.186 E6.57444
G1 X0.69 Y-0.092 E6.57637
G1 X0.696 Y0.00 E6.57822
G1 X0.69 Y0.092 E6.58007
G1 X0.67 Y0.186 E6.582
G1 X0.636 Y0.283 E6.58406
G1 X0.598 Y0.357 E6.58573
G1 X0.538 Y0.441 E6.5878
G1 X0.473 Y0.51 E6.5897
G1 X0.403 Y0.567 E6.59152
G1 X0.318 Y0.619 E6.59351
G1 X0.232 Y0.656 E6.59539
G1 X0.146 Y0.68 E6.59718
G1 X0.046 Y0.694 E6.59921
G1 X-0.046 Y0.694 E6.60106
G1 X-.146 Y0.68 E6.60308
G1 X-.232 Y0.656 E6.60487
G1 X-.318 Y0.619 E6.60675
G1 X-.403 Y0.567 E6.60875
G1 X-.473 Y0.51 E6.61056
G1 X-.538 Y0.441 E6.61246
G1 X-.598 Y0.357 E6.61454
G1 X-.636 Y0.283 E6.61621
G1 X-.67 Y0.186 E6.61827
G1 X-.69 Y0.092 E6.6202
G1 X-.696 Y0.00 E6.62205
G1 X-.69 Y-0.092 E6.6239
G1 X-.67 Y-.186 E6.62582
G1 X-.636 Y-.283 E6.62789
G1 X-.598 Y-.357 E6.62956
G1 X-.538 Y-.441 E6.63163
G1 X-.473 Y-.51 E6.63353
G1 X-.403 Y-.567 E6.63534
G1 X-.318 Y-.619 E6.63734
G1 X-.232 Y-.656 E6.63922
G1 X-.146 Y-.68 E6.64101
G1 X-0.046 Y-.694 E6.64304
G1 X0.046 Y-.694 E6.64488
G1 X0.146 Y-.68 E6.64691
G0 F1200 X0.35 Y-1.662
G1 F300 X0.564 Y-1.602 E6.65137
G1 X0.785 Y-1.506 E6.6562
G1 X0.98 Y-1.387 E6.66078
G1 X1.156 Y-1.244 E6.66533
G1 X1.317 Y-1.071 E6.67008
G1 X1.453 Y-.88 E6.67478
G1 X1.557 Y-.678 E6.67934
G1 X1.635 Y-.458 E6.68402
G1 X1.683 Y-.229 E6.68872
G1 X1.698 Y0.00 E6.69332
G1 X1.683 Y0.229 E6.69793
G1 X1.635 Y0.458 E6.70262
G1 X1.557 Y0.678 E6.70731
G1 X1.453 Y0.88 E6.71186
G1 X1.317 Y1.071 E6.71657
G1 X1.156 Y1.244 E6.72131
G1 X0.98 Y1.387 E6.72586
G1 X0.785 Y1.506 E6.73044
G1 X0.564 Y1.602 E6.73528
G1 X0.35 Y1.662 E6.73974
G1 X0.114 Y1.694 E6.74452
G1 X-.114 Y1.694 E6.74909
G1 X-.35 Y1.662 E6.75387
G1 X-.564 Y1.602 E6.75833
G1 X-.785 Y1.506 E6.76316
G1 X-.98 Y1.387 E6.76775
G1 X-1.156 Y1.244 E6.7723
G1 X-1.317 Y1.071 E6.77704
G1 X-1.453 Y0.88 E6.78174
G1 X-1.557 Y0.678 E6.7863
G1 X-1.635 Y0.458 E6.79099
G1 X-1.683 Y0.229 E6.79568
G1 X-1.698 Y0.00 E6.80029
G1 X-1.683 Y-.229 E6.80489
G1 X-1.635 Y-.458 E6.80958
G1 X-1.557 Y-.678 E6.81427
G1 X-1.453 Y-.88 E6.81883
G1 X-1.317 Y-1.071 E6.82353
G1 X-1.156 Y-1.244 E6.82827
G1 X-.98 Y-1.387 E6.83282
G1 X-.785 Y-1.506 E6.83741
G1 X-.564 Y-1.602 E6.84224
G1 X-.35 Y-1.662 E6.8467
G1 X-.114 Y-1.694 E6.85148
G1 X0.114 Y-1.694 E6.85605
G1 X0.35 Y-1.662 E6.86083
;MESH:NONMESH
G0 F1200 X0.146 Y-.68
;TIME_ELAPSED:78.652383
;LAYER:23
;MESH:cylinder_for_rect.STL
G0 X0.146 Y-.68 Z9.5
;TYPE:FILL
G1 F300 X0.232 Y-.656 E6.86262
G1 X0.318 Y-.619 E6.8645
G1 X0.403 Y-.567 E6.8665
G1 X0.473 Y-.51 E6.86831
G1 X0.538 Y-.441 E6.87022
G1 X0.598 Y-.357 E6.87229
G1 X0.636 Y-.283 E6.87396
G1 X0.67 Y-.186 E6.87602
G1 X0.69 Y-0.092 E6.87795
G1 X0.696 Y0.00 E6.8798
G1 X0.69 Y0.092 E6.88165
G1 X0.67 Y0.186 E6.88357
G1 X0.636 Y0.283 E6.88564
G1 X0.598 Y0.357 E6.88731
G1 X0.538 Y0.441 E6.88938
G1 X0.473 Y0.51 E6.89128
G1 X0.403 Y0.567 E6.89309
G1 X0.318 Y0.619 E6.89509
G1 X0.232 Y0.656 E6.89697
G1 X0.146 Y0.68 E6.89876
G1 X0.046 Y0.694 E6.90079
G1 X-0.046 Y0.694 E6.90263
G1 X-.146 Y0.68 E6.90466
G1 X-.232 Y0.656 E6.90645
G1 X-.318 Y0.619 E6.90833
G1 X-.403 Y0.567 E6.91033
G1 X-.473 Y0.51 E6.91214
G1 X-.538 Y0.441 E6.91404
G1 X-.598 Y0.357 E6.91611
G1 X-.636 Y0.283 E6.91778
G1 X-.67 Y0.186 E6.91984
G1 X-.69 Y0.092 E6.92177
G1 X-.696 Y0.00 E6.92362
G1 X-.69 Y-0.092 E6.92547
G1 X-.67 Y-.186 E6.9274
G1 X-.636 Y-.283 E6.92946
G1 X-.598 Y-.357 E6.93113
G1 X-.538 Y-.441 E6.9332
G1 X-.473 Y-.51 E6.9351
G1 X-.403 Y-.567 E6.93691
G1 X-.318 Y-.619 E6.93891
G1 X-.232 Y-.656 E6.94079
G1 X-.146 Y-.68 E6.94258
G1 X-0.046 Y-.694 E6.94461
G1 X0.046 Y-.694 E6.94646
G1 X0.146 Y-.68 E6.94848
G0 F1200 X0.35 Y-1.662
G1 F300 X0.564 Y-1.602 E6.95294
G1 X0.785 Y-1.506 E6.95778
G1 X0.98 Y-1.387 E6.96236
G1 X1.156 Y-1.244 E6.96691
G1 X1.317 Y-1.071 E6.97165
G1 X1.453 Y-.88 E6.97636
G1 X1.557 Y-.678 E6.98091
G1 X1.635 Y-.458 E6.9856
G1 X1.683 Y-.229 E6.99029
G1 X1.698 Y0.00 E6.9949
G1 X1.683 Y0.229 E6.9995
G1 X1.635 Y0.458 E7.0042
G1 X1.557 Y0.678 E7.00888
G1 X1.453 Y0.88 E7.01344
G1 X1.317 Y1.071 E7.01814
G1 X1.156 Y1.244 E7.02289
G1 X0.98 Y1.387 E7.02744
G1 X0.785 Y1.506 E7.03202
G1 X0.564 Y1.602 E7.03685
G1 X0.35 Y1.662 E7.04131
G1 X0.114 Y1.694 E7.04609
G1 X-.114 Y1.694 E7.05067
G1 X-.35 Y1.662 E7.05544
G1 X-.564 Y1.602 E7.0599
G1 X-.785 Y1.506 E7.06474
G1 X-.98 Y1.387 E7.06932
G1 X-1.156 Y1.244 E7.07387
G1 X-1.317 Y1.071 E7.07861
G1 X-1.453 Y0.88 E7.08332
G1 X-1.557 Y0.678 E7.08788
G1 X-1.635 Y0.458 E7.09256
G1 X-1.683 Y0.229 E7.09726
G1 X-1.698 Y0.00 E7.10186
G1 X-1.683 Y-.229 E7.10646
G1 X-1.635 Y-.458 E7.11116
G1 X-1.557 Y-.678 E7.11584
G1 X-1.453 Y-.88 E7.1204
G1 X-1.317 Y-1.071 E7.12511
G1 X-1.156 Y-1.244 E7.12985
G1 X-.98 Y-1.387 E7.1344
G1 X-.785 Y-1.506 E7.13898
G1 X-.564 Y-1.602 E7.14382
G1 X-.35 Y-1.662 E7.14828
G1 X-.114 Y-1.694 E7.15305
G1 X0.114 Y-1.694 E7.15763
G1 X0.35 Y-1.662 E7.16241
;MESH:NONMESH
G0 F1200 X0.146 Y-.68
;TIME_ELAPSED:81.890201
;LAYER:24
;MESH:cylinder_for_rect.STL
G0 X0.146 Y-.68 Z9.9
;TYPE:FILL
G1 F300 X0.232 Y-.656 E7.1642
G1 X0.318 Y-.619 E7.16608
G1 X0.403 Y-.567 E7.16808
G1 X0.473 Y-.51 E7.16989
G1 X0.538 Y-.441 E7.17179
G1 X0.598 Y-.357 E7.17386
G1 X0.636 Y-.283 E7.17553
G1 X0.67 Y-.186 E7.17759
G1 X0.69 Y-0.092 E7.17952
G1 X0.696 Y0.00 E7.18137
G1 X0.69 Y0.092 E7.18322
G1 X0.67 Y0.186 E7.18515
G1 X0.636 Y0.283 E7.18721
G1 X0.598 Y0.357 E7.18888
G1 X0.538 Y0.441 E7.19095
G1 X0.473 Y0.51 E7.19285
G1 X0.403 Y0.567 E7.19467
G1 X0.318 Y0.619 E7.19666
G1 X0.232 Y0.656 E7.19854
G1 X0.146 Y0.68 E7.20033
G1 X0.046 Y0.694 E7.20236
G1 X-0.046 Y0.694 E7.20421
G1 X-.146 Y0.68 E7.20623
G1 X-.232 Y0.656 E7.20802
G1 X-.318 Y0.619 E7.2099
G1 X-.403 Y0.567 E7.2119
G1 X-.473 Y0.51 E7.21371
G1 X-.538 Y0.441 E7.21561
G1 X-.598 Y0.357 E7.21769
G1 X-.636 Y0.283 E7.21936
G1 X-.67 Y0.186 E7.22142
G1 X-.69 Y0.092 E7.22335
G1 X-.696 Y0.00 E7.2252
G1 X-.69 Y-0.092 E7.22705
G1 X-.67 Y-.186 E7.22897
G1 X-.636 Y-.283 E7.23104
G1 X-.598 Y-.357 E7.23271
G1 X-.538 Y-.441 E7.23478
G1 X-.473 Y-.51 E7.23668
G1 X-.403 Y-.567 E7.23849
G1 X-.318 Y-.619 E7.24049
G1 X-.232 Y-.656 E7.24237
G1 X-.146 Y-.68 E7.24416
G1 X-0.046 Y-.694 E7.24619
G1 X0.046 Y-.694 E7.24803
G1 X0.146 Y-.68 E7.25006
G0 F1200 X0.35 Y-1.662
G1 F300 X0.564 Y-1.602 E7.25452
G1 X0.785 Y-1.506 E7.25935
G1 X0.98 Y-1.387 E7.26393
G1 X1.156 Y-1.244 E7.26848
G1 X1.317 Y-1.071 E7.27323
G1 X1.453 Y-.88 E7.27793
G1 X1.557 Y-.678 E7.28249
G1 X1.635 Y-.458 E7.28717
G1 X1.683 Y-.229 E7.29187
G1 X1.698 Y0.00 E7.29647
G1 X1.683 Y0.229 E7.30108
G1 X1.635 Y0.458 E7.30577
G1 X1.557 Y0.678 E7.31046
G1 X1.453 Y0.88 E7.31501
G1 X1.317 Y1.071 E7.31972
G1 X1.156 Y1.244 E7.32446
G1 X0.98 Y1.387 E7.32901
G1 X0.785 Y1.506 E7.33359
G1 X0.564 Y1.602 E7.33843
G1 X0.35 Y1.662 E7.34289
G1 X0.114 Y1.694 E7.34767
G1 X-.114 Y1.694 E7.35224
G1 X-.35 Y1.662 E7.35702
G1 X-.564 Y1.602 E7.36148
G1 X-.785 Y1.506 E7.36631
G1 X-.98 Y1.387 E7.3709
G1 X-1.156 Y1.244 E7.37545
G1 X-1.317 Y1.071 E7.38019
G1 X-1.453 Y0.88 E7.38489
G1 X-1.557 Y0.678 E7.38945
G1 X-1.635 Y0.458 E7.39414
G1 X-1.683 Y0.229 E7.39883
G1 X-1.698 Y0.00 E7.40344
G1 X-1.683 Y-.229 E7.40804
G1 X-1.635 Y-.458 E7.41273
G1 X-1.557 Y-.678 E7.41742
G1 X-1.453 Y-.88 E7.42198
G1 X-1.317 Y-1.071 E7.42668
G1 X-1.156 Y-1.244 E7.43142
G1 X-.98 Y-1.387 E7.43597
G1 X-.785 Y-1.506 E7.44056
G1 X-.564 Y-1.602 E7.44539
G1 X-.35 Y-1.662 E7.44985
G1 X-.114 Y-1.694 E7.45463
G1 X0.114 Y-1.694 E7.4592
G1 X0.35 Y-1.662 E7.46398
;TIME_ELAPSED:85.074589
M140 S0
M107
M104 S0 ;extruder heater off
M140 S0 ;heated bed heater off (if you have it)
G91 ;relative positioning
G1 E-1 F300  ;retract the filament a bit before lifting the nozzle, to release some of the pressure
G1 Z+0.5 E-5 X-20 Y-20 F9000 ;move Z up a bit and retract filament even more
G28 X0 Y0 ;move X/Y to min endstops, so the head is out of the way
M84 ;steppers off
G90 ;absolute positioning
M82 ;absolute extrusion mode
M104 S0
;End of Gcode
;SETTING_3 {"global_quality": "[general]\\nversion = 4\\nname = Carolyn - Syring
;SETTING_3 e\\ndefinition = fdmprinter\\n\\n[metadata]\\ntype = quality_changes\
;SETTING_3 \nquality_type = verydraft\\nsetting_version = 5\\n\\n[values]\\nadhe
;SETTING_3 sion_type = none\\nlayer_height = 0.4\\nmaterial_bed_temperature = 0\
;SETTING_3 \nsupport_enable = False\\n\\n", "extruder_quality": ["[general]\\nve
;SETTING_3 rsion = 4\\nname = Carolyn - Syringe\\ndefinition = fdmprinter\\n\\n[
;SETTING_3 metadata]\\ntype = quality_changes\\nquality_type = verydraft\\nsetti
;SETTING_3 ng_version = 5\\nposition = 0\\n\\n[values]\\nbrim_width = 0\\ninfill
;SETTING_3 _angles = [0,90]\\ninfill_line_distance = 1\\ninfill_pattern = concen
;SETTING_3 tric\\ninfill_sparse_density = 70\\nmaterial_flow = 80\\nretraction_e
;SETTING_3 nable = False\\nskirt_line_count = 2\\nspeed_print = 5\\nspeed_travel
;SETTING_3  = 20\\ntop_bottom_thickness = 0.0\\nwall_thickness = 0.0\\n\\n"]}
