;FLAVOR:Marlin
;TIME:34
;Filament used: 0.011196m
;Layer height: 1.2
;Generated with Cura_SteamEngine 3.6.0
M104 S200
M105
M109 S200
M82 ;absolute extrusion mode
G21 ;metric values
G90 ;absolute positioning
M82 ;set extruder to absolute mode
M107 ;start with the fan off
G28 ;move XYZ to min endstops
G1 Z15.0 F9000 ;move the platform down 15mm
G1 F9000
;Put printing message on LCD screen
M117 Printing...
G92 E0
;LAYER_COUNT:10
;LAYER:0
M107
;MESH:cylinder_for_rect.STL
G0 F600 X0.146 Y-.68 Z0.3
;TYPE:FILL
G1 F150 X0.232 Y-.656 E0.00202
G1 X0.318 Y-.619 E0.00413
G1 X0.403 Y-.567 E0.00638
G1 X0.473 Y-.51 E0.00842
G1 X0.538 Y-.441 E0.01056
G1 X0.598 Y-.357 E0.01289
G1 X0.636 Y-.283 E0.01476
G1 X0.67 Y-.186 E0.01708
G1 X0.69 Y-0.092 E0.01925
G1 X0.696 Y0.00 E0.02133
G1 X0.69 Y0.092 E0.02341
G1 X0.67 Y0.186 E0.02558
G1 X0.636 Y0.283 E0.0279
G1 X0.598 Y0.357 E0.02978
G1 X0.538 Y0.441 E0.03211
G1 X0.473 Y0.51 E0.03425
G1 X0.403 Y0.567 E0.03629
G1 X0.318 Y0.619 E0.03854
G1 X0.232 Y0.656 E0.04065
G1 X0.146 Y0.68 E0.04267
G1 X0.046 Y0.694 E0.04495
G1 X-0.046 Y0.694 E0.04702
G1 X-.146 Y0.68 E0.0493
G1 X-.232 Y0.656 E0.05132
G1 X-.318 Y0.619 E0.05343
G1 X-.403 Y0.567 E0.05568
G1 X-.473 Y0.51 E0.05772
G1 X-.538 Y0.441 E0.05986
G1 X-.598 Y0.357 E0.06219
G1 X-.636 Y0.283 E0.06407
G1 X-.67 Y0.186 E0.06639
G1 X-.69 Y0.092 E0.06856
G1 X-.696 Y0.00 E0.07064
G1 X-.69 Y-0.092 E0.07272
G1 X-.67 Y-.186 E0.07489
G1 X-.636 Y-.283 E0.07721
G1 X-.598 Y-.357 E0.07909
G1 X-.538 Y-.441 E0.08142
G1 X-.473 Y-.51 E0.08356
G1 X-.403 Y-.567 E0.08559
G1 X-.318 Y-.619 E0.08784
G1 X-.232 Y-.656 E0.08996
G1 X-.146 Y-.68 E0.09197
G1 X-0.046 Y-.694 E0.09425
G1 X0.046 Y-.694 E0.09633
G1 X0.146 Y-.68 E0.09861
G0 F600 X0.35 Y-1.662
G1 F150 X0.564 Y-1.602 E0.10362
G1 X0.785 Y-1.506 E0.10906
G1 X0.98 Y-1.387 E0.11422
G1 X1.156 Y-1.244 E0.11934
G1 X1.317 Y-1.071 E0.12467
G1 X1.453 Y-.88 E0.12996
G1 X1.557 Y-.678 E0.13509
G1 X1.635 Y-.458 E0.14036
G1 X1.683 Y-.229 E0.14564
G1 X1.698 Y0.00 E0.15082
G1 X1.683 Y0.229 E0.156
G1 X1.635 Y0.458 E0.16128
G1 X1.557 Y0.678 E0.16655
G1 X1.453 Y0.88 E0.17168
G1 X1.317 Y1.071 E0.17697
G1 X1.156 Y1.244 E0.18231
G1 X0.98 Y1.387 E0.18743
G1 X0.785 Y1.506 E0.19258
G1 X0.564 Y1.602 E0.19802
G1 X0.35 Y1.662 E0.20304
G1 X0.114 Y1.694 E0.20842
G1 X-.114 Y1.694 E0.21356
G1 X-.35 Y1.662 E0.21894
G1 X-.564 Y1.602 E0.22396
G1 X-.785 Y1.506 E0.22939
G1 X-.98 Y1.387 E0.23455
G1 X-1.156 Y1.244 E0.23967
G1 X-1.317 Y1.071 E0.245
G1 X-1.453 Y0.88 E0.2503
G1 X-1.557 Y0.678 E0.25543
G1 X-1.635 Y0.458 E0.26069
G1 X-1.683 Y0.229 E0.26598
G1 X-1.698 Y0.00 E0.27116
G1 X-1.683 Y-.229 E0.27634
G1 X-1.635 Y-.458 E0.28162
G1 X-1.557 Y-.678 E0.28689
G1 X-1.453 Y-.88 E0.29202
G1 X-1.317 Y-1.071 E0.29731
G1 X-1.156 Y-1.244 E0.30264
G1 X-.98 Y-1.387 E0.30776
G1 X-.785 Y-1.506 E0.31292
G1 X-.564 Y-1.602 E0.31836
G1 X-.35 Y-1.662 E0.32337
G1 X-.114 Y-1.694 E0.32875
G1 X0.114 Y-1.694 E0.3339
G1 X0.35 Y-1.662 E0.33927
;MESH:NONMESH
G0 F600 X0.146 Y-.68
;TIME_ELAPSED:6.385873
;LAYER:1
M106 S255
;MESH:cylinder_for_rect.STL
G0 F900 X0.146 Y-.68 Z1.5
;TYPE:FILL
G1 F225 X0.232 Y-.656 E0.34733
G1 X0.318 Y-.619 E0.35579
G1 X0.403 Y-.567 E0.36478
G1 X0.473 Y-.51 E0.37293
G1 X0.538 Y-.441 E0.38149
G1 X0.598 Y-.357 E0.39081
G1 X0.636 Y-.283 E0.39832
G1 X0.67 Y-.186 E0.40761
G1 X0.69 Y-0.092 E0.41628
G1 X0.696 Y0.00 E0.42461
G1 X0.69 Y0.092 E0.43293
G1 X0.67 Y0.186 E0.44161
G1 X0.636 Y0.283 E0.45089
G1 X0.598 Y0.357 E0.4584
G1 X0.538 Y0.441 E0.46772
G1 X0.473 Y0.51 E0.47628
G1 X0.403 Y0.567 E0.48443
G1 X0.318 Y0.619 E0.49343
G1 X0.232 Y0.656 E0.50188
G1 X0.146 Y0.68 E0.50994
G1 X0.046 Y0.694 E0.51906
G1 X-0.046 Y0.694 E0.52737
G1 X-.146 Y0.68 E0.53648
G1 X-.232 Y0.656 E0.54455
G1 X-.318 Y0.619 E0.553
G1 X-.403 Y0.567 E0.562
G1 X-.473 Y0.51 E0.57015
G1 X-.538 Y0.441 E0.57871
G1 X-.598 Y0.357 E0.58803
G1 X-.636 Y0.283 E0.59554
G1 X-.67 Y0.186 E0.60482
G1 X-.69 Y0.092 E0.61349
G1 X-.696 Y0.00 E0.62182
G1 X-.69 Y-0.092 E0.63014
G1 X-.67 Y-.186 E0.63882
G1 X-.636 Y-.283 E0.6481
G1 X-.598 Y-.357 E0.65561
G1 X-.538 Y-.441 E0.66493
G1 X-.473 Y-.51 E0.67349
G1 X-.403 Y-.567 E0.68164
G1 X-.318 Y-.619 E0.69064
G1 X-.232 Y-.656 E0.69909
G1 X-.146 Y-.68 E0.70715
G1 X-0.046 Y-.694 E0.71627
G1 X0.046 Y-.694 E0.72458
G1 X0.146 Y-.68 E0.7337
G0 F900 X0.35 Y-1.662
G1 F225 X0.564 Y-1.602 E0.75376
G1 X0.785 Y-1.506 E0.77552
G1 X0.98 Y-1.387 E0.79614
G1 X1.156 Y-1.244 E0.81662
G1 X1.317 Y-1.071 E0.83796
G1 X1.453 Y-.88 E0.85913
G1 X1.557 Y-.678 E0.87964
G1 X1.635 Y-.458 E0.90072
G1 X1.683 Y-.229 E0.92184
G1 X1.698 Y0.00 E0.94256
G1 X1.683 Y0.229 E0.96329
G1 X1.635 Y0.458 E0.98441
G1 X1.557 Y0.678 E1.00549
G1 X1.453 Y0.88 E1.026
G1 X1.317 Y1.071 E1.04717
G1 X1.156 Y1.244 E1.06851
G1 X0.98 Y1.387 E1.08899
G1 X0.785 Y1.506 E1.10961
G1 X0.564 Y1.602 E1.13137
G1 X0.35 Y1.662 E1.15143
G1 X0.114 Y1.694 E1.17294
G1 X-.114 Y1.694 E1.19352
G1 X-.35 Y1.662 E1.21503
G1 X-.564 Y1.602 E1.23509
G1 X-.785 Y1.506 E1.25685
G1 X-.98 Y1.387 E1.27748
G1 X-1.156 Y1.244 E1.29795
G1 X-1.317 Y1.071 E1.31929
G1 X-1.453 Y0.88 E1.34046
G1 X-1.557 Y0.678 E1.36097
G1 X-1.635 Y0.458 E1.38205
G1 X-1.683 Y0.229 E1.40318
G1 X-1.698 Y0.00 E1.4239
G1 X-1.683 Y-.229 E1.44462
G1 X-1.635 Y-.458 E1.46574
G1 X-1.557 Y-.678 E1.48682
G1 X-1.453 Y-.88 E1.50733
G1 X-1.317 Y-1.071 E1.5285
G1 X-1.156 Y-1.244 E1.54984
G1 X-.98 Y-1.387 E1.57032
G1 X-.785 Y-1.506 E1.59094
G1 X-.564 Y-1.602 E1.6127
G1 X-.35 Y-1.662 E1.63277
G1 X-.114 Y-1.694 E1.65427
G1 X0.114 Y-1.694 E1.67486
G1 X0.35 Y-1.662 E1.69636
;MESH:NONMESH
G0 F900 X0.146 Y-.68
;TIME_ELAPSED:10.818212
;LAYER:2
;MESH:cylinder_for_rect.STL
G0 F1200 X0.146 Y-.68 Z2.7
;TYPE:FILL
G1 F300 X0.232 Y-.656 E1.70442
G1 X0.318 Y-.619 E1.71287
G1 X0.403 Y-.567 E1.72187
G1 X0.473 Y-.51 E1.73002
G1 X0.538 Y-.441 E1.73858
G1 X0.598 Y-.357 E1.7479
G1 X0.636 Y-.283 E1.75541
G1 X0.67 Y-.186 E1.76469
G1 X0.69 Y-0.092 E1.77337
G1 X0.696 Y0.00 E1.7817
G1 X0.69 Y0.092 E1.79002
G1 X0.67 Y0.186 E1.7987
G1 X0.636 Y0.283 E1.80798
G1 X0.598 Y0.357 E1.81549
G1 X0.538 Y0.441 E1.82481
G1 X0.473 Y0.51 E1.83337
G1 X0.403 Y0.567 E1.84152
G1 X0.318 Y0.619 E1.85052
G1 X0.232 Y0.656 E1.85897
G1 X0.146 Y0.68 E1.86703
G1 X0.046 Y0.694 E1.87615
G1 X-0.046 Y0.694 E1.88445
G1 X-.146 Y0.68 E1.89357
G1 X-.232 Y0.656 E1.90163
G1 X-.318 Y0.619 E1.91009
G1 X-.403 Y0.567 E1.91908
G1 X-.473 Y0.51 E1.92723
G1 X-.538 Y0.441 E1.93579
G1 X-.598 Y0.357 E1.94511
G1 X-.636 Y0.283 E1.95262
G1 X-.67 Y0.186 E1.96191
G1 X-.69 Y0.092 E1.97058
G1 X-.696 Y0.00 E1.97891
G1 X-.69 Y-0.092 E1.98723
G1 X-.67 Y-.186 E1.99591
G1 X-.636 Y-.283 E2.00519
G1 X-.598 Y-.357 E2.0127
G1 X-.538 Y-.441 E2.02202
G1 X-.473 Y-.51 E2.03058
G1 X-.403 Y-.567 E2.03873
G1 X-.318 Y-.619 E2.04773
G1 X-.232 Y-.656 E2.05618
G1 X-.146 Y-.68 E2.06424
G1 X-0.046 Y-.694 E2.07336
G1 X0.046 Y-.694 E2.08167
G1 X0.146 Y-.68 E2.09078
G0 F1200 X0.35 Y-1.662
G1 F300 X0.564 Y-1.602 E2.11085
G1 X0.785 Y-1.506 E2.13261
G1 X0.98 Y-1.387 E2.15323
G1 X1.156 Y-1.244 E2.17371
G1 X1.317 Y-1.071 E2.19505
G1 X1.453 Y-.88 E2.21622
G1 X1.557 Y-.678 E2.23673
G1 X1.635 Y-.458 E2.25781
G1 X1.683 Y-.229 E2.27893
G1 X1.698 Y0.00 E2.29965
G1 X1.683 Y0.229 E2.32037
G1 X1.635 Y0.458 E2.3415
G1 X1.557 Y0.678 E2.36257
G1 X1.453 Y0.88 E2.38309
G1 X1.317 Y1.071 E2.40426
G1 X1.156 Y1.244 E2.4256
G1 X0.98 Y1.387 E2.44607
G1 X0.785 Y1.506 E2.4667
G1 X0.564 Y1.602 E2.48845
G1 X0.35 Y1.662 E2.50852
G1 X0.114 Y1.694 E2.53003
G1 X-.114 Y1.694 E2.55061
G1 X-.35 Y1.662 E2.57212
G1 X-.564 Y1.602 E2.59218
G1 X-.785 Y1.506 E2.61394
G1 X-.98 Y1.387 E2.63456
G1 X-1.156 Y1.244 E2.65504
G1 X-1.317 Y1.071 E2.67638
G1 X-1.453 Y0.88 E2.69755
G1 X-1.557 Y0.678 E2.71806
G1 X-1.635 Y0.458 E2.73914
G1 X-1.683 Y0.229 E2.76026
G1 X-1.698 Y0.00 E2.78098
G1 X-1.683 Y-.229 E2.80171
G1 X-1.635 Y-.458 E2.82283
G1 X-1.557 Y-.678 E2.84391
G1 X-1.453 Y-.88 E2.86442
G1 X-1.317 Y-1.071 E2.88559
G1 X-1.156 Y-1.244 E2.90693
G1 X-.98 Y-1.387 E2.9274
G1 X-.785 Y-1.506 E2.94803
G1 X-.564 Y-1.602 E2.96979
G1 X-.35 Y-1.662 E2.98985
G1 X-.114 Y-1.694 E3.01136
G1 X0.114 Y-1.694 E3.03194
G1 X0.35 Y-1.662 E3.05345
;MESH:NONMESH
G0 F1200 X0.146 Y-.68
;TIME_ELAPSED:14.216029
;LAYER:3
;MESH:cylinder_for_rect.STL
G0 X0.146 Y-.68 Z3.9
;TYPE:FILL
G1 F300 X0.232 Y-.656 E3.06151
G1 X0.318 Y-.619 E3.06996
G1 X0.403 Y-.567 E3.07896
G1 X0.473 Y-.51 E3.08711
G1 X0.538 Y-.441 E3.09567
G1 X0.598 Y-.357 E3.10499
G1 X0.636 Y-.283 E3.1125
G1 X0.67 Y-.186 E3.12178
G1 X0.69 Y-0.092 E3.13046
G1 X0.696 Y0.00 E3.13878
G1 X0.69 Y0.092 E3.14711
G1 X0.67 Y0.186 E3.15578
G1 X0.636 Y0.283 E3.16507
G1 X0.598 Y0.357 E3.17258
G1 X0.538 Y0.441 E3.1819
G1 X0.473 Y0.51 E3.19046
G1 X0.403 Y0.567 E3.19861
G1 X0.318 Y0.619 E3.2076
G1 X0.232 Y0.656 E3.21606
G1 X0.146 Y0.68 E3.22412
G1 X0.046 Y0.694 E3.23324
G1 X-0.046 Y0.694 E3.24154
G1 X-.146 Y0.68 E3.25066
G1 X-.232 Y0.656 E3.25872
G1 X-.318 Y0.619 E3.26717
G1 X-.403 Y0.567 E3.27617
G1 X-.473 Y0.51 E3.28432
G1 X-.538 Y0.441 E3.29288
G1 X-.598 Y0.357 E3.3022
G1 X-.636 Y0.283 E3.30971
G1 X-.67 Y0.186 E3.31899
G1 X-.69 Y0.092 E3.32767
G1 X-.696 Y0.00 E3.33599
G1 X-.69 Y-0.092 E3.34432
G1 X-.67 Y-.186 E3.353
G1 X-.636 Y-.283 E3.36228
G1 X-.598 Y-.357 E3.36979
G1 X-.538 Y-.441 E3.37911
G1 X-.473 Y-.51 E3.38767
G1 X-.403 Y-.567 E3.39582
G1 X-.318 Y-.619 E3.40482
G1 X-.232 Y-.656 E3.41327
G1 X-.146 Y-.68 E3.42133
G1 X-0.046 Y-.694 E3.43045
G1 X0.046 Y-.694 E3.43875
G1 X0.146 Y-.68 E3.44787
G0 F1200 X0.35 Y-1.662
G1 F300 X0.564 Y-1.602 E3.46794
G1 X0.785 Y-1.506 E3.48969
G1 X0.98 Y-1.387 E3.51032
G1 X1.156 Y-1.244 E3.5308
G1 X1.317 Y-1.071 E3.55213
G1 X1.453 Y-.88 E3.5733
G1 X1.557 Y-.678 E3.59382
G1 X1.635 Y-.458 E3.61489
G1 X1.683 Y-.229 E3.63602
G1 X1.698 Y0.00 E3.65674
G1 X1.683 Y0.229 E3.67746
G1 X1.635 Y0.458 E3.69859
G1 X1.557 Y0.678 E3.71966
G1 X1.453 Y0.88 E3.74018
G1 X1.317 Y1.071 E3.76135
G1 X1.156 Y1.244 E3.78269
G1 X0.98 Y1.387 E3.80316
G1 X0.785 Y1.506 E3.82379
G1 X0.564 Y1.602 E3.84554
G1 X0.35 Y1.662 E3.86561
G1 X0.114 Y1.694 E3.88711
G1 X-.114 Y1.694 E3.9077
G1 X-.35 Y1.662 E3.9292
G1 X-.564 Y1.602 E3.94927
G1 X-.785 Y1.506 E3.97103
G1 X-.98 Y1.387 E3.99165
G1 X-1.156 Y1.244 E4.01213
G1 X-1.317 Y1.071 E4.03347
G1 X-1.453 Y0.88 E4.05464
G1 X-1.557 Y0.678 E4.07515
G1 X-1.635 Y0.458 E4.09623
G1 X-1.683 Y0.229 E4.11735
G1 X-1.698 Y0.00 E4.13807
G1 X-1.683 Y-.229 E4.15879
G1 X-1.635 Y-.458 E4.17992
G1 X-1.557 Y-.678 E4.20099
G1 X-1.453 Y-.88 E4.22151
G1 X-1.317 Y-1.071 E4.24268
G1 X-1.156 Y-1.244 E4.26402
G1 X-.98 Y-1.387 E4.28449
G1 X-.785 Y-1.506 E4.30512
G1 X-.564 Y-1.602 E4.32687
G1 X-.35 Y-1.662 E4.34694
G1 X-.114 Y-1.694 E4.36845
G1 X0.114 Y-1.694 E4.38903
G1 X0.35 Y-1.662 E4.41054
;MESH:NONMESH
G0 F1200 X0.146 Y-.68
;TIME_ELAPSED:17.613847
;LAYER:4
;MESH:cylinder_for_rect.STL
G0 X0.146 Y-.68 Z5.1
;TYPE:FILL
G1 F300 X0.232 Y-.656 E4.4186
G1 X0.318 Y-.619 E4.42705
G1 X0.403 Y-.567 E4.43605
G1 X0.473 Y-.51 E4.4442
G1 X0.538 Y-.441 E4.45276
G1 X0.598 Y-.357 E4.46208
G1 X0.636 Y-.283 E4.46959
G1 X0.67 Y-.186 E4.47887
G1 X0.69 Y-0.092 E4.48755
G1 X0.696 Y0.00 E4.49587
G1 X0.69 Y0.092 E4.50419
G1 X0.67 Y0.186 E4.51287
G1 X0.636 Y0.283 E4.52215
G1 X0.598 Y0.357 E4.52966
G1 X0.538 Y0.441 E4.53898
G1 X0.473 Y0.51 E4.54754
G1 X0.403 Y0.567 E4.55569
G1 X0.318 Y0.619 E4.56469
G1 X0.232 Y0.656 E4.57314
G1 X0.146 Y0.68 E4.58121
G1 X0.046 Y0.694 E4.59032
G1 X-0.046 Y0.694 E4.59863
G1 X-.146 Y0.68 E4.60775
G1 X-.232 Y0.656 E4.61581
G1 X-.318 Y0.619 E4.62426
G1 X-.403 Y0.567 E4.63326
G1 X-.473 Y0.51 E4.64141
G1 X-.538 Y0.441 E4.64997
G1 X-.598 Y0.357 E4.65929
G1 X-.636 Y0.283 E4.6668
G1 X-.67 Y0.186 E4.67608
G1 X-.69 Y0.092 E4.68476
G1 X-.696 Y0.00 E4.69308
G1 X-.69 Y-0.092 E4.70141
G1 X-.67 Y-.186 E4.71008
G1 X-.636 Y-.283 E4.71936
G1 X-.598 Y-.357 E4.72688
G1 X-.538 Y-.441 E4.7362
G1 X-.473 Y-.51 E4.74476
G1 X-.403 Y-.567 E4.75291
G1 X-.318 Y-.619 E4.7619
G1 X-.232 Y-.656 E4.77036
G1 X-.146 Y-.68 E4.77842
G1 X-0.046 Y-.694 E4.78753
G1 X0.046 Y-.694 E4.79584
G1 X0.146 Y-.68 E4.80496
G0 F1200 X0.35 Y-1.662
G1 F300 X0.564 Y-1.602 E4.82503
G1 X0.785 Y-1.506 E4.84678
G1 X0.98 Y-1.387 E4.86741
G1 X1.156 Y-1.244 E4.88788
G1 X1.317 Y-1.071 E4.90922
G1 X1.453 Y-.88 E4.93039
G1 X1.557 Y-.678 E4.95091
G1 X1.635 Y-.458 E4.97198
G1 X1.683 Y-.229 E4.99311
G1 X1.698 Y0.00 E5.01383
G1 X1.683 Y0.229 E5.03455
G1 X1.635 Y0.458 E5.05567
G1 X1.557 Y0.678 E5.07675
G1 X1.453 Y0.88 E5.09726
G1 X1.317 Y1.071 E5.11843
G1 X1.156 Y1.244 E5.13977
G1 X0.98 Y1.387 E5.16025
G1 X0.785 Y1.506 E5.18087
G1 X0.564 Y1.602 E5.20263
G1 X0.35 Y1.662 E5.2227
G1 X0.114 Y1.694 E5.2442
G1 X-.114 Y1.694 E5.26479
G1 X-.35 Y1.662 E5.28629
G1 X-.564 Y1.602 E5.30636
G1 X-.785 Y1.506 E5.32811
G1 X-.98 Y1.387 E5.34874
G1 X-1.156 Y1.244 E5.36922
G1 X-1.317 Y1.071 E5.39055
G1 X-1.453 Y0.88 E5.41172
G1 X-1.557 Y0.678 E5.43224
G1 X-1.635 Y0.458 E5.45331
G1 X-1.683 Y0.229 E5.47444
G1 X-1.698 Y0.00 E5.49516
G1 X-1.683 Y-.229 E5.51588
G1 X-1.635 Y-.458 E5.53701
G1 X-1.557 Y-.678 E5.55808
G1 X-1.453 Y-.88 E5.5786
G1 X-1.317 Y-1.071 E5.59977
G1 X-1.156 Y-1.244 E5.62111
G1 X-.98 Y-1.387 E5.64158
G1 X-.785 Y-1.506 E5.66221
G1 X-.564 Y-1.602 E5.68396
G1 X-.35 Y-1.662 E5.70403
G1 X-.114 Y-1.694 E5.72553
G1 X0.114 Y-1.694 E5.74612
G1 X0.35 Y-1.662 E5.76762
;MESH:NONMESH
G0 F1200 X0.146 Y-.68
;TIME_ELAPSED:21.011665
;LAYER:5
;MESH:cylinder_for_rect.STL
G0 X0.146 Y-.68 Z6.3
;TYPE:FILL
G1 F300 X0.232 Y-.656 E5.77568
G1 X0.318 Y-.619 E5.78414
G1 X0.403 Y-.567 E5.79313
G1 X0.473 Y-.51 E5.80129
G1 X0.538 Y-.441 E5.80984
G1 X0.598 Y-.357 E5.81917
G1 X0.636 Y-.283 E5.82668
G1 X0.67 Y-.186 E5.83596
G1 X0.69 Y-0.092 E5.84463
G1 X0.696 Y0.00 E5.85296
G1 X0.69 Y0.092 E5.86128
G1 X0.67 Y0.186 E5.86996
G1 X0.636 Y0.283 E5.87924
G1 X0.598 Y0.357 E5.88675
G1 X0.538 Y0.441 E5.89607
G1 X0.473 Y0.51 E5.90463
G1 X0.403 Y0.567 E5.91278
G1 X0.318 Y0.619 E5.92178
G1 X0.232 Y0.656 E5.93023
G1 X0.146 Y0.68 E5.93829
G1 X0.046 Y0.694 E5.94741
G1 X-0.046 Y0.694 E5.95572
G1 X-.146 Y0.68 E5.96483
G1 X-.232 Y0.656 E5.9729
G1 X-.318 Y0.619 E5.98135
G1 X-.403 Y0.567 E5.99035
G1 X-.473 Y0.51 E5.9985
G1 X-.538 Y0.441 E6.00706
G1 X-.598 Y0.357 E6.01638
G1 X-.636 Y0.283 E6.02389
G1 X-.67 Y0.186 E6.03317
G1 X-.69 Y0.092 E6.04185
G1 X-.696 Y0.00 E6.05017
G1 X-.69 Y-0.092 E6.05849
G1 X-.67 Y-.186 E6.06717
G1 X-.636 Y-.283 E6.07645
G1 X-.598 Y-.357 E6.08396
G1 X-.538 Y-.441 E6.09328
G1 X-.473 Y-.51 E6.10184
G1 X-.403 Y-.567 E6.10999
G1 X-.318 Y-.619 E6.11899
G1 X-.232 Y-.656 E6.12744
G1 X-.146 Y-.68 E6.13551
G1 X-0.046 Y-.694 E6.14462
G1 X0.046 Y-.694 E6.15293
G1 X0.146 Y-.68 E6.16205
G0 F1200 X0.35 Y-1.662
G1 F300 X0.564 Y-1.602 E6.18211
G1 X0.785 Y-1.506 E6.20387
G1 X0.98 Y-1.387 E6.2245
G1 X1.156 Y-1.244 E6.24497
G1 X1.317 Y-1.071 E6.26631
G1 X1.453 Y-.88 E6.28748
G1 X1.557 Y-.678 E6.30799
G1 X1.635 Y-.458 E6.32907
G1 X1.683 Y-.229 E6.35019
G1 X1.698 Y0.00 E6.37092
G1 X1.683 Y0.229 E6.39164
G1 X1.635 Y0.458 E6.41276
G1 X1.557 Y0.678 E6.43384
G1 X1.453 Y0.88 E6.45435
G1 X1.317 Y1.071 E6.47552
G1 X1.156 Y1.244 E6.49686
G1 X0.98 Y1.387 E6.51734
G1 X0.785 Y1.506 E6.53796
G1 X0.564 Y1.602 E6.55972
G1 X0.35 Y1.662 E6.57979
G1 X0.114 Y1.694 E6.60129
G1 X-.114 Y1.694 E6.62187
G1 X-.35 Y1.662 E6.64338
G1 X-.564 Y1.602 E6.66345
G1 X-.785 Y1.506 E6.6852
G1 X-.98 Y1.387 E6.70583
G1 X-1.156 Y1.244 E6.7263
G1 X-1.317 Y1.071 E6.74764
G1 X-1.453 Y0.88 E6.76881
G1 X-1.557 Y0.678 E6.78933
G1 X-1.635 Y0.458 E6.8104
G1 X-1.683 Y0.229 E6.83153
G1 X-1.698 Y0.00 E6.85225
G1 X-1.683 Y-.229 E6.87297
G1 X-1.635 Y-.458 E6.89409
G1 X-1.557 Y-.678 E6.91517
G1 X-1.453 Y-.88 E6.93568
G1 X-1.317 Y-1.071 E6.95685
G1 X-1.156 Y-1.244 E6.97819
G1 X-.98 Y-1.387 E6.99867
G1 X-.785 Y-1.506 E7.01929
G1 X-.564 Y-1.602 E7.04105
G1 X-.35 Y-1.662 E7.06112
G1 X-.114 Y-1.694 E7.08262
G1 X0.114 Y-1.694 E7.10321
G1 X0.35 Y-1.662 E7.12471
;MESH:NONMESH
G0 F1200 X0.146 Y-.68
;TIME_ELAPSED:24.409482
;LAYER:6
;MESH:cylinder_for_rect.STL
G0 X0.146 Y-.68 Z7.5
;TYPE:FILL
G1 F300 X0.232 Y-.656 E7.13277
G1 X0.318 Y-.619 E7.14123
G1 X0.403 Y-.567 E7.15022
G1 X0.473 Y-.51 E7.15837
G1 X0.538 Y-.441 E7.16693
G1 X0.598 Y-.357 E7.17625
G1 X0.636 Y-.283 E7.18376
G1 X0.67 Y-.186 E7.19304
G1 X0.69 Y-0.092 E7.20172
G1 X0.696 Y0.00 E7.21005
G1 X0.69 Y0.092 E7.21837
G1 X0.67 Y0.186 E7.22705
G1 X0.636 Y0.283 E7.23633
G1 X0.598 Y0.357 E7.24384
G1 X0.538 Y0.441 E7.25316
G1 X0.473 Y0.51 E7.26172
G1 X0.403 Y0.567 E7.26987
G1 X0.318 Y0.619 E7.27887
G1 X0.232 Y0.656 E7.28732
G1 X0.146 Y0.68 E7.29538
G1 X0.046 Y0.694 E7.3045
G1 X-0.046 Y0.694 E7.31281
G1 X-.146 Y0.68 E7.32192
G1 X-.232 Y0.656 E7.32998
G1 X-.318 Y0.619 E7.33844
G1 X-.403 Y0.567 E7.34743
G1 X-.473 Y0.51 E7.35558
G1 X-.538 Y0.441 E7.36414
G1 X-.598 Y0.357 E7.37346
G1 X-.636 Y0.283 E7.38098
G1 X-.67 Y0.186 E7.39026
G1 X-.69 Y0.092 E7.39893
G1 X-.696 Y0.00 E7.40726
G1 X-.69 Y-0.092 E7.41558
G1 X-.67 Y-.186 E7.42426
G1 X-.636 Y-.283 E7.43354
G1 X-.598 Y-.357 E7.44105
G1 X-.538 Y-.441 E7.45037
G1 X-.473 Y-.51 E7.45893
G1 X-.403 Y-.567 E7.46708
G1 X-.318 Y-.619 E7.47608
G1 X-.232 Y-.656 E7.48453
G1 X-.146 Y-.68 E7.49259
G1 X-0.046 Y-.694 E7.50171
G1 X0.046 Y-.694 E7.51002
G1 X0.146 Y-.68 E7.51913
G0 F1200 X0.35 Y-1.662
G1 F300 X0.564 Y-1.602 E7.5392
G1 X0.785 Y-1.506 E7.56096
G1 X0.98 Y-1.387 E7.58158
G1 X1.156 Y-1.244 E7.60206
G1 X1.317 Y-1.071 E7.6234
G1 X1.453 Y-.88 E7.64457
G1 X1.557 Y-.678 E7.66508
G1 X1.635 Y-.458 E7.68616
G1 X1.683 Y-.229 E7.70728
G1 X1.698 Y0.00 E7.728
G1 X1.683 Y0.229 E7.74872
G1 X1.635 Y0.458 E7.76985
G1 X1.557 Y0.678 E7.79093
G1 X1.453 Y0.88 E7.81144
G1 X1.317 Y1.071 E7.83261
G1 X1.156 Y1.244 E7.85395
G1 X0.98 Y1.387 E7.87442
G1 X0.785 Y1.506 E7.89505
G1 X0.564 Y1.602 E7.91681
G1 X0.35 Y1.662 E7.93687
G1 X0.114 Y1.694 E7.95838
G1 X-.114 Y1.694 E7.97896
G1 X-.35 Y1.662 E8.00047
G1 X-.564 Y1.602 E8.02053
G1 X-.785 Y1.506 E8.04229
G1 X-.98 Y1.387 E8.06292
G1 X-1.156 Y1.244 E8.08339
G1 X-1.317 Y1.071 E8.10473
G1 X-1.453 Y0.88 E8.1259
G1 X-1.557 Y0.678 E8.14641
G1 X-1.635 Y0.458 E8.16749
G1 X-1.683 Y0.229 E8.18861
G1 X-1.698 Y0.00 E8.20934
G1 X-1.683 Y-.229 E8.23006
G1 X-1.635 Y-.458 E8.25118
G1 X-1.557 Y-.678 E8.27226
G1 X-1.453 Y-.88 E8.29277
G1 X-1.317 Y-1.071 E8.31394
G1 X-1.156 Y-1.244 E8.33528
G1 X-.98 Y-1.387 E8.35576
G1 X-.785 Y-1.506 E8.37638
G1 X-.564 Y-1.602 E8.39814
G1 X-.35 Y-1.662 E8.4182
G1 X-.114 Y-1.694 E8.43971
G1 X0.114 Y-1.694 E8.46029
G1 X0.35 Y-1.662 E8.4818
;MESH:NONMESH
G0 F1200 X0.146 Y-.68
;TIME_ELAPSED:27.807300
;LAYER:7
;MESH:cylinder_for_rect.STL
G0 X0.146 Y-.68 Z8.7
;TYPE:FILL
G1 F300 X0.232 Y-.656 E8.48986
G1 X0.318 Y-.619 E8.49831
G1 X0.403 Y-.567 E8.50731
G1 X0.473 Y-.51 E8.51546
G1 X0.538 Y-.441 E8.52402
G1 X0.598 Y-.357 E8.53334
G1 X0.636 Y-.283 E8.54085
G1 X0.67 Y-.186 E8.55013
G1 X0.69 Y-0.092 E8.55881
G1 X0.696 Y0.00 E8.56713
G1 X0.69 Y0.092 E8.57546
G1 X0.67 Y0.186 E8.58414
G1 X0.636 Y0.283 E8.59342
G1 X0.598 Y0.357 E8.60093
G1 X0.538 Y0.441 E8.61025
G1 X0.473 Y0.51 E8.61881
G1 X0.403 Y0.567 E8.62696
G1 X0.318 Y0.619 E8.63595
G1 X0.232 Y0.656 E8.64441
G1 X0.146 Y0.68 E8.65247
G1 X0.046 Y0.694 E8.66159
G1 X-0.046 Y0.694 E8.66989
G1 X-.146 Y0.68 E8.67901
G1 X-.232 Y0.656 E8.68707
G1 X-.318 Y0.619 E8.69553
G1 X-.403 Y0.567 E8.70452
G1 X-.473 Y0.51 E8.71267
G1 X-.538 Y0.441 E8.72123
G1 X-.598 Y0.357 E8.73055
G1 X-.636 Y0.283 E8.73806
G1 X-.67 Y0.186 E8.74734
G1 X-.69 Y0.092 E8.75602
G1 X-.696 Y0.00 E8.76435
G1 X-.69 Y-0.092 E8.77267
G1 X-.67 Y-.186 E8.78135
G1 X-.636 Y-.283 E8.79063
G1 X-.598 Y-.357 E8.79814
G1 X-.538 Y-.441 E8.80746
G1 X-.473 Y-.51 E8.81602
G1 X-.403 Y-.567 E8.82417
G1 X-.318 Y-.619 E8.83317
G1 X-.232 Y-.656 E8.84162
G1 X-.146 Y-.68 E8.84968
G1 X-0.046 Y-.694 E8.8588
G1 X0.046 Y-.694 E8.8671
G1 X0.146 Y-.68 E8.87622
G0 F1200 X0.35 Y-1.662
G1 F300 X0.564 Y-1.602 E8.89629
G1 X0.785 Y-1.506 E8.91804
G1 X0.98 Y-1.387 E8.93867
G1 X1.156 Y-1.244 E8.95915
G1 X1.317 Y-1.071 E8.98048
G1 X1.453 Y-.88 E9.00165
G1 X1.557 Y-.678 E9.02217
G1 X1.635 Y-.458 E9.04324
G1 X1.683 Y-.229 E9.06437
G1 X1.698 Y0.00 E9.08509
G1 X1.683 Y0.229 E9.10581
G1 X1.635 Y0.458 E9.12694
G1 X1.557 Y0.678 E9.14801
G1 X1.453 Y0.88 E9.16853
G1 X1.317 Y1.071 E9.1897
G1 X1.156 Y1.244 E9.21104
G1 X0.98 Y1.387 E9.23151
G1 X0.785 Y1.506 E9.25214
G1 X0.564 Y1.602 E9.27389
G1 X0.35 Y1.662 E9.29396
G1 X0.114 Y1.694 E9.31546
G1 X-.114 Y1.694 E9.33605
G1 X-.35 Y1.662 E9.35755
G1 X-.564 Y1.602 E9.37762
G1 X-.785 Y1.506 E9.39938
G1 X-.98 Y1.387 E9.42
G1 X-1.156 Y1.244 E9.44048
G1 X-1.317 Y1.071 E9.46182
G1 X-1.453 Y0.88 E9.48299
G1 X-1.557 Y0.678 E9.5035
G1 X-1.635 Y0.458 E9.52458
G1 X-1.683 Y0.229 E9.5457
G1 X-1.698 Y0.00 E9.56642
G1 X-1.683 Y-.229 E9.58714
G1 X-1.635 Y-.458 E9.60827
G1 X-1.557 Y-.678 E9.62935
G1 X-1.453 Y-.88 E9.64986
G1 X-1.317 Y-1.071 E9.67103
G1 X-1.156 Y-1.244 E9.69237
G1 X-.98 Y-1.387 E9.71284
G1 X-.785 Y-1.506 E9.73347
G1 X-.564 Y-1.602 E9.75523
G1 X-.35 Y-1.662 E9.77529
G1 X-.114 Y-1.694 E9.7968
G1 X0.114 Y-1.694 E9.81738
G1 X0.35 Y-1.662 E9.83889
;MESH:NONMESH
G0 F1200 X0.146 Y-.68
;TIME_ELAPSED:31.205118
;LAYER:8
;MESH:cylinder_for_rect.STL
G0 X0.146 Y-.68 Z9.9
;TYPE:FILL
G1 F300 X0.232 Y-.656 E9.84695
G1 X0.318 Y-.619 E9.8554
G1 X0.403 Y-.567 E9.8644
G1 X0.473 Y-.51 E9.87255
G1 X0.538 Y-.441 E9.88111
G1 X0.598 Y-.357 E9.89043
G1 X0.636 Y-.283 E9.89794
G1 X0.67 Y-.186 E9.90722
G1 X0.69 Y-0.092 E9.9159
G1 X0.696 Y0.00 E9.92422
G1 X0.69 Y0.092 E9.93255
G1 X0.67 Y0.186 E9.94122
G1 X0.636 Y0.283 E9.9505
G1 X0.598 Y0.357 E9.95801
G1 X0.538 Y0.441 E9.96734
G1 X0.473 Y0.51 E9.97589
G1 X0.403 Y0.567 E9.98405
G1 X0.318 Y0.619 E9.99304
G1 X0.232 Y0.656 E10.0015
G1 X0.146 Y0.68 E10.00956
G1 X0.046 Y0.694 E10.01867
G1 X-0.046 Y0.694 E10.02698
G1 X-.146 Y0.68 E10.0361
G1 X-.232 Y0.656 E10.04416
G1 X-.318 Y0.619 E10.05261
G1 X-.403 Y0.567 E10.06161
G1 X-.473 Y0.51 E10.06976
G1 X-.538 Y0.441 E10.07832
G1 X-.598 Y0.357 E10.08764
G1 X-.636 Y0.283 E10.09515
G1 X-.67 Y0.186 E10.10443
G1 X-.69 Y0.092 E10.11311
G1 X-.696 Y0.00 E10.12143
G1 X-.69 Y-0.092 E10.12976
G1 X-.67 Y-.186 E10.13844
G1 X-.636 Y-.283 E10.14772
G1 X-.598 Y-.357 E10.15523
G1 X-.538 Y-.441 E10.16455
G1 X-.473 Y-.51 E10.17311
G1 X-.403 Y-.567 E10.18126
G1 X-.318 Y-.619 E10.19025
G1 X-.232 Y-.656 E10.19871
G1 X-.146 Y-.68 E10.20677
G1 X-0.046 Y-.694 E10.21589
G1 X0.046 Y-.694 E10.22419
G1 X0.146 Y-.68 E10.23331
G0 F1200 X0.35 Y-1.662
G1 F300 X0.564 Y-1.602 E10.25338
G1 X0.785 Y-1.506 E10.27513
G1 X0.98 Y-1.387 E10.29576
G1 X1.156 Y-1.244 E10.31623
G1 X1.317 Y-1.071 E10.33757
G1 X1.453 Y-.88 E10.35874
G1 X1.557 Y-.678 E10.37926
G1 X1.635 Y-.458 E10.40033
G1 X1.683 Y-.229 E10.42146
G1 X1.698 Y0.00 E10.44218
G1 X1.683 Y0.229 E10.4629
G1 X1.635 Y0.458 E10.48403
G1 X1.557 Y0.678 E10.5051
G1 X1.453 Y0.88 E10.52562
G1 X1.317 Y1.071 E10.54679
G1 X1.156 Y1.244 E10.56812
G1 X0.98 Y1.387 E10.5886
G1 X0.785 Y1.506 E10.60923
G1 X0.564 Y1.602 E10.63098
G1 X0.35 Y1.662 E10.65105
G1 X0.114 Y1.694 E10.67255
G1 X-.114 Y1.694 E10.69314
G1 X-.35 Y1.662 E10.71464
G1 X-.564 Y1.602 E10.73471
G1 X-.785 Y1.506 E10.75646
G1 X-.98 Y1.387 E10.77709
G1 X-1.156 Y1.244 E10.79757
G1 X-1.317 Y1.071 E10.8189
G1 X-1.453 Y0.88 E10.84007
G1 X-1.557 Y0.678 E10.86059
G1 X-1.635 Y0.458 E10.88166
G1 X-1.683 Y0.229 E10.90279
G1 X-1.698 Y0.00 E10.92351
G1 X-1.683 Y-.229 E10.94423
G1 X-1.635 Y-.458 E10.96536
G1 X-1.557 Y-.678 E10.98643
G1 X-1.453 Y-.88 E11.00695
G1 X-1.317 Y-1.071 E11.02812
G1 X-1.156 Y-1.244 E11.04946
G1 X-.98 Y-1.387 E11.06993
G1 X-.785 Y-1.506 E11.09056
G1 X-.564 Y-1.602 E11.11231
G1 X-.35 Y-1.662 E11.13238
G1 X-.114 Y-1.694 E11.15388
G1 X0.114 Y-1.694 E11.17447
G1 X0.35 Y-1.662 E11.19597
;TIME_ELAPSED:34.549506
M140 S0
M107
M104 S0 ;extruder heater off
M140 S0 ;heated bed heater off (if you have it)
G91 ;relative positioning
G1 E-1 F300  ;retract the filament a bit before lifting the nozzle, to release some of the pressure
G1 Z+0.5 E-5 X-20 Y-20 F9000 ;move Z up a bit and retract filament even more
G28 X0 Y0 ;move X/Y to min endstops, so the head is out of the way
M84 ;steppers off
G90 ;absolute positioning
M82 ;absolute extrusion mode
M104 S0
;End of Gcode
;SETTING_3 {"global_quality": "[general]\\nversion = 4\\nname = Carolyn - Syring
;SETTING_3 e\\ndefinition = fdmprinter\\n\\n[metadata]\\nquality_type = verydraf
;SETTING_3 t\\ntype = quality_changes\\nsetting_version = 5\\n\\n[values]\\nadhe
;SETTING_3 sion_type = none\\nlayer_height = 1.2\\nmaterial_bed_temperature = 0\
;SETTING_3 \nsupport_enable = False\\n\\n", "extruder_quality": ["[general]\\nve
;SETTING_3 rsion = 4\\nname = Carolyn - Syringe\\ndefinition = fdmprinter\\n\\n[
;SETTING_3 metadata]\\nquality_type = verydraft\\ntype = quality_changes\\nsetti
;SETTING_3 ng_version = 5\\nposition = 0\\n\\n[values]\\nbrim_width = 0\\ninfill
;SETTING_3 _angles = [0,90]\\ninfill_line_distance = 1\\ninfill_pattern = concen
;SETTING_3 tric\\ninfill_sparse_density = 70\\nmaterial_flow = 120\\nretraction_
;SETTING_3 enable = False\\nskirt_line_count = 2\\nspeed_print = 5\\nspeed_trave
;SETTING_3 l = 20\\ntop_bottom_thickness = 0.0\\nwall_thickness = 0.0\\n\\n"]}
