;FLAVOR:Marlin
;TIME:385
;Filament used: 0.153096m
;Layer height: 0.8
;Generated with Cura_SteamEngine 3.6.0
M104 S200
M105
M109 S200
M82 ;absolute extrusion mode
G21 ;metric values
G90 ;absolute positioning
M82 ;set extruder to absolute mode
M107 ;start with the fan off
G28 ;move XYZ to min endstops
G1 Z15.0 F9000 ;move the platform down 15mm
G1 F9000
;Put printing message on LCD screen
M117 Printing...
G92 E0
;LAYER_COUNT:11
;LAYER:0
M107
G0 F600 X8.518 Y-14.133 Z0.1
;TYPE:SKIRT
G1 F300 X8.944 Y-13.868 E0.00377
G1 X10.217 Y-12.96 E0.01554
G1 X10.608 Y-12.642 E0.01933
G1 X11.76 Y-11.578 E0.03113
G1 X12.105 Y-11.217 E0.03489
G1 X13.106 Y-10.029 E0.04658
G1 X13.405 Y-9.625 E0.05036
G1 X14.269 Y-8.29 E0.06232
G1 X14.516 Y-7.849 E0.06613
G1 X15.193 Y-6.44 E0.07789
G1 X15.381 Y-5.979 E0.08164
G1 X15.881 Y-4.487 E0.09348
G1 X16.01 Y-4.003 E0.09724
G1 X16.316 Y-2.479 E0.10894
G1 X16.384 Y-1.98 E0.11273
G1 X16.499 Y-.388 E0.12474
G1 X16.503 Y0.12 E0.12856
G1 X16.417 Y1.68 E0.14032
G1 X16.359 Y2.174 E0.14406
G1 X16.079 Y3.718 E0.15587
G1 X15.959 Y4.204 E0.15963
G1 X15.492 Y5.689 E0.17135
G1 X15.31 Y6.16 E0.17515
G1 X14.642 Y7.613 E0.18718
G1 X14.402 Y8.058 E0.19098
G1 X13.584 Y9.37 E0.20262
G1 X13.294 Y9.777 E0.20638
G1 X12.287 Y11.016 E0.21839
G1 X11.947 Y11.384 E0.22216
G1 X10.828 Y12.454 E0.23381
G1 X10.444 Y12.778 E0.23759
G1 X9.176 Y13.717 E0.24946
G1 X8.755 Y13.989 E0.25323
G1 X7.388 Y14.757 E0.26503
G1 X6.936 Y14.975 E0.26881
G1 X5.48 Y15.567 E0.28063
G1 X4.998 Y15.728 E0.28446
G1 X3.471 Y16.133 E0.29634
G1 X2.982 Y16.231 E0.30009
G1 X1.43 Y16.441 E0.31188
G1 X0.93 Y16.477 E0.31565
G1 X-.637 Y16.491 E0.32744
G1 X-1.142 Y16.463 E0.33125
G1 X-2.726 Y16.276 E0.34325
G1 X-3.224 Y16.185 E0.34706
G1 X-4.733 Y15.809 E0.35876
G1 X-5.205 Y15.66 E0.36248
G1 X-6.655 Y15.101 E0.37418
G1 X-7.113 Y14.89 E0.37797
G1 X-8.518 Y14.133 E0.38998
G1 X-8.944 Y13.868 E0.39375
G1 X-10.217 Y12.96 E0.40552
G1 X-10.608 Y12.642 E0.40931
G1 X-11.762 Y11.576 E0.42113
G1 X-12.107 Y11.215 E0.42489
G1 X-13.106 Y10.029 E0.43656
G1 X-13.405 Y9.625 E0.44034
G1 X-14.27 Y8.288 E0.45232
G1 X-14.517 Y7.847 E0.45612
G1 X-15.194 Y6.438 E0.46788
G1 X-15.382 Y5.976 E0.47164
G1 X-15.882 Y4.483 E0.48348
G1 X-16.011 Y3.998 E0.48726
G1 X-16.316 Y2.475 E0.49895
G1 X-16.384 Y1.979 E0.50271
G1 X-16.499 Y0.389 E0.51471
G1 X-16.503 Y-.12 E0.51854
G1 X-16.417 Y-1.68 E0.53029
G1 X-16.359 Y-2.174 E0.53404
G1 X-16.079 Y-3.718 E0.54584
G1 X-15.959 Y-4.204 E0.54961
G1 X-15.489 Y-5.698 E0.56139
G1 X-15.306 Y-6.171 E0.56521
G1 X-14.641 Y-7.615 E0.57717
G1 X-14.402 Y-8.058 E0.58096
G1 X-13.584 Y-9.37 E0.59259
G1 X-13.294 Y-9.777 E0.59635
G1 X-12.287 Y-11.016 E0.60837
G1 X-11.947 Y-11.384 E0.61214
G1 X-10.828 Y-12.454 E0.62379
G1 X-10.444 Y-12.778 E0.62757
G1 X-9.176 Y-13.717 E0.63944
G1 X-8.755 Y-13.989 E0.64321
G1 X-7.388 Y-14.757 E0.65501
G1 X-6.936 Y-14.975 E0.65878
G1 X-5.48 Y-15.567 E0.67061
G1 X-4.998 Y-15.728 E0.67443
G1 X-3.471 Y-16.133 E0.68632
G1 X-2.982 Y-16.231 E0.69007
G1 X-1.43 Y-16.441 E0.70186
G1 X-.93 Y-16.477 E0.70563
G1 X0.637 Y-16.491 E0.71742
G1 X1.142 Y-16.463 E0.72122
G1 X2.726 Y-16.276 E0.73323
G1 X3.223 Y-16.186 E0.73703
G1 X4.73 Y-15.811 E0.74871
G1 X5.203 Y-15.661 E0.75244
G1 X6.653 Y-15.102 E0.76414
G1 X7.111 Y-14.891 E0.76793
G1 X8.518 Y-14.133 E0.77996
G0 F600 X8.328 Y-13.781
G1 F300 X8.711 Y-13.543 E0.78335
G1 X9.984 Y-12.635 E0.79511
G1 X10.337 Y-12.349 E0.79853
G1 X11.489 Y-11.285 E0.81033
G1 X11.799 Y-10.96 E0.81371
G1 X12.8 Y-9.772 E0.8254
G1 X13.069 Y-9.408 E0.82881
G1 X13.933 Y-8.073 E0.84077
G1 X14.156 Y-7.676 E0.8442
G1 X14.833 Y-6.267 E0.85596
G1 X15.001 Y-5.852 E0.85933
G1 X15.501 Y-4.36 E0.87117
G1 X15.618 Y-3.925 E0.87456
G1 X15.924 Y-2.401 E0.88625
G1 X15.985 Y-1.951 E0.88967
G1 X16.1 Y-.359 E0.90168
G1 X16.104 Y0.098 E0.90512
G1 X16.018 Y1.658 E0.91687
G1 X15.965 Y2.102 E0.92024
G1 X15.685 Y3.646 E0.93204
G1 X15.577 Y4.084 E0.93544
G1 X15.11 Y5.569 E0.94715
G1 X14.947 Y5.993 E0.95057
G1 X14.279 Y7.446 E0.9626
G1 X14.063 Y7.847 E0.96603
G1 X13.245 Y9.159 E0.97766
G1 X12.984 Y9.525 E0.98105
G1 X11.977 Y10.764 E0.99306
G1 X11.671 Y11.095 E0.99645
G1 X10.552 Y12.165 E1.0081
G1 X10.206 Y12.456 E1.0115
G1 X8.938 Y13.395 E1.02337
G1 X8.559 Y13.641 E1.02677
G1 X7.192 Y14.409 E1.03857
G1 X6.785 Y14.605 E1.04197
G1 X5.329 Y15.197 E1.0538
G1 X4.896 Y15.342 E1.05723
G1 X3.369 Y15.747 E1.06912
G1 X2.929 Y15.834 E1.07249
G1 X1.377 Y16.044 E1.08428
G1 X0.926 Y16.077 E1.08768
G1 X-.641 Y16.091 E1.09947
G1 X-1.095 Y16.066 E1.10289
G1 X-2.679 Y15.879 E1.11489
G1 X-3.127 Y15.797 E1.11832
G1 X-4.636 Y15.421 E1.13002
G1 X-5.061 Y15.287 E1.13337
G1 X-6.511 Y14.728 E1.14507
G1 X-6.924 Y14.538 E1.14849
G1 X-8.329 Y13.781 E1.1605
G1 X-8.711 Y13.543 E1.16388
G1 X-9.984 Y12.635 E1.17565
G1 X-10.337 Y12.348 E1.17907
G1 X-11.491 Y11.282 E1.19089
G1 X-11.801 Y10.957 E1.19427
G1 X-12.8 Y9.771 E1.20594
G1 X-13.07 Y9.408 E1.20934
G1 X-13.935 Y8.071 E1.22132
G1 X-14.157 Y7.674 E1.22475
G1 X-14.834 Y6.265 E1.23651
G1 X-15.003 Y5.849 E1.23989
G1 X-15.503 Y4.356 E1.25173
G1 X-15.619 Y3.92 E1.25513
G1 X-15.924 Y2.397 E1.26682
G1 X-15.985 Y1.95 E1.27021
G1 X-16.1 Y0.36 E1.2822
G1 X-16.104 Y-0.098 E1.28565
G1 X-16.018 Y-1.658 E1.29741
G1 X-15.965 Y-2.102 E1.30077
G1 X-15.685 Y-3.646 E1.31258
G1 X-15.577 Y-4.084 E1.31597
G1 X-15.107 Y-5.578 E1.32776
G1 X-14.943 Y-6.004 E1.33119
G1 X-14.278 Y-7.448 E1.34315
G1 X-14.063 Y-7.847 E1.34656
G1 X-13.245 Y-9.159 E1.3582
G1 X-12.984 Y-9.525 E1.36158
G1 X-11.977 Y-10.764 E1.37359
G1 X-11.671 Y-11.095 E1.37698
G1 X-10.552 Y-12.165 E1.38863
G1 X-10.206 Y-12.456 E1.39203
G1 X-8.938 Y-13.395 E1.40391
G1 X-8.559 Y-13.641 E1.40731
G1 X-7.192 Y-14.409 E1.4191
G1 X-6.785 Y-14.605 E1.4225
G1 X-5.329 Y-15.197 E1.43433
G1 X-4.896 Y-15.342 E1.43777
G1 X-3.369 Y-15.747 E1.44965
G1 X-2.929 Y-15.834 E1.45303
G1 X-1.377 Y-16.044 E1.46481
G1 X-.926 Y-16.077 E1.46821
G1 X0.641 Y-16.091 E1.48
G1 X1.095 Y-16.066 E1.48343
G1 X2.679 Y-15.879 E1.49543
G1 X3.126 Y-15.797 E1.49885
G1 X4.633 Y-15.422 E1.51053
G1 X5.059 Y-15.288 E1.51389
G1 X6.509 Y-14.729 E1.52558
G1 X6.921 Y-14.539 E1.529
G1 X8.328 Y-13.781 E1.54102
G0 F600 X8.139 Y-13.429
G1 F300 X8.479 Y-13.217 E1.54404
G1 X9.752 Y-12.309 E1.5558
G1 X10.065 Y-12.055 E1.55884
G1 X11.217 Y-10.991 E1.57063
G1 X11.493 Y-10.702 E1.57364
G1 X12.494 Y-9.514 E1.58533
G1 X12.733 Y-9.191 E1.58835
G1 X13.597 Y-7.856 E1.60032
G1 X13.795 Y-7.503 E1.60336
G1 X14.472 Y-6.094 E1.61513
G1 X14.622 Y-5.725 E1.61812
G1 X15.122 Y-4.233 E1.62996
G1 X15.225 Y-3.846 E1.63298
G1 X15.531 Y-2.322 E1.64467
G1 X15.586 Y-1.923 E1.6477
G1 X15.701 Y-.331 E1.65971
G1 X15.704 Y0.076 E1.66277
G1 X15.618 Y1.636 E1.67453
G1 X15.572 Y2.031 E1.67752
G1 X15.292 Y3.575 E1.68933
G1 X15.196 Y3.964 E1.69234
G1 X14.729 Y5.449 E1.70406
G1 X14.583 Y5.826 E1.7071
G1 X13.915 Y7.279 E1.71913
G1 X13.723 Y7.635 E1.72217
G1 X12.905 Y8.947 E1.73381
G1 X12.673 Y9.272 E1.73681
G1 X11.666 Y10.511 E1.74883
G1 X11.395 Y10.806 E1.75184
G1 X10.276 Y11.876 E1.76349
G1 X9.968 Y12.135 E1.76652
G1 X8.7 Y13.074 E1.77839
G1 X8.363 Y13.292 E1.78141
G1 X6.996 Y14.06 E1.79321
G1 X6.634 Y14.234 E1.79623
G1 X5.178 Y14.826 E1.80806
G1 X4.793 Y14.955 E1.81111
G1 X3.266 Y15.36 E1.823
G1 X2.875 Y15.438 E1.826
G1 X1.323 Y15.648 E1.83778
G1 X0.923 Y15.677 E1.8408
G1 X-.644 Y15.691 E1.85259
G1 X-1.048 Y15.669 E1.85563
G1 X-2.632 Y15.482 E1.86763
G1 X-3.031 Y15.409 E1.87069
G1 X-4.54 Y15.033 E1.88239
G1 X-4.917 Y14.914 E1.88536
G1 X-6.367 Y14.355 E1.89706
G1 X-6.734 Y14.186 E1.9001
G1 X-8.139 Y13.429 E1.9121
G1 X-8.479 Y13.217 E1.91512
G1 X-9.752 Y12.309 E1.92688
G1 X-10.065 Y12.055 E1.92992
G1 X-11.219 Y10.989 E1.94174
G1 X-11.495 Y10.7 E1.94474
G1 X-12.494 Y9.514 E1.95641
G1 X-12.734 Y9.19 E1.95945
G1 X-13.599 Y7.853 E1.97143
G1 X-13.796 Y7.501 E1.97446
G1 X-14.473 Y6.092 E1.98622
G1 X-14.623 Y5.722 E1.98923
G1 X-15.123 Y4.229 E2.00108
G1 X-15.227 Y3.841 E2.0041
G1 X-15.532 Y2.318 E2.01578
G1 X-15.586 Y1.921 E2.0188
G1 X-15.701 Y0.331 E2.03079
G1 X-15.704 Y-0.076 E2.03386
G1 X-15.618 Y-1.636 E2.04561
G1 X-15.572 Y-2.031 E2.0486
G1 X-15.292 Y-3.575 E2.06041
G1 X-15.196 Y-3.964 E2.06343
G1 X-14.726 Y-5.458 E2.07521
G1 X-14.58 Y-5.837 E2.07827
G1 X-13.915 Y-7.281 E2.09023
G1 X-13.723 Y-7.635 E2.09326
G1 X-12.905 Y-8.947 E2.10489
G1 X-12.673 Y-9.272 E2.1079
G1 X-11.666 Y-10.511 E2.11991
G1 X-11.395 Y-10.806 E2.12292
G1 X-10.276 Y-11.876 E2.13457
G1 X-9.968 Y-12.135 E2.1376
G1 X-8.7 Y-13.074 E2.14947
G1 X-8.363 Y-13.292 E2.15249
G1 X-6.996 Y-14.06 E2.16429
G1 X-6.634 Y-14.234 E2.16731
G1 X-5.178 Y-14.826 E2.17914
G1 X-4.793 Y-14.955 E2.18219
G1 X-3.266 Y-15.36 E2.19408
G1 X-2.875 Y-15.438 E2.19708
G1 X-1.323 Y-15.648 E2.20886
G1 X-.923 Y-15.677 E2.21188
G1 X0.644 Y-15.691 E2.22367
G1 X1.048 Y-15.669 E2.22672
G1 X2.632 Y-15.482 E2.23872
G1 X3.03 Y-15.409 E2.24176
G1 X4.537 Y-15.034 E2.25345
G1 X4.915 Y-14.915 E2.25643
G1 X6.365 Y-14.356 E2.26812
G1 X6.732 Y-14.187 E2.27116
G1 X8.139 Y-13.429 E2.28319
;MESH:circle.stl
G0 F600 X8.382 Y-10.181
G0 X7.98 Y-9.628
G0 X12 Y-2.952
;TYPE:FILL
G1 F300 X12 Y2.947 E2.32757
G0 F600 X11.987 Y3.012
G1 F300 X11.733 Y3.818 E2.33538
G1 X11.162 Y5.259 E2.3497
G1 X10.416 Y6.615 E2.364
G0 F600 X10 Y7.27
G1 F300 X10 Y-7.271 E2.47341
G1 X9.027 Y-8.449 E2.4849
G1 X8 Y-9.414 E2.49551
G1 X8 Y9.415 E2.63718
G0 F600 X7.937 Y9.473
G1 F300 X7.242 Y9.99 E2.64533
G1 X6.305 Y10.615 E2.65593
G0 F600 X6 Y10.783
G1 F300 X6 Y-10.782 E2.81819
G1 X5.278 Y-11.18 E2.82439
G1 X4 Y-11.688 E2.83474
G1 X4 Y11.689 E3.01063
G1 X3.811 Y11.763 E3.01216
G1 X2.305 Y12.147 E3.02385
G1 X2 Y12.186 E3.02616
G1 X2 Y-12.184 E3.20953
G1 X0.788 Y-12.339 E3.21872
G1 X0.00 Y-12.339 E3.22465
G1 X0.00 Y12.339 E3.41034
G1 X-.788 Y12.339 E3.41626
G1 X-2 Y12.184 E3.42546
G1 X-2 Y-12.186 E3.60882
G1 X-2.305 Y-12.147 E3.61114
G1 X-3.811 Y-11.763 E3.62283
G1 X-4 Y-11.689 E3.62436
G1 X-4 Y11.688 E3.80025
G1 X-5.278 Y11.18 E3.8106
G1 X-6 Y10.782 E3.8168
G1 X-6 Y-10.783 E3.97906
G1 X-6.61 Y-10.448 E3.9843
G0 F600 X-7.242 Y-9.99
G1 F300 X-7.937 Y-9.473 E3.99733
G0 F600 X-8 Y-9.415
G1 F300 X-8 Y9.413 E4.139
G1 X-9.027 Y8.449 E4.1496
G1 X-10 Y7.271 E4.16109
G1 X-10 Y-7.27 E4.2705
G1 X-10.829 Y-5.966 E4.28213
G1 X-11.492 Y-4.559 E4.29383
G1 X-11.974 Y-3.082 E4.30552
G1 X-12 Y-2.946 E4.30657
G1 X-12 Y2.952 E4.35094
G0 F600 X-11.763 Y2.909
;MESH:NONMESH
G0 X2.881 Y12
;TIME_ELAPSED:120.071939
;LAYER:1
M106 S255
;MESH:circle.stl
G0 F900 X2.881 Y12 Z0.9
;TYPE:FILL
G1 F450 X-2.882 Y12 E4.69784
G1 X-3.819 Y11.76 E4.75606
G1 X-5.271 Y11.184 E4.85009
G1 X-6.619 Y10.442 E4.94271
G1 X-7.228 Y10 E4.98801
G1 X7.227 Y10 E5.85811
G1 X7.88 Y9.526 E5.90668
G1 X9.014 Y8.464 E6.0002
G1 X9.397 Y8 E6.03641
G1 X-9.399 Y7.999 E7.16782
G1 X-10.003 Y7.268 E7.22489
G1 X-10.808 Y5.999 E7.31535
G1 X10.806 Y6 E8.61638
G1 X10.835 Y5.955 E8.6196
G1 X11.496 Y4.549 E8.71312
G1 X11.674 Y4 E8.74786
G1 X-11.676 Y3.999 E10.15339
G1 X-11.977 Y3.072 E10.21206
G1 X-12.182 Y1.999 E10.27781
G1 X12.181 Y2 E11.74431
G1 X12.265 Y1.559 E11.77133
G1 X12.363 Y0.00 E11.86536
G1 X-12.363 Y0.00 E13.35371
G1 X-12.265 Y-1.559 E13.44774
G1 X-12.181 Y-2 E13.47476
G1 X12.182 Y-1.999 E14.94126
G1 X11.977 Y-3.072 E15.00702
G1 X11.676 Y-3.999 E15.06569
G1 X-11.674 Y-4 E16.47121
G1 X-11.496 Y-4.549 E16.50595
G1 X-10.835 Y-5.955 E16.59947
G1 X-10.806 Y-6 E16.60269
G1 X10.808 Y-5.999 E17.90372
G1 X10.003 Y-7.268 E17.99418
G1 X9.399 Y-7.999 E18.05126
G1 X-9.397 Y-8 E19.18266
G1 X-9.014 Y-8.464 E19.21888
G1 X-7.88 Y-9.526 E19.3124
G1 X-7.227 Y-10 E19.36097
G1 X7.228 Y-10 E20.23107
G1 X6.619 Y-10.442 E20.27636
G1 X5.271 Y-11.184 E20.36899
G1 X3.819 Y-11.76 E20.46301
G1 X2.882 Y-12 E20.52124
G1 X-2.881 Y-12 E20.86813
G0 F900 X-2.823 Y-11.768
;MESH:NONMESH
G0 X-12 Y2.952
;TIME_ELAPSED:158.036529
;LAYER:2
;MESH:circle.stl
G0 F1200 X-12 Y2.952 Z1.7
;TYPE:FILL
G1 F600 X-12 Y-2.953 E21.22358
G1 X-11.977 Y-3.073 E21.23093
G1 X-11.496 Y-4.55 E21.32443
G1 X-10.835 Y-5.956 E21.41795
G1 X-10.003 Y-7.269 E21.51152
G0 F1200 X-10 Y-7.273
G1 F600 X-10 Y7.272 E22.38704
G1 X-9.014 Y8.464 E22.48015
G1 X-8 Y9.414 E22.56379
G1 X-8 Y-9.415 E23.69718
G0 F1200 X-7.94 Y-9.47
G1 F600 X-7.25 Y-9.984 E23.76192
G1 X-6.31 Y-10.613 E23.84702
G0 F1200 X-6 Y-10.784
G1 F600 X-6 Y10.783 E25.14522
G1 X-5.272 Y11.184 E25.19525
G1 X-4 Y11.688 E25.27761
G1 X-4 Y-11.689 E26.68476
G1 X-3.82 Y-11.76 E26.6964
G1 X-2.312 Y-12.146 E26.7901
G1 X-2 Y-12.186 E26.80904
G1 X-2 Y12.185 E28.27602
G1 X-.778 Y12.34 E28.35017
G1 X0.00 Y12.34 E28.397
G1 X0.00 Y-12.34 E29.88258
G1 X0.778 Y-12.34 E29.92941
G1 X2 Y-12.185 E30.00356
G1 X2 Y12.186 E31.47054
G1 X2.312 Y12.146 E31.48947
G1 X3.82 Y11.76 E31.58317
G1 X4 Y11.689 E31.59482
G1 X4 Y-11.688 E33.00197
G1 X5.272 Y-11.184 E33.08433
G1 X6 Y-10.783 E33.13436
G1 X6 Y10.784 E34.43256
G1 X6.62 Y10.442 E34.47518
G0 F1200 X7.25 Y9.984
G1 F600 X7.94 Y9.47 E34.57876
G0 F1200 X8 Y9.415
G1 F600 X8 Y-9.414 E35.71215
G1 X9.014 Y-8.464 E35.79579
G1 X10 Y-7.272 E35.8889
G1 X10 Y7.273 E36.76442
G0 F1200 X10.003 Y7.269
G1 F600 X10.835 Y5.956 E36.85799
G1 X11.496 Y4.55 E36.95151
G1 X11.977 Y3.073 E37.04501
G1 X12 Y2.953 E37.05236
G1 X12 Y-2.952 E37.40781
G0 F1200 X11.763 Y-2.908
;MESH:NONMESH
G0 X2.881 Y12
;TIME_ELAPSED:186.534054
;LAYER:3
;MESH:circle.stl
G0 X2.881 Y12 Z2.5
;TYPE:FILL
G1 F600 X-2.882 Y12 E37.7547
G1 X-3.819 Y11.76 E37.81293
G1 X-5.271 Y11.184 E37.90695
G1 X-6.619 Y10.442 E37.99958
G1 X-7.228 Y10 E38.04487
G1 X7.227 Y10 E38.91497
G1 X7.88 Y9.526 E38.96354
G1 X9.014 Y8.464 E39.05706
G1 X9.397 Y8 E39.09328
G1 X-9.399 Y7.999 E40.22468
G1 X-10.003 Y7.268 E40.28176
G1 X-10.808 Y5.999 E40.37222
G1 X10.806 Y6 E41.67325
G1 X10.835 Y5.955 E41.67647
G1 X11.496 Y4.549 E41.76999
G1 X11.674 Y4 E41.80473
G1 X-11.676 Y3.999 E43.21025
G1 X-11.977 Y3.072 E43.26892
G1 X-12.182 Y1.999 E43.33468
G1 X12.181 Y2 E44.80118
G1 X12.265 Y1.559 E44.8282
G1 X12.363 Y0.00 E44.92223
G1 X-12.363 Y0.00 E46.41058
G1 X-12.265 Y-1.559 E46.50461
G1 X-12.181 Y-2 E46.53163
G1 X12.182 Y-1.999 E47.99813
G1 X11.977 Y-3.072 E48.06389
G1 X11.676 Y-3.999 E48.12255
G1 X-11.674 Y-4 E49.52808
G1 X-11.496 Y-4.549 E49.56282
G1 X-10.835 Y-5.955 E49.65634
G1 X-10.806 Y-6 E49.65956
G1 X10.808 Y-5.999 E50.96059
G1 X10.003 Y-7.268 E51.05105
G1 X9.399 Y-7.999 E51.10812
G1 X-9.397 Y-8 E52.23953
G1 X-9.014 Y-8.464 E52.27574
G1 X-7.88 Y-9.526 E52.36926
G1 X-7.227 Y-10 E52.41783
G1 X7.228 Y-10 E53.28793
G1 X6.619 Y-10.442 E53.33323
G1 X5.271 Y-11.184 E53.42585
G1 X3.819 Y-11.76 E53.51988
G1 X2.882 Y-12 E53.5781
G1 X-2.881 Y-12 E53.925
G0 F1200 X-2.823 Y-11.768
;MESH:NONMESH
G0 X-12 Y2.952
;TIME_ELAPSED:215.058204
;LAYER:4
;MESH:circle.stl
G0 X-12 Y2.952 Z3.3
;TYPE:FILL
G1 F600 X-12 Y-2.953 E54.28044
G1 X-11.977 Y-3.073 E54.2878
G1 X-11.496 Y-4.55 E54.3813
G1 X-10.835 Y-5.956 E54.47482
G1 X-10.003 Y-7.269 E54.56838
G0 F1200 X-10 Y-7.273
G1 F600 X-10 Y7.272 E55.4439
G1 X-9.014 Y8.464 E55.53702
G1 X-8 Y9.414 E55.62066
G1 X-8 Y-9.415 E56.75404
G0 F1200 X-7.94 Y-9.47
G1 F600 X-7.25 Y-9.984 E56.81878
G1 X-6.31 Y-10.613 E56.90389
G0 F1200 X-6 Y-10.784
G1 F600 X-6 Y10.783 E58.20208
G1 X-5.272 Y11.184 E58.25211
G1 X-4 Y11.688 E58.33447
G1 X-4 Y-11.689 E59.74162
G1 X-3.82 Y-11.76 E59.75327
G1 X-2.312 Y-12.146 E59.84697
G1 X-2 Y-12.186 E59.8659
G1 X-2 Y12.185 E61.33288
G1 X-.778 Y12.34 E61.40703
G1 X0.00 Y12.34 E61.45386
G1 X0.00 Y-12.34 E62.93944
G1 X0.778 Y-12.34 E62.98627
G1 X2 Y-12.185 E63.06042
G1 X2 Y12.186 E64.5274
G1 X2.312 Y12.146 E64.54634
G1 X3.82 Y11.76 E64.64004
G1 X4 Y11.689 E64.65168
G1 X4 Y-11.688 E66.05883
G1 X5.272 Y-11.184 E66.14119
G1 X6 Y-10.783 E66.19122
G1 X6 Y10.784 E67.48942
G1 X6.62 Y10.442 E67.53204
G0 F1200 X7.25 Y9.984
G1 F600 X7.94 Y9.47 E67.63562
G0 F1200 X8 Y9.415
G1 F600 X8 Y-9.414 E68.76901
G1 X9.014 Y-8.464 E68.85265
G1 X10 Y-7.272 E68.94577
G1 X10 Y7.273 E69.82129
G0 F1200 X10.003 Y7.269
G1 F600 X10.835 Y5.956 E69.91485
G1 X11.496 Y4.55 E70.00837
G1 X11.977 Y3.073 E70.10187
G1 X12 Y2.953 E70.10923
G1 X12 Y-2.952 E70.46467
G0 F1200 X11.763 Y-2.908
;MESH:NONMESH
G0 X2.881 Y12
;TIME_ELAPSED:243.555729
;LAYER:5
;MESH:circle.stl
G0 X2.881 Y12 Z4.1
;TYPE:FILL
G1 F600 X-2.882 Y12 E70.81157
G1 X-3.819 Y11.76 E70.86979
G1 X-5.271 Y11.184 E70.96382
G1 X-6.619 Y10.442 E71.05644
G1 X-7.228 Y10 E71.10173
G1 X7.227 Y10 E71.97184
G1 X7.88 Y9.526 E72.02041
G1 X9.014 Y8.464 E72.11393
G1 X9.397 Y8 E72.15014
G1 X-9.399 Y7.999 E73.28154
G1 X-10.003 Y7.268 E73.33862
G1 X-10.808 Y5.999 E73.42908
G1 X10.806 Y6 E74.73011
G1 X10.835 Y5.955 E74.73333
G1 X11.496 Y4.549 E74.82685
G1 X11.674 Y4 E74.86159
G1 X-11.676 Y3.999 E76.26712
G1 X-11.977 Y3.072 E76.32578
G1 X-12.182 Y1.999 E76.39154
G1 X12.181 Y2 E77.85804
G1 X12.265 Y1.559 E77.88506
G1 X12.363 Y0.00 E77.97909
G1 X-12.363 Y0.00 E79.46744
G1 X-12.265 Y-1.559 E79.56147
G1 X-12.181 Y-2 E79.58849
G1 X12.182 Y-1.999 E81.05499
G1 X11.977 Y-3.072 E81.12075
G1 X11.676 Y-3.999 E81.17942
G1 X-11.674 Y-4 E82.58494
G1 X-11.496 Y-4.549 E82.61968
G1 X-10.835 Y-5.955 E82.7132
G1 X-10.806 Y-6 E82.71642
G1 X10.808 Y-5.999 E84.01745
G1 X10.003 Y-7.268 E84.10791
G1 X9.399 Y-7.999 E84.16499
G1 X-9.397 Y-8 E85.29639
G1 X-9.014 Y-8.464 E85.33261
G1 X-7.88 Y-9.526 E85.42613
G1 X-7.227 Y-10 E85.4747
G1 X7.228 Y-10 E86.3448
G1 X6.619 Y-10.442 E86.39009
G1 X5.271 Y-11.184 E86.48271
G1 X3.819 Y-11.76 E86.57674
G1 X2.882 Y-12 E86.63496
G1 X-2.881 Y-12 E86.98186
G0 F1200 X-2.823 Y-11.768
;MESH:NONMESH
G0 X-12 Y2.952
;TIME_ELAPSED:272.079879
;LAYER:6
;MESH:circle.stl
G0 X-12 Y2.952 Z4.9
;TYPE:FILL
G1 F600 X-12 Y-2.953 E87.3373
G1 X-11.977 Y-3.073 E87.34466
G1 X-11.496 Y-4.55 E87.43816
G1 X-10.835 Y-5.956 E87.53168
G1 X-10.003 Y-7.269 E87.62525
G0 F1200 X-10 Y-7.273
G1 F600 X-10 Y7.272 E88.50076
G1 X-9.014 Y8.464 E88.59388
G1 X-8 Y9.414 E88.67752
G1 X-8 Y-9.415 E89.81091
G0 F1200 X-7.94 Y-9.47
G1 F600 X-7.25 Y-9.984 E89.87565
G1 X-6.31 Y-10.613 E89.96075
G0 F1200 X-6 Y-10.784
G1 F600 X-6 Y10.783 E91.25895
G1 X-5.272 Y11.184 E91.30898
G1 X-4 Y11.688 E91.39134
G1 X-4 Y-11.689 E92.79849
G1 X-3.82 Y-11.76 E92.81013
G1 X-2.312 Y-12.146 E92.90383
G1 X-2 Y-12.186 E92.92277
G1 X-2 Y12.185 E94.38975
G1 X-.778 Y12.34 E94.46389
G1 X0.00 Y12.34 E94.51073
G1 X0.00 Y-12.34 E95.99631
G1 X0.778 Y-12.34 E96.04314
G1 X2 Y-12.185 E96.11728
G1 X2 Y12.186 E97.58427
G1 X2.312 Y12.146 E97.6032
G1 X3.82 Y11.76 E97.6969
G1 X4 Y11.689 E97.70855
G1 X4 Y-11.688 E99.1157
G1 X5.272 Y-11.184 E99.19806
G1 X6 Y-10.783 E99.24808
G1 X6 Y10.784 E100.54628
G1 X6.62 Y10.442 E100.58891
G0 F1200 X7.25 Y9.984
G1 F600 X7.94 Y9.47 E100.69249
G0 F1200 X8 Y9.415
G1 F600 X8 Y-9.414 E101.82588
G1 X9.014 Y-8.464 E101.90951
G1 X10 Y-7.272 E102.00263
G1 X10 Y7.273 E102.87815
G0 F1200 X10.003 Y7.269
G1 F600 X10.835 Y5.956 E102.97172
G1 X11.496 Y4.55 E103.06523
G1 X11.977 Y3.073 E103.15874
G1 X12 Y2.953 E103.16609
G1 X12 Y-2.952 E103.52154
G0 F1200 X11.763 Y-2.908
;MESH:NONMESH
G0 X2.881 Y12
;TIME_ELAPSED:300.577404
;LAYER:7
;MESH:circle.stl
G0 X2.881 Y12 Z5.7
;TYPE:FILL
G1 F600 X-2.882 Y12 E103.86843
G1 X-3.819 Y11.76 E103.92665
G1 X-5.271 Y11.184 E104.02068
G1 X-6.619 Y10.442 E104.1133
G1 X-7.228 Y10 E104.1586
G1 X7.227 Y10 E105.0287
G1 X7.88 Y9.526 E105.07727
G1 X9.014 Y8.464 E105.17079
G1 X9.397 Y8 E105.20701
G1 X-9.399 Y7.999 E106.33841
G1 X-10.003 Y7.268 E106.39549
G1 X-10.808 Y5.999 E106.48595
G1 X10.806 Y6 E107.78697
G1 X10.835 Y5.955 E107.7902
G1 X11.496 Y4.549 E107.88371
G1 X11.674 Y4 E107.91845
G1 X-11.676 Y3.999 E109.32398
G1 X-11.977 Y3.072 E109.38265
G1 X-12.182 Y1.999 E109.4484
G1 X12.181 Y2 E110.9149
G1 X12.265 Y1.559 E110.94193
G1 X12.363 Y0.00 E111.03595
G1 X-12.363 Y0.00 E112.52431
G1 X-12.265 Y-1.559 E112.61833
G1 X-12.181 Y-2 E112.64536
G1 X12.182 Y-1.999 E114.11186
G1 X11.977 Y-3.072 E114.17761
G1 X11.676 Y-3.999 E114.23628
G1 X-11.674 Y-4 E115.64181
G1 X-11.496 Y-4.549 E115.67655
G1 X-10.835 Y-5.955 E115.77006
G1 X-10.806 Y-6 E115.77329
G1 X10.808 Y-5.999 E117.07431
G1 X10.003 Y-7.268 E117.16477
G1 X9.399 Y-7.999 E117.22185
G1 X-9.397 Y-8 E118.35325
G1 X-9.014 Y-8.464 E118.38947
G1 X-7.88 Y-9.526 E118.48299
G1 X-7.227 Y-10 E118.53156
G1 X7.228 Y-10 E119.40166
G1 X6.619 Y-10.442 E119.44696
G1 X5.271 Y-11.184 E119.53958
G1 X3.819 Y-11.76 E119.63361
G1 X2.882 Y-12 E119.69183
G1 X-2.881 Y-12 E120.03872
G0 F1200 X-2.823 Y-11.768
;MESH:NONMESH
G0 X-12 Y2.952
;TIME_ELAPSED:329.101554
;LAYER:8
;MESH:circle.stl
G0 X-12 Y2.952 Z6.5
;TYPE:FILL
G1 F600 X-12 Y-2.953 E120.39417
G1 X-11.977 Y-3.073 E120.40152
G1 X-11.496 Y-4.55 E120.49503
G1 X-10.835 Y-5.956 E120.58854
G1 X-10.003 Y-7.269 E120.68211
G0 F1200 X-10 Y-7.273
G1 F600 X-10 Y7.272 E121.55763
G1 X-9.014 Y8.464 E121.65075
G1 X-8 Y9.414 E121.73438
G1 X-8 Y-9.415 E122.86777
G0 F1200 X-7.94 Y-9.47
G1 F600 X-7.25 Y-9.984 E122.93251
G1 X-6.31 Y-10.613 E123.01761
G0 F1200 X-6 Y-10.784
G1 F600 X-6 Y10.783 E124.31581
G1 X-5.272 Y11.184 E124.36584
G1 X-4 Y11.688 E124.4482
G1 X-4 Y-11.689 E125.85535
G1 X-3.82 Y-11.76 E125.867
G1 X-2.312 Y-12.146 E125.9607
G1 X-2 Y-12.186 E125.97963
G1 X-2 Y12.185 E127.44661
G1 X-.778 Y12.34 E127.52076
G1 X0.00 Y12.34 E127.56759
G1 X0.00 Y-12.34 E129.05317
G1 X0.778 Y-12.34 E129.1
G1 X2 Y-12.185 E129.17415
G1 X2 Y12.186 E130.64113
G1 X2.312 Y12.146 E130.66007
G1 X3.82 Y11.76 E130.75376
G1 X4 Y11.689 E130.76541
G1 X4 Y-11.688 E132.17256
G1 X5.272 Y-11.184 E132.25492
G1 X6 Y-10.783 E132.30495
G1 X6 Y10.784 E133.60315
G1 X6.62 Y10.442 E133.64577
G0 F1200 X7.25 Y9.984
G1 F600 X7.94 Y9.47 E133.74935
G0 F1200 X8 Y9.415
G1 F600 X8 Y-9.414 E134.88274
G1 X9.014 Y-8.464 E134.96638
G1 X10 Y-7.272 E135.0595
G1 X10 Y7.273 E135.93501
G0 F1200 X10.003 Y7.269
G1 F600 X10.835 Y5.956 E136.02858
G1 X11.496 Y4.55 E136.1221
G1 X11.977 Y3.073 E136.2156
G1 X12 Y2.953 E136.22296
G1 X12 Y-2.952 E136.5784
G0 F1200 X11.763 Y-2.908
;MESH:NONMESH
G0 X2.881 Y12
;TIME_ELAPSED:357.599079
;LAYER:9
;MESH:circle.stl
G0 X2.881 Y12 Z7.3
;TYPE:FILL
G1 F600 X-2.882 Y12 E136.9253
G1 X-3.819 Y11.76 E136.98352
G1 X-5.271 Y11.184 E137.07755
G1 X-6.619 Y10.442 E137.17017
G1 X-7.228 Y10 E137.21546
G1 X7.227 Y10 E138.08556
G1 X7.88 Y9.526 E138.13413
G1 X9.014 Y8.464 E138.22765
G1 X9.397 Y8 E138.26387
G1 X-9.399 Y7.999 E139.39527
G1 X-10.003 Y7.268 E139.45235
G1 X-10.808 Y5.999 E139.54281
G1 X10.806 Y6 E140.84384
G1 X10.835 Y5.955 E140.84706
G1 X11.496 Y4.549 E140.94058
G1 X11.674 Y4 E140.97532
G1 X-11.676 Y3.999 E142.38084
G1 X-11.977 Y3.072 E142.43951
G1 X-12.182 Y1.999 E142.50527
G1 X12.181 Y2 E143.97177
G1 X12.265 Y1.559 E143.99879
G1 X12.363 Y0.00 E144.09282
G1 X-12.363 Y0.00 E145.58117
G1 X-12.265 Y-1.559 E145.6752
G1 X-12.181 Y-2 E145.70222
G1 X12.182 Y-1.999 E147.16872
G1 X11.977 Y-3.072 E147.23448
G1 X11.676 Y-3.999 E147.29314
G1 X-11.674 Y-4 E148.69867
G1 X-11.496 Y-4.549 E148.73341
G1 X-10.835 Y-5.955 E148.82693
G1 X-10.806 Y-6 E148.83015
G1 X10.808 Y-5.999 E150.13118
G1 X10.003 Y-7.268 E150.22164
G1 X9.399 Y-7.999 E150.27872
G1 X-9.397 Y-8 E151.41012
G1 X-9.014 Y-8.464 E151.44633
G1 X-7.88 Y-9.526 E151.53985
G1 X-7.227 Y-10 E151.58842
G1 X7.228 Y-10 E152.45853
G1 X6.619 Y-10.442 E152.50382
G1 X5.271 Y-11.184 E152.59644
G1 X3.819 Y-11.76 E152.69047
G1 X2.882 Y-12 E152.74869
G1 X-2.881 Y-12 E153.09559
G0 F1200 X-2.823 Y-11.768
;TIME_ELAPSED:385.255912
M140 S0
M107
M104 S0 ;extruder heater off
M140 S0 ;heated bed heater off (if you have it)
G91 ;relative positioning
G1 E-1 F300  ;retract the filament a bit before lifting the nozzle, to release some of the pressure
G1 Z+0.5 E-5 X-20 Y-20 F9000 ;move Z up a bit and retract filament even more
G28 X0 Y0 ;move X/Y to min endstops, so the head is out of the way
M84 ;steppers off
G90 ;absolute positioning
M82 ;absolute extrusion mode
M104 S0
;End of Gcode
;SETTING_3 {"extruder_quality": ["[general]\\nversion = 4\\nname = Carolyn - PLA
;SETTING_3 \\ndefinition = fdmprinter\\n\\n[metadata]\\nsetting_version = 5\\npo
;SETTING_3 sition = 0\\nquality_type = verydraft\\ntype = quality_changes\\n\\n[
;SETTING_3 values]\\nbrim_width = 0\\ninfill_angles = [0,90]\\ninfill_line_dista
;SETTING_3 nce = 2\\ninfill_pattern = zigzag\\ninfill_sparse_density = 70\\nmate
;SETTING_3 rial_flow = 120\\nretraction_enable = False\\nskirt_line_count = 1\\n
;SETTING_3 speed_print = 10\\nspeed_travel = 20\\ntop_bottom_thickness = 0.0\\nw
;SETTING_3 all_thickness = 0.0\\n\\n"], "global_quality": "[general]\\nversion =
;SETTING_3  4\\nname = Carolyn - PLA\\ndefinition = fdmprinter\\n\\n[metadata]\\
;SETTING_3 nsetting_version = 5\\nquality_type = verydraft\\ntype = quality_chan
;SETTING_3 ges\\n\\n[values]\\nadhesion_type = skirt\\nlayer_height = 0.8\\nlaye
;SETTING_3 r_height_0 = 0.1\\nmaterial_bed_temperature = 0\\nprint_sequence = on
;SETTING_3 e_at_a_time\\n\\n"}
