;FLAVOR:Marlin
;TIME:269
;Filament used: 0.0618211m
;Layer height: 0.8
;Generated with Cura_SteamEngine 3.6.0
M104 S200
M105
M109 S200
M82 ;absolute extrusion mode
G21 ;metric values
G90 ;absolute positioning
M82 ;set extruder to absolute mode
M107 ;start with the fan off
G28 ;move XYZ to min endstops
G1 Z15.0 F9000 ;move the platform down 15mm
G1 F9000
;Put printing message on LCD screen
M117 Printing...
G92 E0
G1 F1500 E-6.5
;LAYER_COUNT:8
;LAYER:0
M107
G0 F600 X11.871 Y-.43 Z0.1
;TYPE:SKIRT
G1 F1500 E0
G1 F225 X11.879 Y0.126 E0.00418
G1 X11.834 Y1.04 E0.01107
G1 X11.773 Y1.584 E0.01519
G1 X11.607 Y2.53 E0.02241
G1 X11.477 Y3.067 E0.02657
G1 X11.203 Y3.955 E0.03356
G1 X11.01 Y4.468 E0.03769
G1 X10.621 Y5.33 E0.0448
G1 X10.357 Y5.827 E0.04904
G1 X9.87 Y6.618 E0.05603
G1 X9.558 Y7.06 E0.0601
G1 X8.953 Y7.816 E0.06738
G1 X8.571 Y8.235 E0.07165
G1 X7.907 Y8.875 E0.07859
G1 X7.485 Y9.233 E0.08275
G1 X6.626 Y9.874 E0.09082
G1 X5.887 Y10.32 E0.09731
G1 X4.321 Y11.066 E0.11036
G1 X3.587 Y11.339 E0.11626
G1 X2.663 Y11.591 E0.12346
G1 X2.116 Y11.703 E0.12766
G1 X1.182 Y11.834 E0.13476
G1 X0.638 Y11.876 E0.13887
G1 X-.281 Y11.89 E0.14578
G1 X-.828 Y11.865 E0.1499
G1 X-1.775 Y11.761 E0.15707
G1 X-2.327 Y11.664 E0.16129
G1 X-3.222 Y11.448 E0.16821
G1 X-3.751 Y11.285 E0.17238
G1 X-4.66 Y10.94 E0.17969
G1 X-5.171 Y10.708 E0.18392
G1 X-5.986 Y10.273 E0.19087
G1 X-6.446 Y9.99 E0.19493
G1 X-7.215 Y9.449 E0.20201
G1 X-7.651 Y9.098 E0.20622
G1 X-8.359 Y8.451 E0.21343
G1 X-8.749 Y8.047 E0.21766
G1 X-9.341 Y7.348 E0.22455
G1 X-9.665 Y6.912 E0.22864
G1 X-10.198 Y6.097 E0.23597
G1 X-10.476 Y5.607 E0.2402
G1 X-10.88 Y4.773 E0.24718
G1 X-11.086 Y4.27 E0.25127
G1 X-11.39 Y3.375 E0.25838
G1 X-11.533 Y2.85 E0.26247
G1 X-11.717 Y1.959 E0.26932
G1 X-11.795 Y1.41 E0.27349
G1 X-11.871 Y0.431 E0.28088
G1 X-11.879 Y-.126 E0.28507
G1 X-11.834 Y-1.04 E0.29196
G1 X-11.773 Y-1.584 E0.29608
G1 X-11.607 Y-2.53 E0.3033
G1 X-11.477 Y-3.067 E0.30746
G1 X-11.203 Y-3.955 E0.31445
G1 X-11.01 Y-4.468 E0.31858
G1 X-10.621 Y-5.33 E0.32569
G1 X-10.357 Y-5.827 E0.32993
G1 X-9.87 Y-6.618 E0.33692
G1 X-9.558 Y-7.06 E0.34099
G1 X-8.953 Y-7.816 E0.34827
G1 X-8.571 Y-8.235 E0.35254
G1 X-7.907 Y-8.875 E0.35948
G1 X-7.485 Y-9.233 E0.36364
G1 X-6.626 Y-9.874 E0.37171
G1 X-5.887 Y-10.32 E0.3782
G1 X-4.321 Y-11.066 E0.39125
G1 X-3.587 Y-11.339 E0.39714
G1 X-2.663 Y-11.591 E0.40435
G1 X-2.116 Y-11.703 E0.40855
G1 X-1.182 Y-11.834 E0.41565
G1 X-.638 Y-11.876 E0.41975
G1 X0.281 Y-11.89 E0.42667
G1 X0.828 Y-11.865 E0.43079
G1 X1.775 Y-11.761 E0.43796
G1 X2.327 Y-11.664 E0.44217
G1 X3.222 Y-11.448 E0.4491
G1 X3.75 Y-11.285 E0.45326
G1 X4.657 Y-10.941 E0.46056
G1 X5.169 Y-10.709 E0.46479
G1 X5.986 Y-10.273 E0.47176
G1 X6.446 Y-9.99 E0.47582
G1 X7.215 Y-9.449 E0.48289
G1 X7.651 Y-9.098 E0.4871
G1 X8.357 Y-8.453 E0.4943
G1 X8.746 Y-8.05 E0.49851
G1 X9.34 Y-7.349 E0.50543
G1 X9.665 Y-6.913 E0.50952
G1 X10.197 Y-6.1 E0.51683
G1 X10.475 Y-5.609 E0.52108
G1 X10.879 Y-4.775 E0.52805
G1 X11.085 Y-4.274 E0.53212
G1 X11.389 Y-3.38 E0.53923
G1 X11.531 Y-2.857 E0.54331
G1 X11.716 Y-1.965 E0.55016
G1 X11.795 Y-1.411 E0.55437
G1 X11.871 Y-.43 E0.56178
G0 F600 X11.472 Y-.399
G1 F225 X11.479 Y0.107 E0.56558
G1 X11.434 Y1.021 E0.57247
G1 X11.379 Y1.515 E0.57621
G1 X11.213 Y2.461 E0.58343
G1 X11.095 Y2.949 E0.58721
G1 X10.821 Y3.837 E0.5942
G1 X10.645 Y4.303 E0.59795
G1 X10.256 Y5.165 E0.60507
G1 X10.016 Y5.617 E0.60892
G1 X9.529 Y6.408 E0.61591
G1 X9.246 Y6.81 E0.61961
G1 X8.641 Y7.566 E0.62689
G1 X8.294 Y7.947 E0.63077
G1 X7.63 Y8.587 E0.63771
G1 X7.246 Y8.913 E0.6415
G1 X6.387 Y9.554 E0.64956
G1 X5.715 Y9.959 E0.65547
G1 X4.149 Y10.705 E0.66852
G1 X3.481 Y10.953 E0.67388
G1 X2.557 Y11.205 E0.68109
G1 X2.061 Y11.307 E0.6849
G1 X1.127 Y11.438 E0.69199
G1 X0.632 Y11.477 E0.69573
G1 X-.287 Y11.491 E0.70265
G1 X-.785 Y11.467 E0.7064
G1 X-1.732 Y11.363 E0.71356
G1 X-2.233 Y11.275 E0.71739
G1 X-3.128 Y11.059 E0.72432
G1 X-3.609 Y10.911 E0.72811
G1 X-4.518 Y10.566 E0.73542
G1 X-4.982 Y10.355 E0.73926
G1 X-5.797 Y9.92 E0.74621
G1 X-6.216 Y9.663 E0.74991
G1 X-6.985 Y9.122 E0.75698
G1 X-7.381 Y8.803 E0.76081
G1 X-8.089 Y8.156 E0.76802
G1 X-8.443 Y7.788 E0.77187
G1 X-9.035 Y7.089 E0.77876
G1 X-9.331 Y6.693 E0.78248
G1 X-9.864 Y5.878 E0.78981
G1 X-10.116 Y5.433 E0.79365
G1 X-10.52 Y4.599 E0.80063
G1 X-10.707 Y4.141 E0.80435
G1 X-11.011 Y3.246 E0.81146
G1 X-11.141 Y2.769 E0.81518
G1 X-11.325 Y1.878 E0.82203
G1 X-11.396 Y1.379 E0.82582
G1 X-11.472 Y0.4 E0.83321
G1 X-11.479 Y-.107 E0.83702
G1 X-11.434 Y-1.021 E0.84391
G1 X-11.379 Y-1.515 E0.84765
G1 X-11.213 Y-2.461 E0.85487
G1 X-11.095 Y-2.949 E0.85865
G1 X-10.821 Y-3.837 E0.86564
G1 X-10.645 Y-4.303 E0.86939
G1 X-10.256 Y-5.165 E0.87651
G1 X-10.016 Y-5.617 E0.88036
G1 X-9.529 Y-6.408 E0.88735
G1 X-9.246 Y-6.81 E0.89105
G1 X-8.641 Y-7.566 E0.89833
G1 X-8.294 Y-7.947 E0.90221
G1 X-7.63 Y-8.587 E0.90915
G1 X-7.246 Y-8.913 E0.91294
G1 X-6.387 Y-9.554 E0.921
G1 X-5.715 Y-9.959 E0.92691
G1 X-4.149 Y-10.705 E0.93996
G1 X-3.481 Y-10.953 E0.94532
G1 X-2.557 Y-11.205 E0.95253
G1 X-2.061 Y-11.307 E0.95634
G1 X-1.127 Y-11.438 E0.96343
G1 X-.632 Y-11.477 E0.96717
G1 X0.287 Y-11.491 E0.97408
G1 X0.785 Y-11.467 E0.97784
G1 X1.732 Y-11.363 E0.985
G1 X2.233 Y-11.275 E0.98883
G1 X3.128 Y-11.059 E0.99576
G1 X3.608 Y-10.911 E0.99954
G1 X4.515 Y-10.567 E1.00684
G1 X4.98 Y-10.356 E1.01068
G1 X5.797 Y-9.92 E1.01765
G1 X6.216 Y-9.663 E1.02135
G1 X6.985 Y-9.122 E1.02842
G1 X7.381 Y-8.803 E1.03225
G1 X8.087 Y-8.158 E1.03944
G1 X8.441 Y-7.791 E1.04328
G1 X9.035 Y-7.09 E1.05019
G1 X9.33 Y-6.694 E1.05391
G1 X9.862 Y-5.881 E1.06122
G1 X10.115 Y-5.435 E1.06508
G1 X10.519 Y-4.601 E1.07205
G1 X10.706 Y-4.145 E1.07576
G1 X11.01 Y-3.251 E1.08286
G1 X11.14 Y-2.775 E1.08657
G1 X11.325 Y-1.883 E1.09343
G1 X11.396 Y-1.38 E1.09725
G1 X11.472 Y-.399 E1.10465
G0 F600 X11.073 Y-.368
G1 F225 X11.08 Y0.087 E1.10808
G1 X11.035 Y1.001 E1.11496
G1 X10.985 Y1.446 E1.11833
G1 X10.819 Y2.392 E1.12556
G1 X10.713 Y2.831 E1.12896
G1 X10.439 Y3.719 E1.13595
G1 X10.28 Y4.139 E1.13933
G1 X9.891 Y5.001 E1.14644
G1 X9.676 Y5.407 E1.1499
G1 X9.189 Y6.198 E1.15689
G1 X8.934 Y6.56 E1.16022
G1 X8.329 Y7.316 E1.16751
G1 X8.016 Y7.659 E1.171
G1 X7.352 Y8.299 E1.17794
G1 X7.007 Y8.592 E1.18135
G1 X6.148 Y9.233 E1.18941
G1 X5.543 Y9.598 E1.19473
G1 X3.977 Y10.344 E1.20778
G1 X3.376 Y10.567 E1.2126
G1 X2.452 Y10.819 E1.21981
G1 X2.005 Y10.911 E1.22324
G1 X1.071 Y11.042 E1.23034
G1 X0.626 Y11.077 E1.2337
G1 X-.293 Y11.091 E1.24061
G1 X-.741 Y11.069 E1.24399
G1 X-1.688 Y10.965 E1.25116
G1 X-2.14 Y10.887 E1.25461
G1 X-3.035 Y10.671 E1.26153
G1 X-3.467 Y10.537 E1.26494
G1 X-4.376 Y10.192 E1.27225
G1 X-4.794 Y10.002 E1.27571
G1 X-5.609 Y9.567 E1.28266
G1 X-5.985 Y9.335 E1.28598
G1 X-6.754 Y8.794 E1.29306
G1 X-7.112 Y8.507 E1.29651
G1 X-7.82 Y7.86 E1.30373
G1 X-8.138 Y7.53 E1.30718
G1 X-8.73 Y6.831 E1.31407
G1 X-8.996 Y6.474 E1.31742
G1 X-9.529 Y5.659 E1.32474
G1 X-9.756 Y5.258 E1.32821
G1 X-10.16 Y4.424 E1.33518
G1 X-10.329 Y4.013 E1.33853
G1 X-10.633 Y3.118 E1.34564
G1 X-10.75 Y2.688 E1.34899
G1 X-10.934 Y1.797 E1.35584
G1 X-10.997 Y1.348 E1.35925
G1 X-11.073 Y0.369 E1.36664
G1 X-11.08 Y-0.087 E1.37007
G1 X-11.035 Y-1.001 E1.37696
G1 X-10.985 Y-1.446 E1.38032
G1 X-10.819 Y-2.392 E1.38755
G1 X-10.713 Y-2.831 E1.39095
G1 X-10.439 Y-3.719 E1.39794
G1 X-10.28 Y-4.139 E1.40132
G1 X-9.891 Y-5.001 E1.40844
G1 X-9.676 Y-5.407 E1.41189
G1 X-9.189 Y-6.198 E1.41888
G1 X-8.934 Y-6.56 E1.42221
G1 X-8.329 Y-7.316 E1.4295
G1 X-8.016 Y-7.659 E1.43299
G1 X-7.352 Y-8.299 E1.43993
G1 X-7.007 Y-8.592 E1.44334
G1 X-6.148 Y-9.233 E1.4514
G1 X-5.543 Y-9.598 E1.45672
G1 X-3.977 Y-10.344 E1.46977
G1 X-3.376 Y-10.567 E1.47459
G1 X-2.452 Y-10.819 E1.4818
G1 X-2.005 Y-10.911 E1.48523
G1 X-1.071 Y-11.042 E1.49233
G1 X-.626 Y-11.077 E1.49569
G1 X0.293 Y-11.091 E1.5026
G1 X0.741 Y-11.069 E1.50598
G1 X1.688 Y-10.965 E1.51315
G1 X2.14 Y-10.887 E1.5166
G1 X3.035 Y-10.671 E1.52353
G1 X3.467 Y-10.537 E1.52693
G1 X4.374 Y-10.193 E1.53423
G1 X4.792 Y-10.003 E1.53768
G1 X5.609 Y-9.567 E1.54465
G1 X5.985 Y-9.335 E1.54798
G1 X6.754 Y-8.794 E1.55505
G1 X7.111 Y-8.508 E1.55849
G1 X7.817 Y-7.863 E1.56569
G1 X8.136 Y-7.532 E1.56915
G1 X8.73 Y-6.831 E1.57606
G1 X8.995 Y-6.475 E1.5794
G1 X9.527 Y-5.662 E1.58671
G1 X9.755 Y-5.26 E1.59019
G1 X10.159 Y-4.426 E1.59716
G1 X10.327 Y-4.016 E1.60049
G1 X10.631 Y-3.122 E1.6076
G1 X10.748 Y-2.694 E1.61094
G1 X10.933 Y-1.802 E1.61779
G1 X10.997 Y-1.349 E1.62123
G1 X11.073 Y-.368 E1.62864
G0 F600 X10.674 Y-.337
G1 F225 X10.68 Y0.067 E1.63168
G1 X10.635 Y0.981 E1.63856
G1 X10.591 Y1.377 E1.64156
G1 X10.425 Y2.323 E1.64879
G1 X10.331 Y2.713 E1.65181
G1 X10.057 Y3.601 E1.6588
G1 X9.916 Y3.974 E1.6618
G1 X9.527 Y4.836 E1.66891
G1 X9.335 Y5.198 E1.672
G1 X8.848 Y5.989 E1.67899
G1 X8.621 Y6.31 E1.68194
G1 X8.016 Y7.066 E1.68923
G1 X7.739 Y7.371 E1.69233
G1 X7.075 Y8.011 E1.69927
G1 X6.768 Y8.272 E1.7023
G1 X5.909 Y8.913 E1.71037
G1 X5.371 Y9.237 E1.71509
G1 X3.805 Y9.983 E1.72814
G1 X3.271 Y10.181 E1.73243
G1 X2.347 Y10.433 E1.73963
G1 X1.949 Y10.515 E1.74269
G1 X1.015 Y10.646 E1.74979
G1 X0.62 Y10.677 E1.75277
G1 X-.299 Y10.691 E1.75968
G1 X-.697 Y10.672 E1.76268
G1 X-1.644 Y10.568 E1.76985
G1 X-2.046 Y10.498 E1.77292
G1 X-2.941 Y10.282 E1.77985
G1 X-3.325 Y10.163 E1.78287
G1 X-4.234 Y9.818 E1.79019
G1 X-4.606 Y9.649 E1.79326
G1 X-5.421 Y9.214 E1.80021
G1 X-5.755 Y9.008 E1.80317
G1 X-6.524 Y8.467 E1.81024
G1 X-6.842 Y8.212 E1.81331
G1 X-7.55 Y7.565 E1.82053
G1 X-7.833 Y7.271 E1.8236
G1 X-8.425 Y6.572 E1.83049
G1 X-8.661 Y6.255 E1.83346
G1 X-9.194 Y5.44 E1.84079
G1 X-9.396 Y5.084 E1.84387
G1 X-9.8 Y4.25 E1.85084
G1 X-9.95 Y3.884 E1.85382
G1 X-10.254 Y2.989 E1.86093
G1 X-10.358 Y2.607 E1.86391
G1 X-10.542 Y1.716 E1.87075
G1 X-10.598 Y1.317 E1.87379
G1 X-10.674 Y0.338 E1.88117
G1 X-10.68 Y-0.067 E1.88422
G1 X-10.635 Y-.981 E1.89111
G1 X-10.591 Y-1.377 E1.89411
G1 X-10.425 Y-2.323 E1.90133
G1 X-10.331 Y-2.713 E1.90435
G1 X-10.057 Y-3.601 E1.91134
G1 X-9.916 Y-3.974 E1.91434
G1 X-9.527 Y-4.836 E1.92146
G1 X-9.335 Y-5.198 E1.92454
G1 X-8.848 Y-5.989 E1.93153
G1 X-8.621 Y-6.31 E1.93449
G1 X-8.016 Y-7.066 E1.94177
G1 X-7.739 Y-7.371 E1.94487
G1 X-7.075 Y-8.011 E1.95181
G1 X-6.768 Y-8.272 E1.95485
G1 X-5.909 Y-8.913 E1.96291
G1 X-5.371 Y-9.237 E1.96764
G1 X-3.805 Y-9.983 E1.98069
G1 X-3.271 Y-10.181 E1.98497
G1 X-2.347 Y-10.433 E1.99218
G1 X-1.949 Y-10.515 E1.99524
G1 X-1.015 Y-10.646 E2.00233
G1 X-.62 Y-10.677 E2.00531
G1 X0.299 Y-10.691 E2.01223
G1 X0.697 Y-10.672 E2.01523
G1 X1.644 Y-10.568 E2.0224
G1 X2.046 Y-10.498 E2.02547
G1 X2.941 Y-10.282 E2.03239
G1 X3.325 Y-10.163 E2.03542
G1 X4.232 Y-9.819 E2.04272
G1 X4.604 Y-9.65 E2.04579
G1 X5.421 Y-9.214 E2.05276
G1 X5.755 Y-9.008 E2.05571
G1 X6.524 Y-8.467 E2.06279
G1 X6.841 Y-8.213 E2.06584
G1 X7.547 Y-7.568 E2.07304
G1 X7.83 Y-7.274 E2.07611
G1 X8.424 Y-6.573 E2.08302
G1 X8.661 Y-6.256 E2.086
G1 X9.193 Y-5.443 E2.09331
G1 X9.395 Y-5.086 E2.0964
G1 X9.799 Y-4.252 E2.10337
G1 X9.949 Y-3.887 E2.10634
G1 X10.253 Y-2.993 E2.11344
G1 X10.356 Y-2.613 E2.11641
G1 X10.541 Y-1.721 E2.12326
G1 X10.598 Y-1.318 E2.12632
G1 X10.674 Y-.337 E2.13373
G1 F1500 E-4.36627
;MESH:circle.stl
G0 F600 X8.152 Y-.183
G0 X7.489 Y-.144
G0 X7.2 Y-1.354
;TYPE:FILL
G1 F1500 E2.13373
G1 F225 X7.2 Y1.349 E2.15406
G1 X7.107 Y1.835 E2.15779
G1 X6.82 Y2.714 E2.16475
G1 X6.427 Y3.551 E2.1717
G1 X6 Y4.224 E2.1777
G1 X6 Y-4.225 E2.24127
G0 F600 X5.971 Y-4.27
G1 F225 X5.649 Y-4.672 E2.24649
G1 X5.077 Y-5.29 E2.25502
G0 F600 X4.8 Y-5.552
G1 F225 X4.8 Y5.55 E2.33856
G1 X4.668 Y5.674 E2.33992
G1 X3.92 Y6.217 E2.34688
G1 X3.6 Y6.393 E2.34962
G1 X3.6 Y-6.391 E2.44581
G1 X3.137 Y-6.647 E2.44979
G1 X2.4 Y-6.941 E2.45576
G1 X2.4 Y6.942 E2.56022
G1 X2.259 Y6.997 E2.56136
G0 F600 X1.81 Y7.111
G1 F225 X1.28 Y7.236 E2.56956
G0 F600 X1.2 Y7.247
G1 F225 X1.2 Y-7.245 E2.6786
G1 X0.472 Y-7.339 E2.68412
G1 X0.00 Y-7.339 E2.68767
G1 X0.00 Y7.339 E2.79811
G1 X-.472 Y7.339 E2.80166
G1 X-1.2 Y7.245 E2.80719
G1 X-1.2 Y-7.247 E2.91623
G0 F600 X-1.28 Y-7.236
G1 F225 X-1.81 Y-7.111 E2.92116
G1 X-2.329 Y-6.969 E2.92604
G0 F600 X-2.4 Y-6.942
G1 F225 X-2.4 Y6.941 E3.03049
G1 X-3.137 Y6.647 E3.03646
G1 X-3.6 Y6.391 E3.04045
G1 X-3.6 Y-6.393 E3.13664
G1 X-3.92 Y-6.217 E3.13938
G1 X-4.666 Y-5.675 E3.14632
G1 X-4.8 Y-5.55 E3.1477
G1 X-4.8 Y5.552 E3.23123
G1 X-5.355 Y5.028 E3.23698
G0 F600 X-5.649 Y4.672
G1 F225 X-5.971 Y4.27 E3.24473
G0 F600 X-6 Y4.225
G1 F225 X-6 Y-4.223 E3.30829
G1 X-6.427 Y-3.551 E3.31428
G1 X-6.82 Y-2.714 E3.32124
G1 X-7.107 Y-1.835 E3.3282
G1 X-7.2 Y-1.35 E3.33191
G1 X-7.2 Y1.352 E3.35224
G0 F600 X-6.963 Y1.308
;MESH:NONMESH
G0 X1.466 Y7.2
;TIME_ELAPSED:128.811366
;LAYER:1
M106 S255
;TYPE:FILL
;MESH:NONMESH
G0 F900 X1.466 Y7.2 Z0.200000
G1 F337.5 X-1.467 Y7.2 E3.528790
G1 X-2.267 Y6.995 E3.578500
G1 X-3.132 Y6.651 E3.634540
G1 X-3.928 Y6.212 E3.684250
G1 X-4.22 Y6 E3.740290
G1 X4.219 Y6 E3.790000
G1 X4.678 Y5.666 E3.846040
G1 X5.354 Y5.03 E3.895750
G1 X5.544 Y4.8 E3.951790
G1 X-5.545 Y4.8 E4.001500
G1 X-5.935 Y4.328 E4.057540
G1 X-6.396 Y3.599 E4.107250
G1 X6.395 Y3.6 E4.163290
G1 X6.432 Y3.542 E4.213000
G1 X6.825 Y2.703 E4.269040
G1 X6.923 Y2.4 E4.318750
G1 X-6.925 Y2.399 E4.374790
G1 X-7.11 Y1.828 E4.424500
G1 X-7.23 Y1.199 E4.480540
G1 X7.229 Y1.2 E4.530250
G1 X7.28 Y0.931 E4.586290
G1 X7.338 Y0.00 E4.636000
G1 X-7.338 Y0.00 E4.692040
G1 X-7.28 Y-.931 E4.741750
G1 X-7.229 Y-1.2 E4.797790
G1 X7.23 Y-1.199 E4.847500
G1 X7.11 Y-1.828 E4.903540
G1 X6.925 Y-2.399 E4.953250
G1 X-6.923 Y-2.4 E5.009290
G1 X-6.825 Y-2.703 E5.059000
G1 X-6.432 Y-3.542 E5.115040
G1 X-6.395 Y-3.6 E5.164750
G1 X6.396 Y-3.599 E5.220790
G1 X5.935 Y-4.328 E5.270500
G1 X5.545 Y-4.8 E5.326540
G1 X-5.544 Y-4.8 E5.376250
G1 X-5.354 Y-5.03 E5.432290
G1 X-4.678 Y-5.666 E5.482000
G1 X-4.219 Y-6 E5.538040
G1 X4.22 Y-6 E5.587750
G1 X3.928 Y-6.212 E5.643790
G1 X3.132 Y-6.651 E5.693500
G1 X2.267 Y-6.995 E5.749540
G1 X1.467 Y-7.2 E5.799250
G1 X-1.466 Y-7.2 E5.855290
G0 F900 X-1.407 Y-6.969
G0 X-7.2 Y1.354
G0 F900 X1.466 Y7.2 Z0.400000
G1 F337.5 X-1.467 Y7.2 E5.911330
G1 X-2.267 Y6.995 E5.961040
G1 X-3.132 Y6.651 E6.017080
G1 X-3.928 Y6.212 E6.066790
G1 X-4.22 Y6 E6.122830
G1 X4.219 Y6 E6.172540
G1 X4.678 Y5.666 E6.228580
G1 X5.354 Y5.03 E6.278290
G1 X5.544 Y4.8 E6.334330
G1 X-5.545 Y4.8 E6.384040
G1 X-5.935 Y4.328 E6.440080
G1 X-6.396 Y3.599 E6.489790
G1 X6.395 Y3.6 E6.545830
G1 X6.432 Y3.542 E6.595540
G1 X6.825 Y2.703 E6.651580
G1 X6.923 Y2.4 E6.701290
G1 X-6.925 Y2.399 E6.757330
G1 X-7.11 Y1.828 E6.807040
G1 X-7.23 Y1.199 E6.863080
G1 X7.229 Y1.2 E6.912790
G1 X7.28 Y0.931 E6.968830
G1 X7.338 Y0.00 E7.018540
G1 X-7.338 Y0.00 E7.074580
G1 X-7.28 Y-.931 E7.124290
G1 X-7.229 Y-1.2 E7.180330
G1 X7.23 Y-1.199 E7.230040
G1 X7.11 Y-1.828 E7.286080
G1 X6.925 Y-2.399 E7.335790
G1 X-6.923 Y-2.4 E7.391830
G1 X-6.825 Y-2.703 E7.441540
G1 X-6.432 Y-3.542 E7.497580
G1 X-6.395 Y-3.6 E7.547290
G1 X6.396 Y-3.599 E7.603330
G1 X5.935 Y-4.328 E7.653040
G1 X5.545 Y-4.8 E7.709080
G1 X-5.544 Y-4.8 E7.758790
G1 X-5.354 Y-5.03 E7.814830
G1 X-4.678 Y-5.666 E7.864540
G1 X-4.219 Y-6 E7.920580
G1 X4.22 Y-6 E7.970290
G1 X3.928 Y-6.212 E8.026330
G1 X3.132 Y-6.651 E8.076040
G1 X2.267 Y-6.995 E8.132080
G1 X1.467 Y-7.2 E8.181790
G1 X-1.466 Y-7.2 E8.237830
G0 F900 X-1.407 Y-6.969
G0 X-7.2 Y1.354
G0 F900 X1.466 Y7.2 Z0.600000
G1 F337.5 X-1.467 Y7.2 E8.293870
G1 X-2.267 Y6.995 E8.343580
G1 X-3.132 Y6.651 E8.399620
G1 X-3.928 Y6.212 E8.449330
G1 X-4.22 Y6 E8.505370
G1 X4.219 Y6 E8.555080
G1 X4.678 Y5.666 E8.611120
G1 X5.354 Y5.03 E8.660830
G1 X5.544 Y4.8 E8.716870
G1 X-5.545 Y4.8 E8.766580
G1 X-5.935 Y4.328 E8.822620
G1 X-6.396 Y3.599 E8.872330
G1 X6.395 Y3.6 E8.928370
G1 X6.432 Y3.542 E8.978080
G1 X6.825 Y2.703 E9.034120
G1 X6.923 Y2.4 E9.083830
G1 X-6.925 Y2.399 E9.139870
G1 X-7.11 Y1.828 E9.189580
G1 X-7.23 Y1.199 E9.245620
G1 X7.229 Y1.2 E9.295330
G1 X7.28 Y0.931 E9.351370
G1 X7.338 Y0.00 E9.401080
G1 X-7.338 Y0.00 E9.457120
G1 X-7.28 Y-.931 E9.506830
G1 X-7.229 Y-1.2 E9.562870
G1 X7.23 Y-1.199 E9.612580
G1 X7.11 Y-1.828 E9.668620
G1 X6.925 Y-2.399 E9.718330
G1 X-6.923 Y-2.4 E9.774370
