;FLAVOR:Marlin
;TIME:269
;Filament used: 0.0651723m
;Layer height: 0.8
;Generated with Cura_SteamEngine 3.6.0
M104 S200
M105
M109 S200
M82 ;absolute extrusion mode
G21 ;metric values
G90 ;absolute positioning
M82 ;set extruder to absolute mode
M107 ;start with the fan off
G28 ;move XYZ to min endstops
G1 Z15.0 F9000 ;move the platform down 15mm
G1 F9000
;Put printing message on LCD screen
M117 Printing...
G92 E0
G1 F1500 E-6.5
;LAYER_COUNT:8
;LAYER:0
M107
G0 F600 X10.369 Y5.781 Z0.2
;TYPE:SKIRT
G1 F1500 E0
G1 F225 X9.556 Y7.05 E0.02268
G1 X9.036 Y7.712 E0.03535
G1 X8.143 Y8.649 E0.05483
G1 X7.652 Y9.092 E0.06478
G1 X6.867 Y9.7 E0.07972
G1 X6.402 Y10.014 E0.08816
G1 X5.604 Y10.483 E0.10209
G1 X5.117 Y10.731 E0.11032
G1 X4.268 Y11.097 E0.12423
G1 X3.743 Y11.284 E0.13262
G1 X2.819 Y11.55 E0.14708
G1 X2.285 Y11.669 E0.15532
G1 X1.394 Y11.809 E0.16889
G1 X0.826 Y11.86 E0.17747
G1 X-.241 Y11.888 E0.19353
G1 X-.848 Y11.862 E0.20268
G1 X-1.807 Y11.754 E0.2172
G1 X-2.354 Y11.658 E0.22556
G1 X-3.251 Y11.44 E0.23945
G1 X-3.779 Y11.276 E0.24777
G1 X-4.658 Y10.941 E0.26192
G1 X-5.159 Y10.713 E0.27021
G1 X-5.989 Y10.271 E0.28436
G1 X-6.454 Y9.985 E0.29257
G1 X-7.214 Y9.45 E0.30656
G1 X-7.66 Y9.09 E0.31519
G1 X-8.383 Y8.425 E0.32997
G1 X-8.763 Y8.028 E0.33824
G1 X-9.35 Y7.334 E0.35192
G1 X-9.676 Y6.897 E0.36012
G1 X-10.198 Y6.097 E0.3745
G1 X-10.471 Y5.616 E0.38282
G1 X-10.881 Y4.772 E0.39694
G1 X-11.092 Y4.256 E0.40533
G1 X-11.395 Y3.358 E0.41959
G1 X-11.537 Y2.831 E0.4278
G1 X-11.725 Y1.91 E0.44195
G1 X-11.802 Y1.357 E0.45035
G1 X-11.871 Y0.431 E0.46432
G1 X-11.878 Y-.114 E0.47253
G1 X-11.831 Y-1.063 E0.48682
G1 X-11.768 Y-1.614 E0.49517
G1 X-11.603 Y-2.543 E0.50937
G1 X-11.474 Y-3.077 E0.51764
G1 X-11.194 Y-3.98 E0.53186
G1 X-10.999 Y-4.492 E0.54011
G1 X-10.614 Y-5.342 E0.55415
G1 X-10.284 Y-5.942 E0.56445
G1 X-9.529 Y-7.092 E0.58516
G1 X-9.035 Y-7.714 E0.59711
G1 X-8.142 Y-8.65 E0.61658
G1 X-7.652 Y-9.092 E0.62651
G1 X-6.867 Y-9.7 E0.64145
G1 X-6.402 Y-10.015 E0.6499
G1 X-5.602 Y-10.485 E0.66386
G1 X-5.115 Y-10.732 E0.67208
G1 X-4.266 Y-11.098 E0.68599
G1 X-3.739 Y-11.286 E0.69441
G1 X-2.817 Y-11.551 E0.70885
G1 X-2.285 Y-11.669 E0.71705
G1 X-1.394 Y-11.809 E0.73062
G1 X-.85 Y-11.86 E0.73885
G1 X0.101 Y-11.89 E0.75316
G1 X0.664 Y-11.872 E0.76164
G1 X1.625 Y-11.779 E0.77617
G1 X2.174 Y-11.69 E0.78454
G1 X3.06 Y-11.489 E0.79821
G1 X3.584 Y-11.335 E0.80643
G1 X4.496 Y-11.005 E0.82102
G1 X5.013 Y-10.78 E0.82951
G1 X5.85 Y-10.349 E0.84368
G1 X6.331 Y-10.061 E0.85211
G1 X7.101 Y-9.531 E0.86618
G1 X7.534 Y-9.191 E0.87447
G1 X8.225 Y-8.575 E0.8884
G1 X8.595 Y-8.203 E0.89629
G1 X9.191 Y-7.528 E0.90984
G1 X9.531 Y-7.09 E0.91819
G1 X10.09 Y-6.268 E0.93314
G1 X10.378 Y-5.781 E0.94166
G1 X10.793 Y-4.961 E0.95549
G1 X11.007 Y-4.464 E0.96363
G1 X11.32 Y-3.594 E0.97755
G1 X11.473 Y-3.067 E0.9858
G1 X11.683 Y-2.131 E1.00024
G1 X11.771 Y-1.581 E1.00862
G1 X11.856 Y-.679 E1.02226
G1 X11.873 Y-.135 E1.03045
G1 X11.843 Y0.872 E1.04561
G1 X11.788 Y1.445 E1.05427
G1 X11.644 Y2.334 E1.06782
G1 X11.528 Y2.853 E1.07582
G1 X11.265 Y3.762 E1.09006
G1 X11.079 Y4.28 E1.09835
G1 X10.705 Y5.148 E1.11257
G1 X10.369 Y5.781 E1.12335
G0 F600 X10.032 Y5.565
G1 F225 X9.219 Y6.834 E1.14603
G1 X8.747 Y7.436 E1.15754
G1 X7.854 Y8.373 E1.17702
G1 X7.407 Y8.775 E1.18607
G1 X6.622 Y9.383 E1.20101
G1 X6.2 Y9.67 E1.20869
G1 X5.402 Y10.139 E1.22262
G1 X4.959 Y10.363 E1.23009
G1 X4.11 Y10.729 E1.244
G1 X3.633 Y10.9 E1.25163
G1 X2.709 Y11.166 E1.2661
G1 X2.223 Y11.274 E1.27359
G1 X1.332 Y11.414 E1.28716
G1 X0.816 Y11.461 E1.29496
G1 X-.251 Y11.489 E1.31102
G1 X-.804 Y11.465 E1.31935
G1 X-1.763 Y11.357 E1.33387
G1 X-2.26 Y11.269 E1.34147
G1 X-3.157 Y11.051 E1.35536
G1 X-3.637 Y10.902 E1.36292
G1 X-4.516 Y10.567 E1.37708
G1 X-4.971 Y10.36 E1.3846
G1 X-5.801 Y9.918 E1.39875
G1 X-6.224 Y9.658 E1.40623
G1 X-6.984 Y9.123 E1.42021
G1 X-7.389 Y8.796 E1.42805
G1 X-8.112 Y8.131 E1.44283
G1 X-8.458 Y7.77 E1.45035
G1 X-9.045 Y7.076 E1.46403
G1 X-9.341 Y6.679 E1.47148
G1 X-9.863 Y5.879 E1.48586
G1 X-10.111 Y5.441 E1.49343
G1 X-10.521 Y4.597 E1.50755
G1 X-10.713 Y4.128 E1.51518
G1 X-11.016 Y3.23 E1.52944
G1 X-11.145 Y2.751 E1.53691
G1 X-11.333 Y1.83 E1.55105
G1 X-11.403 Y1.327 E1.55869
G1 X-11.472 Y0.401 E1.57267
G1 X-11.478 Y-0.094 E1.58012
G1 X-11.431 Y-1.043 E1.59441
G1 X-11.374 Y-1.544 E1.602
G1 X-11.209 Y-2.473 E1.6162
G1 X-11.092 Y-2.959 E1.62372
G1 X-10.812 Y-3.862 E1.63795
G1 X-10.635 Y-4.327 E1.64544
G1 X-10.25 Y-5.177 E1.65948
G1 X-9.95 Y-5.722 E1.66884
G1 X-9.195 Y-6.872 E1.68954
G1 X-8.745 Y-7.438 E1.70043
G1 X-7.852 Y-8.374 E1.71989
G1 X-7.407 Y-8.775 E1.72891
G1 X-6.622 Y-9.383 E1.74385
G1 X-6.199 Y-9.67 E1.75154
G1 X-5.399 Y-10.14 E1.7655
G1 X-4.957 Y-10.364 E1.77296
G1 X-4.108 Y-10.73 E1.78687
G1 X-3.629 Y-10.901 E1.79453
G1 X-2.707 Y-11.166 E1.80896
G1 X-2.223 Y-11.274 E1.81643
G1 X-1.332 Y-11.414 E1.83
G1 X-.837 Y-11.46 E1.83748
G1 X0.114 Y-11.49 E1.8518
G1 X0.625 Y-11.473 E1.85949
G1 X1.586 Y-11.38 E1.87402
G1 X2.086 Y-11.3 E1.88164
G1 X2.972 Y-11.099 E1.89531
G1 X3.448 Y-10.959 E1.90278
G1 X4.36 Y-10.629 E1.91737
G1 X4.83 Y-10.424 E1.92509
G1 X5.667 Y-9.993 E1.93926
G1 X6.104 Y-9.732 E1.94692
G1 X6.874 Y-9.202 E1.96098
G1 X7.268 Y-8.893 E1.96852
G1 X7.959 Y-8.277 E1.98245
G1 X8.295 Y-7.939 E1.98962
G1 X8.891 Y-7.264 E2.00317
G1 X9.201 Y-6.865 E2.01078
G1 X9.76 Y-6.043 E2.02574
G1 X10.021 Y-5.6 E2.03347
G1 X10.436 Y-4.78 E2.0473
G1 X10.631 Y-4.328 E2.05471
G1 X10.944 Y-3.458 E2.06862
G1 X11.083 Y-2.98 E2.07612
G1 X11.293 Y-2.044 E2.09055
G1 X11.372 Y-1.543 E2.09818
G1 X11.457 Y-.641 E2.11182
G1 X11.473 Y-.147 E2.11926
G1 X11.443 Y0.86 E2.13442
G1 X11.394 Y1.381 E2.14229
G1 X11.25 Y2.27 E2.15584
G1 X11.143 Y2.742 E2.16313
G1 X10.88 Y3.651 E2.17737
G1 X10.712 Y4.122 E2.18489
G1 X10.338 Y4.99 E2.19911
G1 X10.032 Y5.565 E2.20892
G0 F600 X9.695 Y5.349
G1 F225 X8.882 Y6.618 E2.2316
G1 X8.457 Y7.16 E2.24196
G1 X7.564 Y8.097 E2.26144
G1 X7.162 Y8.459 E2.26958
G1 X6.377 Y9.067 E2.28452
G1 X5.997 Y9.325 E2.29143
G1 X5.199 Y9.794 E2.30536
G1 X4.8 Y9.996 E2.31209
G1 X3.951 Y10.362 E2.32601
G1 X3.522 Y10.516 E2.33286
G1 X2.598 Y10.782 E2.34733
G1 X2.161 Y10.878 E2.35407
G1 X1.27 Y11.018 E2.36764
G1 X0.805 Y11.061 E2.37467
G1 X-.262 Y11.089 E2.39073
G1 X-.759 Y11.067 E2.39822
G1 X-1.718 Y10.959 E2.41274
G1 X-2.165 Y10.88 E2.41957
G1 X-3.062 Y10.662 E2.43346
G1 X-3.494 Y10.528 E2.44027
G1 X-4.373 Y10.193 E2.45442
G1 X-4.783 Y10.007 E2.4612
G1 X-5.613 Y9.565 E2.47535
G1 X-5.993 Y9.331 E2.48206
G1 X-6.753 Y8.796 E2.49605
G1 X-7.118 Y8.502 E2.5031
G1 X-7.841 Y7.837 E2.51789
G1 X-8.153 Y7.512 E2.52467
G1 X-8.74 Y6.818 E2.53834
G1 X-9.006 Y6.46 E2.54506
G1 X-9.528 Y5.66 E2.55943
G1 X-9.751 Y5.266 E2.56624
G1 X-10.161 Y4.422 E2.58036
G1 X-10.334 Y4 E2.58723
G1 X-10.637 Y3.102 E2.60149
G1 X-10.753 Y2.671 E2.60821
G1 X-10.941 Y1.75 E2.62235
G1 X-11.004 Y1.298 E2.62922
G1 X-11.073 Y0.372 E2.64319
G1 X-11.079 Y-0.074 E2.6499
G1 X-11.032 Y-1.023 E2.6642
G1 X-10.981 Y-1.475 E2.67105
G1 X-10.816 Y-2.404 E2.68525
G1 X-10.709 Y-2.84 E2.692
G1 X-10.429 Y-3.743 E2.70623
G1 X-10.27 Y-4.162 E2.71297
G1 X-9.885 Y-5.012 E2.72702
G1 X-9.615 Y-5.503 E2.73545
G1 X-8.86 Y-6.653 E2.75615
G1 X-8.456 Y-7.162 E2.76593
G1 X-7.563 Y-8.098 E2.7854
G1 X-7.162 Y-8.459 E2.79352
G1 X-6.377 Y-9.067 E2.80846
G1 X-5.997 Y-9.325 E2.81537
G1 X-5.197 Y-9.795 E2.82933
G1 X-4.798 Y-9.997 E2.83606
G1 X-3.949 Y-10.363 E2.84998
G1 X-3.518 Y-10.517 E2.85686
G1 X-2.596 Y-10.782 E2.8713
G1 X-2.161 Y-10.878 E2.878
G1 X-1.27 Y-11.018 E2.89158
G1 X-.825 Y-11.06 E2.8983
G1 X0.126 Y-11.09 E2.91262
G1 X0.587 Y-11.075 E2.91956
G1 X1.548 Y-10.982 E2.93409
G1 X1.997 Y-10.91 E2.94093
G1 X2.883 Y-10.709 E2.9546
G1 X3.312 Y-10.583 E2.96133
G1 X4.224 Y-10.253 E2.97593
G1 X4.647 Y-10.069 E2.98287
G1 X5.484 Y-9.638 E2.99704
G1 X5.877 Y-9.402 E3.00394
G1 X6.647 Y-8.872 E3.018
G1 X7.002 Y-8.594 E3.02479
G1 X7.693 Y-7.978 E3.03872
G1 X7.996 Y-7.674 E3.04518
G1 X8.592 Y-6.999 E3.05873
G1 X8.87 Y-6.64 E3.06556
G1 X9.429 Y-5.818 E3.08052
G1 X9.664 Y-5.42 E3.08748
G1 X10.079 Y-4.6 E3.10131
G1 X10.254 Y-4.193 E3.10797
G1 X10.567 Y-3.323 E3.12189
G1 X10.693 Y-2.892 E3.12864
G1 X10.903 Y-1.956 E3.14308
G1 X10.974 Y-1.506 E3.14993
G1 X11.059 Y-.604 E3.16357
G1 X11.073 Y-.159 E3.17027
G1 X11.043 Y0.848 E3.18543
G1 X10.999 Y1.317 E3.19252
G1 X10.855 Y2.206 E3.20607
G1 X10.759 Y2.631 E3.21263
G1 X10.496 Y3.54 E3.22687
G1 X10.344 Y3.964 E3.23364
G1 X9.97 Y4.832 E3.24787
G1 X9.695 Y5.349 E3.25668
G0 F600 X9.358 Y5.133
G1 F225 X8.545 Y6.402 E3.27936
G1 X8.167 Y6.884 E3.28858
G1 X7.274 Y7.821 E3.30806
G1 X6.917 Y8.143 E3.31529
G1 X6.132 Y8.751 E3.33023
G1 X5.794 Y8.98 E3.33638
G1 X4.996 Y9.449 E3.35031
G1 X4.642 Y9.629 E3.35628
G1 X3.793 Y9.995 E3.37019
G1 X3.411 Y10.131 E3.3763
G1 X2.487 Y10.397 E3.39077
G1 X2.099 Y10.483 E3.39675
G1 X1.208 Y10.623 E3.41032
G1 X0.795 Y10.661 E3.41656
G1 X-.272 Y10.689 E3.43262
G1 X-.714 Y10.67 E3.43928
G1 X-1.673 Y10.562 E3.4538
G1 X-2.071 Y10.491 E3.45989
G1 X-2.968 Y10.273 E3.47378
G1 X-3.352 Y10.154 E3.47983
G1 X-4.231 Y9.819 E3.49398
G1 X-4.595 Y9.653 E3.5
G1 X-5.425 Y9.211 E3.51415
G1 X-5.763 Y9.004 E3.52012
G1 X-6.523 Y8.469 E3.53411
G1 X-6.847 Y8.207 E3.54038
G1 X-7.57 Y7.542 E3.55516
G1 X-7.847 Y7.254 E3.56117
G1 X-8.434 Y6.56 E3.57485
G1 X-8.671 Y6.242 E3.58082
G1 X-9.193 Y5.442 E3.59519
G1 X-9.391 Y5.091 E3.60126
G1 X-9.801 Y4.247 E3.61538
G1 X-9.955 Y3.872 E3.62148
G1 X-10.258 Y2.974 E3.63574
G1 X-10.361 Y2.591 E3.64171
G1 X-10.549 Y1.67 E3.65585
G1 X-10.605 Y1.268 E3.66196
G1 X-10.674 Y0.342 E3.67593
G1 X-10.679 Y-0.054 E3.68189
G1 X-10.632 Y-1.003 E3.69619
G1 X-10.587 Y-1.405 E3.70228
G1 X-10.422 Y-2.334 E3.71648
G1 X-10.327 Y-2.722 E3.72249
G1 X-10.047 Y-3.625 E3.73672
G1 X-9.906 Y-3.997 E3.7427
G1 X-9.521 Y-4.847 E3.75675
G1 X-9.281 Y-5.283 E3.76424
G1 X-8.526 Y-6.433 E3.78494
G1 X-8.166 Y-6.886 E3.79364
G1 X-7.273 Y-7.822 E3.81311
G1 X-6.917 Y-8.143 E3.82033
G1 X-6.132 Y-8.751 E3.83527
G1 X-5.794 Y-8.98 E3.84141
G1 X-4.994 Y-9.45 E3.85537
G1 X-4.64 Y-9.63 E3.86135
G1 X-3.791 Y-9.996 E3.87526
G1 X-3.408 Y-10.132 E3.88138
G1 X-2.486 Y-10.397 E3.89582
G1 X-2.099 Y-10.483 E3.90178
G1 X-1.208 Y-10.623 E3.91535
G1 X-.812 Y-10.66 E3.92134
G1 X0.139 Y-10.69 E3.93566
G1 X0.548 Y-10.677 E3.94182
G1 X1.509 Y-10.584 E3.95634
G1 X1.909 Y-10.52 E3.96244
G1 X2.795 Y-10.319 E3.97611
G1 X3.176 Y-10.207 E3.98209
G1 X4.088 Y-9.877 E3.99668
G1 X4.464 Y-9.713 E4.00286
G1 X5.301 Y-9.282 E4.01702
G1 X5.65 Y-9.073 E4.02315
G1 X6.42 Y-8.543 E4.03721
G1 X6.735 Y-8.296 E4.04324
G1 X7.426 Y-7.68 E4.05717
G1 X7.696 Y-7.409 E4.06292
G1 X8.292 Y-6.734 E4.07647
G1 X8.539 Y-6.415 E4.08255
G1 X9.098 Y-5.593 E4.0975
G1 X9.307 Y-5.239 E4.10369
G1 X9.722 Y-4.419 E4.11752
G1 X9.878 Y-4.057 E4.12345
G1 X10.191 Y-3.187 E4.13737
G1 X10.302 Y-2.805 E4.14335
G1 X10.512 Y-1.869 E4.15779
G1 X10.576 Y-1.468 E4.1639
G1 X10.661 Y-.566 E4.17753
G1 X10.674 Y-.171 E4.18348
G1 X10.644 Y0.836 E4.19864
G1 X10.604 Y1.253 E4.20494
G1 X10.46 Y2.142 E4.2185
G1 X10.375 Y2.519 E4.22431
G1 X10.112 Y3.428 E4.23855
G1 X9.977 Y3.805 E4.24458
G1 X9.603 Y4.673 E4.2588
G1 X9.358 Y5.133 E4.26664
G1 F1500 E-2.23336
;MESH:circle.stl
G0 F600 X7.89 Y2.093
G0 X7.239 Y1.882
G0 X7.2 Y-1.344
;TYPE:FILL
G1 F1500 E4.26664
G1 F225 X7.2 Y1.345 E4.30711
G1 X7.104 Y1.843 E4.31474
G1 X6.816 Y2.722 E4.32866
G1 X6.422 Y3.559 E4.34258
G1 X6 Y4.221 E4.3544
G1 X6 Y-4.226 E4.48151
G1 X5.955 Y-4.298 E4.48279
G1 X5.362 Y-5.021 E4.49686
G1 X4.8 Y-5.551 E4.50848
G1 X4.8 Y5.551 E4.67555
G1 X4.665 Y5.677 E4.67833
G0 F600 X4.288 Y5.949
G1 F225 X3.755 Y6.307 E4.69766
G0 F600 X3.6 Y6.393
G1 F225 X3.6 Y-6.391 E4.89004
G1 X3.142 Y-6.646 E4.89792
G1 X2.4 Y-6.941 E4.90994
G1 X2.4 Y6.941 E5.11884
G1 X2.251 Y7 E5.12125
G1 X1.356 Y7.227 E5.13515
G1 X1.2 Y7.247 E5.13752
G1 X1.2 Y-7.244 E5.35558
G1 X0.478 Y-7.338 E5.36654
G1 X0.00 Y-7.339 E5.37373
G1 X0.00 Y7.339 E5.59461
G1 X-.478 Y7.338 E5.60181
G1 X-1.2 Y7.244 E5.61276
G1 X-1.2 Y-7.247 E5.83083
G1 X-1.356 Y-7.227 E5.8332
G1 X-2.251 Y-7 E5.84709
G1 X-2.4 Y-6.941 E5.8495
G1 X-2.4 Y6.941 E6.05841
G1 X-3.142 Y6.646 E6.07042
G1 X-3.6 Y6.391 E6.07831
G1 X-3.6 Y-6.393 E6.27069
G0 F600 X-3.755 Y-6.307
G1 F225 X-4.288 Y-5.949 E6.28349
G1 X-4.732 Y-5.614 E6.29458
G0 F600 X-4.8 Y-5.551
G1 F225 X-4.8 Y5.551 E6.46164
G1 X-5.362 Y5.021 E6.47327
G1 X-5.955 Y4.298 E6.48734
G1 X-6 Y4.226 E6.48862
G1 X-6 Y-4.221 E6.61573
G1 X-6.422 Y-3.559 E6.62755
G1 X-6.816 Y-2.722 E6.64147
G1 X-7.104 Y-1.843 E6.65539
G1 X-7.2 Y-1.345 E6.66302
G1 X-7.2 Y1.344 E6.70348
G0 F600 X-6.963 Y1.304
;MESH:NONMESH
G0 X1.466 Y7.2
;TIME_ELAPSED:129.173199
;LAYER:1
M106 S255
;MESH:circle.stl
G0 F900 X1.466 Y7.2 Z1
;TYPE:FILL
G1 F337.5 X-1.467 Y7.2 E6.88003
G1 X-2.267 Y6.995 E6.92974
G1 X-3.132 Y6.651 E6.98578
G1 X-3.928 Y6.212 E7.04049
G1 X-4.22 Y6 E7.06222
G1 X4.219 Y6 E7.57019
G1 X4.678 Y5.666 E7.60436
G1 X5.354 Y5.03 E7.66023
G1 X5.544 Y4.8 E7.67819
G1 X-5.545 Y4.8 E8.34568
G1 X-5.935 Y4.328 E8.38253
G1 X-6.396 Y3.599 E8.43445
G1 X6.395 Y3.6 E9.20439
G1 X6.432 Y3.542 E9.20853
G1 X6.825 Y2.703 E9.2643
G1 X6.923 Y2.4 E9.28347
G1 X-6.925 Y2.399 E10.11703
G1 X-7.11 Y1.828 E10.15316
G1 X-7.23 Y1.199 E10.19171
G1 X7.229 Y1.2 E11.06205
G1 X7.28 Y0.931 E11.07853
G1 X7.338 Y0.00 E11.13468
G1 X-7.338 Y0.00 E12.01808
G1 X-7.28 Y-.931 E12.07423
G1 X-7.229 Y-1.2 E12.09071
G1 X7.23 Y-1.199 E12.96105
G1 X7.11 Y-1.828 E12.9996
G1 X6.925 Y-2.399 E13.03573
G1 X-6.923 Y-2.4 E13.86929
G1 X-6.825 Y-2.703 E13.88846
G1 X-6.432 Y-3.542 E13.94423
G1 X-6.395 Y-3.6 E13.94837
G1 X6.396 Y-3.599 E14.71831
G1 X5.935 Y-4.328 E14.77023
G1 X5.545 Y-4.8 E14.80708
G1 X-5.544 Y-4.8 E15.47457
G1 X-5.354 Y-5.03 E15.49253
G1 X-4.678 Y-5.666 E15.5484
G1 X-4.219 Y-6 E15.58257
G1 X4.22 Y-6 E16.09054
G1 X3.928 Y-6.212 E16.11226
G1 X3.132 Y-6.651 E16.16698
G1 X2.267 Y-6.995 E16.22301
G1 X1.467 Y-7.2 E16.27273
G1 X-1.466 Y-7.2 E16.44927
G0 F900 X-1.407 Y-6.969
;MESH:NONMESH
G0 X-7.2 Y1.354
;TIME_ELAPSED:158.855518
;LAYER:2
;MESH:circle.stl
G0 F1200 X-7.2 Y1.354 Z1.8
;TYPE:FILL
G1 F450 X-7.2 Y-1.355 E16.61234
G1 X-7.11 Y-1.829 E16.64138
G1 X-6.825 Y-2.704 E16.69677
G1 X-6.432 Y-3.543 E16.75254
G1 X-6 Y-4.226 E16.80119
G1 X-6 Y4.225 E17.30989
G1 X-5.935 Y4.328 E17.31722
G1 X-5.354 Y5.03 E17.37207
G1 X-4.8 Y5.551 E17.41784
G1 X-4.8 Y-5.552 E18.08618
G1 X-4.678 Y-5.666 E18.09623
G1 X-3.929 Y-6.212 E18.15202
G1 X-3.6 Y-6.394 E18.17465
G1 X-3.6 Y6.393 E18.94435
G1 X-3.133 Y6.651 E18.97646
G1 X-2.4 Y6.942 E19.02394
G1 X-2.4 Y-6.943 E19.85973
G1 X-2.268 Y-6.995 E19.86827
G1 X-1.37 Y-7.225 E19.92407
G1 X-1.2 Y-7.247 E19.93438
G1 X-1.2 Y7.246 E20.80677
G1 X-.463 Y7.34 E20.8515
G1 X0.00 Y7.34 E20.87936
G1 X0.00 Y-7.34 E21.76301
G1 X0.463 Y-7.34 E21.79088
G1 X1.2 Y-7.246 E21.8356
G1 X1.2 Y7.247 E22.70799
G1 X1.37 Y7.225 E22.71831
G1 X2.268 Y6.995 E22.77411
G1 X2.4 Y6.943 E22.78265
G1 X2.4 Y-6.942 E23.61844
G1 X3.133 Y-6.651 E23.66591
G1 X3.6 Y-6.393 E23.69802
G1 X3.6 Y6.394 E24.46772
G1 X3.929 Y6.212 E24.49035
G1 X4.678 Y5.666 E24.54615
G1 X4.8 Y5.552 E24.5562
G1 X4.8 Y-5.551 E25.22453
G1 X5.354 Y-5.03 E25.27031
G1 X5.935 Y-4.328 E25.32516
G1 X6 Y-4.225 E25.33249
G1 X6 Y4.226 E25.84119
G1 X6.432 Y3.543 E25.88983
G1 X6.825 Y2.704 E25.9456
G1 X7.11 Y1.829 E26.00099
G1 X7.2 Y1.355 E26.03004
G1 X7.2 Y-1.354 E26.1931
G0 F1200 X6.963 Y-1.309
;MESH:NONMESH
G0 X1.466 Y7.2
;TIME_ELAPSED:181.163987
;LAYER:3
;MESH:circle.stl
G0 X1.466 Y7.2 Z2.6
;TYPE:FILL
G1 F450 X-1.467 Y7.2 E26.36965
G1 X-2.267 Y6.995 E26.41936
G1 X-3.132 Y6.651 E26.47539
G1 X-3.928 Y6.212 E26.53011
G1 X-4.22 Y6 E26.55183
G1 X4.219 Y6 E27.05981
G1 X4.678 Y5.666 E27.09398
G1 X5.354 Y5.03 E27.14985
G1 X5.544 Y4.8 E27.1678
G1 X-5.545 Y4.8 E27.83529
G1 X-5.935 Y4.328 E27.87215
G1 X-6.396 Y3.599 E27.92407
G1 X6.395 Y3.6 E28.69401
G1 X6.432 Y3.542 E28.69815
G1 X6.825 Y2.703 E28.75392
G1 X6.923 Y2.4 E28.77308
G1 X-6.925 Y2.399 E29.60665
G1 X-7.11 Y1.828 E29.64278
G1 X-7.23 Y1.199 E29.68132
G1 X7.229 Y1.2 E30.55166
G1 X7.28 Y0.931 E30.56814
G1 X7.338 Y0.00 E30.62429
G1 X-7.338 Y0.00 E31.5077
G1 X-7.28 Y-.931 E31.56385
G1 X-7.229 Y-1.2 E31.58033
G1 X7.23 Y-1.199 E32.45067
G1 X7.11 Y-1.828 E32.48921
G1 X6.925 Y-2.399 E32.52534
G1 X-6.923 Y-2.4 E33.35891
G1 X-6.825 Y-2.703 E33.37808
G1 X-6.432 Y-3.542 E33.43384
G1 X-6.395 Y-3.6 E33.43799
G1 X6.396 Y-3.599 E34.20792
G1 X5.935 Y-4.328 E34.25984
G1 X5.545 Y-4.8 E34.2967
G1 X-5.544 Y-4.8 E34.96419
G1 X-5.354 Y-5.03 E34.98215
G1 X-4.678 Y-5.666 E35.03801
G1 X-4.219 Y-6 E35.07218
G1 X4.22 Y-6 E35.58016
G1 X3.928 Y-6.212 E35.60188
G1 X3.132 Y-6.651 E35.6566
G1 X2.267 Y-6.995 E35.71263
G1 X1.467 Y-7.2 E35.76234
G1 X-1.466 Y-7.2 E35.93889
G0 F1200 X-1.407 Y-6.969
;MESH:NONMESH
G0 X-7.2 Y1.354
;TIME_ELAPSED:203.477184
;LAYER:4
;MESH:circle.stl
G0 X-7.2 Y1.354 Z3.4
;TYPE:FILL
G1 F450 X-7.2 Y-1.355 E36.10196
G1 X-7.11 Y-1.829 E36.131
G1 X-6.825 Y-2.704 E36.18639
G1 X-6.432 Y-3.543 E36.24216
G1 X-6 Y-4.226 E36.2908
G1 X-6 Y4.225 E36.7995
G1 X-5.935 Y4.328 E36.80683
G1 X-5.354 Y5.03 E36.86168
G1 X-4.8 Y5.551 E36.90746
G1 X-4.8 Y-5.552 E37.57579
G1 X-4.678 Y-5.666 E37.58584
G1 X-3.929 Y-6.212 E37.64164
G1 X-3.6 Y-6.394 E37.66427
G1 X-3.6 Y6.393 E38.43397
G1 X-3.133 Y6.651 E38.46608
G1 X-2.4 Y6.942 E38.51355
G1 X-2.4 Y-6.943 E39.34934
G1 X-2.268 Y-6.995 E39.35788
G1 X-1.37 Y-7.225 E39.41368
G1 X-1.2 Y-7.247 E39.424
G1 X-1.2 Y7.246 E40.29639
G1 X-.463 Y7.34 E40.34111
G1 X0.00 Y7.34 E40.36898
G1 X0.00 Y-7.34 E41.25263
G1 X0.463 Y-7.34 E41.2805
G1 X1.2 Y-7.246 E41.32522
G1 X1.2 Y7.247 E42.19761
G1 X1.37 Y7.225 E42.20793
G1 X2.268 Y6.995 E42.26372
G1 X2.4 Y6.943 E42.27226
G1 X2.4 Y-6.942 E43.10805
G1 X3.133 Y-6.651 E43.15553
G1 X3.6 Y-6.393 E43.18764
G1 X3.6 Y6.394 E43.95734
G1 X3.929 Y6.212 E43.97997
G1 X4.678 Y5.666 E44.03576
G1 X4.8 Y5.552 E44.04582
G1 X4.8 Y-5.551 E44.71415
G1 X5.354 Y-5.03 E44.75992
G1 X5.935 Y-4.328 E44.81478
G1 X6 Y-4.225 E44.82211
G1 X6 Y4.226 E45.3308
G1 X6.432 Y3.543 E45.37945
G1 X6.825 Y2.704 E45.43522
G1 X7.11 Y1.829 E45.49061
G1 X7.2 Y1.355 E45.51965
G1 X7.2 Y-1.354 E45.68272
G0 F1200 X6.963 Y-1.309
;MESH:NONMESH
G0 X1.466 Y7.2
;TIME_ELAPSED:225.785654
;LAYER:5
;MESH:circle.stl
G0 X1.466 Y7.2 Z4.2
;TYPE:FILL
G1 F450 X-1.467 Y7.2 E45.85927
G1 X-2.267 Y6.995 E45.90898
G1 X-3.132 Y6.651 E45.96501
G1 X-3.928 Y6.212 E46.01973
G1 X-4.22 Y6 E46.04145
G1 X4.219 Y6 E46.54943
G1 X4.678 Y5.666 E46.58359
G1 X5.354 Y5.03 E46.63946
G1 X5.544 Y4.8 E46.65742
G1 X-5.545 Y4.8 E47.32491
G1 X-5.935 Y4.328 E47.36177
G1 X-6.396 Y3.599 E47.41368
G1 X6.395 Y3.6 E48.18362
G1 X6.432 Y3.542 E48.18776
G1 X6.825 Y2.703 E48.24353
G1 X6.923 Y2.4 E48.2627
G1 X-6.925 Y2.399 E49.09627
G1 X-7.11 Y1.828 E49.13239
G1 X-7.23 Y1.199 E49.17094
G1 X7.229 Y1.2 E50.04128
G1 X7.28 Y0.931 E50.05776
G1 X7.338 Y0.00 E50.11391
G1 X-7.338 Y0.00 E50.99732
G1 X-7.28 Y-.931 E51.05346
G1 X-7.229 Y-1.2 E51.06994
G1 X7.23 Y-1.199 E51.94029
G1 X7.11 Y-1.828 E51.97883
G1 X6.925 Y-2.399 E52.01496
G1 X-6.923 Y-2.4 E52.84852
G1 X-6.825 Y-2.703 E52.86769
G1 X-6.432 Y-3.542 E52.92346
G1 X-6.395 Y-3.6 E52.9276
G1 X6.396 Y-3.599 E53.69754
G1 X5.935 Y-4.328 E53.74946
G1 X5.545 Y-4.8 E53.78632
G1 X-5.544 Y-4.8 E54.4538
G1 X-5.354 Y-5.03 E54.47176
G1 X-4.678 Y-5.666 E54.52763
G1 X-4.219 Y-6 E54.5618
G1 X4.22 Y-6 E55.06978
G1 X3.928 Y-6.212 E55.0915
G1 X3.132 Y-6.651 E55.14621
G1 X2.267 Y-6.995 E55.20225
G1 X1.467 Y-7.2 E55.25196
G1 X-1.466 Y-7.2 E55.42851
G0 F1200 X-1.407 Y-6.969
;MESH:NONMESH
G0 X-7.2 Y1.354
;TIME_ELAPSED:248.098851
;LAYER:6
;MESH:circle.stl
G0 X-7.2 Y1.354 Z5
;TYPE:FILL
G1 F450 X-7.2 Y-1.355 E55.59157
G1 X-7.11 Y-1.829 E55.62061
G1 X-6.825 Y-2.704 E55.67601
G1 X-6.432 Y-3.543 E55.73178
G1 X-6 Y-4.226 E55.78042
G1 X-6 Y4.225 E56.28912
G1 X-5.935 Y4.328 E56.29645
G1 X-5.354 Y5.03 E56.3513
G1 X-4.8 Y5.551 E56.39708
G1 X-4.8 Y-5.552 E57.06541
G1 X-4.678 Y-5.666 E57.07546
G1 X-3.929 Y-6.212 E57.13125
G1 X-3.6 Y-6.394 E57.15389
G1 X-3.6 Y6.393 E57.92358
G1 X-3.133 Y6.651 E57.9557
G1 X-2.4 Y6.942 E58.00317
G1 X-2.4 Y-6.943 E58.83896
G1 X-2.268 Y-6.995 E58.8475
G1 X-1.37 Y-7.225 E58.9033
G1 X-1.2 Y-7.247 E58.91362
G1 X-1.2 Y7.246 E59.78601
G1 X-.463 Y7.34 E59.83073
G1 X0.00 Y7.34 E59.8586
G1 X0.00 Y-7.34 E60.74224
G1 X0.463 Y-7.34 E60.77011
G1 X1.2 Y-7.246 E60.81484
G1 X1.2 Y7.247 E61.68722
G1 X1.37 Y7.225 E61.69754
G1 X2.268 Y6.995 E61.75334
G1 X2.4 Y6.943 E61.76188
G1 X2.4 Y-6.942 E62.59767
G1 X3.133 Y-6.651 E62.64514
G1 X3.6 Y-6.393 E62.67726
G1 X3.6 Y6.394 E63.44696
G1 X3.929 Y6.212 E63.46959
G1 X4.678 Y5.666 E63.52538
G1 X4.8 Y5.552 E63.53543
G1 X4.8 Y-5.551 E64.20376
G1 X5.354 Y-5.03 E64.24954
G1 X5.935 Y-4.328 E64.30439
G1 X6 Y-4.225 E64.31172
G1 X6 Y4.226 E64.82042
G1 X6.432 Y3.543 E64.86907
G1 X6.825 Y2.704 E64.92484
G1 X7.11 Y1.829 E64.98023
G1 X7.2 Y1.355 E65.00927
G1 X7.2 Y-1.354 E65.17234
G0 F1200 X6.963 Y-1.309
;TIME_ELAPSED:269.900812
G1 F1500 E58.67234
M140 S0
M107
M104 S0 ;extruder heater off
M140 S0 ;heated bed heater off (if you have it)
G91 ;relative positioning
G1 E-1 F300  ;retract the filament a bit before lifting the nozzle, to release some of the pressure
G1 Z+0.5 E-5 X-20 Y-20 F9000 ;move Z up a bit and retract filament even more
G28 X0 Y0 ;move X/Y to min endstops, so the head is out of the way
M84 ;steppers off
G90 ;absolute positioning
M82 ;absolute extrusion mode
M104 S0
;End of Gcode
;SETTING_3 {"global_quality": "[general]\\nversion = 4\\nname = Carolyn - PLA\\n
;SETTING_3 definition = fdmprinter\\n\\n[metadata]\\nsetting_version = 5\\ntype 
;SETTING_3 = quality_changes\\nquality_type = verydraft\\n\\n[values]\\nadhesion
;SETTING_3 _type = skirt\\nlayer_height = 0.8\\nlayer_height_0 = 0.2\\nmaterial_
;SETTING_3 bed_temperature = 0\\n\\n", "extruder_quality": ["[general]\\nversion
;SETTING_3  = 4\\nname = Carolyn - PLA\\ndefinition = fdmprinter\\n\\n[metadata]
;SETTING_3 \\nposition = 0\\nsetting_version = 5\\ntype = quality_changes\\nqual
;SETTING_3 ity_type = verydraft\\n\\n[values]\\nbrim_width = 0\\ninfill_angles =
;SETTING_3  [0,90]\\ninfill_line_distance = 1.2\\ninfill_pattern = zigzag\\ninfi
;SETTING_3 ll_sparse_density = 70\\nmaterial_flow = 120\\nskirt_line_count = 2\\
;SETTING_3 nspeed_print = 7.5\\nspeed_travel = 20\\ntop_bottom_thickness = 0.0\\
;SETTING_3 nwall_thickness = 0.0\\n\\n"]}
