;FLAVOR:Marlin
;TIME:76
;Filament used: 0.0842538m
;Layer height: 1.4
;Generated with Cura_SteamEngine 3.6.0
M104 S200
M105
M109 S200
M82 ;absolute extrusion mode
G21 ;metric values
G90 ;absolute positioning
M82 ;set extruder to absolute mode
M107 ;start with the fan off
G28 ;move XYZ to min endstops
G1 Z15.0 F9000 ;move the platform down 15mm
G1 F9000
;Put printing message on LCD screen
M117 Printing...
G92 E0
G1 F1500 E-6.5
;LAYER_COUNT:5
;LAYER:0
M107
;MESH:circle.stl
G0 F1500 X-7.2 Y4.209 Z0.1
;TYPE:FILL
G1 F1500 E0
G1 F900 X-7.2 Y-4.211 E0.06335
G1 X-6.75 Y-4.917 E0.06965
G1 X-6.081 Y-5.724 E0.07754
G1 X-6 Y-5.801 E0.07838
G1 X-6 Y5.797 E0.16565
G1 X-5.327 Y6.431 E0.1726
G1 X-4.8 Y6.814 E0.17751
G1 X-4.8 Y-6.815 E0.28005
G1 X-4.46 Y-7.06 E0.28321
G1 X-3.6 Y-7.532 E0.29059
G1 X-3.6 Y7.531 E0.40393
G1 X-3.569 Y7.549 E0.4042
G1 X-2.59 Y7.94 E0.41213
G1 X-2.4 Y7.988 E0.4136
G1 X-2.4 Y-7.991 E0.53383
G1 X-1.553 Y-8.206 E0.54041
G1 X-1.2 Y-8.251 E0.54308
G1 X-1.2 Y8.249 E0.66723
G1 X-.537 Y8.335 E0.67226
G1 X0.00 Y8.335 E0.6763
G1 X0.00 Y-8.335 E0.80173
G1 X0.537 Y-8.335 E0.80577
G1 X1.2 Y-8.249 E0.8108
G1 X1.2 Y8.251 E0.93495
G1 X1.553 Y8.206 E0.93763
G1 X2.4 Y7.991 E0.94421
G1 X2.4 Y-7.988 E1.06444
G1 X2.59 Y-7.94 E1.06591
G1 X3.569 Y-7.549 E1.07384
G1 X3.6 Y-7.531 E1.07411
G1 X3.6 Y7.532 E1.18745
G1 X4.46 Y7.06 E1.19483
G1 X4.8 Y6.815 E1.19798
G1 X4.8 Y-6.814 E1.30053
G1 X5.325 Y-6.433 E1.30541
G1 X6 Y-5.797 E1.31239
G1 X6 Y5.801 E1.39966
G1 X6.081 Y5.724 E1.4005
G1 X6.75 Y4.917 E1.40839
G1 X7.2 Y4.211 E1.41468
G1 X7.2 Y-4.209 E1.47804
G0 F1500 X6.997 Y-4.082
;MESH:NONMESH
G0 X4.204 Y7.2
;TIME_ELAPSED:21.903687
;LAYER:1
M106 S255
;MESH:circle.stl
G0 X4.204 Y7.2 Z1.5
;TYPE:FILL
G1 F900 X-4.205 Y7.2 E2.36384
G1 X-4.47 Y7.054 E2.39571
G1 X-5.323 Y6.435 E2.50673
G1 X-5.788 Y6 E2.5738
G1 X5.787 Y6 E3.7931
G1 X6.089 Y5.717 E3.8367
G1 X6.757 Y4.91 E3.94705
G1 X6.826 Y4.8 E3.96073
G1 X-6.827 Y4.8 E5.39893
G1 X-7.32 Y4.023 E5.49586
G1 X-7.52 Y3.599 E5.54524
G1 X7.518 Y3.6 E7.12933
G1 X7.767 Y3.071 E7.19092
G1 X7.985 Y2.4 E7.26524
G1 X-7.986 Y2.399 E8.94761
G1 X-8.091 Y2.074 E8.98359
G1 X-8.258 Y1.199 E9.07742
G1 X8.257 Y1.2 E10.8171
G1 X8.284 Y1.058 E10.83233
G1 X8.35 Y0.00 E10.94399
G1 X-8.35 Y0.00 E12.70315
G1 X-8.284 Y-1.058 E12.81482
G1 X-8.257 Y-1.2 E12.83005
G1 X8.258 Y-1.199 E14.56972
G1 X8.091 Y-2.074 E14.66356
G1 X7.986 Y-2.399 E14.69953
G1 X-7.985 Y-2.4 E16.38191
G1 X-7.767 Y-3.071 E16.45623
G1 X-7.518 Y-3.6 E16.51781
G1 X7.52 Y-3.599 E18.1019
G1 X7.32 Y-4.023 E18.15129
G1 X6.827 Y-4.8 E18.24822
G1 X-6.826 Y-4.8 E19.68642
G1 X-6.757 Y-4.91 E19.70009
G1 X-6.089 Y-5.717 E19.81045
G1 X-5.787 Y-6 E19.85404
G1 X5.788 Y-6 E21.07334
G1 X5.323 Y-6.435 E21.14042
G1 X4.47 Y-7.054 E21.25144
G1 X4.205 Y-7.2 E21.28331
G1 X-4.204 Y-7.2 E22.16911
G0 F1500 X-4.092 Y-6.989
;MESH:NONMESH
G0 X-7.2 Y4.212
;TIME_ELAPSED:35.797629
;LAYER:2
;MESH:circle.stl
G0 X-7.2 Y4.212 Z2.9
;TYPE:FILL
G1 F900 X-7.2 Y-4.213 E23.05659
G1 X-6.757 Y-4.91 E23.14359
G0 F1500 X-6.423 Y-5.313
G1 F900 X-6.044 Y-5.759 E23.26679
G0 F1500 X-6 Y-5.801
G1 F900 X-6 Y5.8 E24.48883
G1 X-5.323 Y6.435 E24.5866
G1 X-4.8 Y6.814 E24.65464
G1 X-4.8 Y-6.815 E26.09031
G1 X-4.47 Y-7.054 E26.13323
G1 X-3.6 Y-7.533 E26.23784
G1 X-3.6 Y7.532 E27.82478
G1 X-3.563 Y7.553 E27.82926
G1 X-2.58 Y7.944 E27.9407
G1 X-2.4 Y7.99 E27.96027
G1 X-2.4 Y-7.991 E29.64369
G1 X-1.56 Y-8.205 E29.735
G1 X-1.2 Y-8.251 E29.77323
G1 X-1.2 Y8.25 E31.51144
G1 X-.527 Y8.336 E31.58291
G1 X0.00 Y8.336 E31.63842
G1 X0.00 Y-8.336 E33.39463
G1 X0.527 Y-8.336 E33.45015
G1 X1.2 Y-8.25 E33.52162
G1 X1.2 Y8.251 E35.25982
G1 X1.56 Y8.205 E35.29805
G1 X2.4 Y7.991 E35.38936
G1 X2.4 Y-7.99 E37.07278
G1 X2.58 Y-7.944 E37.09235
G1 X3.563 Y-7.553 E37.20379
G1 X3.6 Y-7.532 E37.20827
G1 X3.6 Y7.533 E38.79521
G1 X4.47 Y7.054 E38.89983
G1 X4.8 Y6.815 E38.94275
G1 X4.8 Y-6.814 E40.37841
G1 X5.323 Y-6.435 E40.44645
G1 X6 Y-5.8 E40.54423
G1 X6 Y5.801 E41.76627
G0 F1500 X6.044 Y5.759
G1 F900 X6.423 Y5.313 E41.84877
G1 X6.978 Y4.561 E41.98052
G0 F1500 X7.2 Y4.213
G1 F900 X7.2 Y-4.212 E42.868
G0 F1500 X6.998 Y-4.084
;MESH:NONMESH
G0 X4.204 Y7.2
;TIME_ELAPSED:49.670129
;LAYER:3
;MESH:circle.stl
G0 X4.204 Y7.2 Z4.3
;TYPE:FILL
G1 F900 X-4.205 Y7.2 E43.7538
G1 X-4.47 Y7.054 E43.78567
G1 X-5.323 Y6.435 E43.89669
G1 X-5.788 Y6 E43.96376
G1 X5.787 Y6 E45.18306
G1 X6.089 Y5.717 E45.22666
G1 X6.757 Y4.91 E45.33701
G1 X6.826 Y4.8 E45.35069
G1 X-6.827 Y4.8 E46.78889
G1 X-7.32 Y4.023 E46.88582
G1 X-7.52 Y3.599 E46.9352
G1 X7.518 Y3.6 E48.51929
G1 X7.767 Y3.071 E48.58088
G1 X7.985 Y2.4 E48.6552
G1 X-7.986 Y2.399 E50.33757
G1 X-8.091 Y2.074 E50.37355
G1 X-8.258 Y1.199 E50.46739
G1 X8.257 Y1.2 E52.20706
G1 X8.284 Y1.058 E52.22229
G1 X8.35 Y0.00 E52.33395
G1 X-8.35 Y0.00 E54.09312
G1 X-8.284 Y-1.058 E54.20478
G1 X-8.257 Y-1.2 E54.22001
G1 X8.258 Y-1.199 E55.95968
G1 X8.091 Y-2.074 E56.05352
G1 X7.986 Y-2.399 E56.0895
G1 X-7.985 Y-2.4 E57.77187
G1 X-7.767 Y-3.071 E57.84619
G1 X-7.518 Y-3.6 E57.90777
G1 X7.52 Y-3.599 E59.49186
G1 X7.32 Y-4.023 E59.54125
G1 X6.827 Y-4.8 E59.63818
G1 X-6.826 Y-4.8 E61.07638
G1 X-6.757 Y-4.91 E61.09005
G1 X-6.089 Y-5.717 E61.20041
G1 X-5.787 Y-6 E61.24401
G1 X5.788 Y-6 E62.46331
G1 X5.323 Y-6.435 E62.53038
G1 X4.47 Y-7.054 E62.6414
G1 X4.205 Y-7.2 E62.67327
G1 X-4.204 Y-7.2 E63.55907
G0 F1500 X-4.092 Y-6.989
;MESH:NONMESH
G0 X-7.2 Y4.209
;TIME_ELAPSED:63.563955
;LAYER:4
;MESH:circle.stl
G0 X-7.2 Y4.209 Z5.7
;TYPE:FILL
G1 F900 X-7.2 Y-4.209 E64.44581
G1 X-6.769 Y-4.892 E64.53089
G0 F1500 X-6.435 Y-5.296
G1 F900 X-6.05 Y-5.749 E64.65614
G0 F1500 X-6 Y-5.797
G1 F900 X-6 Y5.799 E65.87765
G1 X-5.306 Y6.447 E65.97767
G1 X-4.8 Y6.812 E66.04339
G1 X-4.8 Y-6.815 E67.47885
G1 X-4.492 Y-7.039 E67.51896
G1 X-3.6 Y-7.532 E67.62632
G1 X-3.6 Y7.529 E69.21283
G1 X-3.533 Y7.566 E69.2209
G1 X-2.559 Y7.95 E69.33118
G1 X-2.4 Y7.99 E69.34845
G1 X-2.4 Y-7.988 E71.03156
G1 X-1.583 Y-8.199 E71.12045
G1 X-1.2 Y-8.249 E71.16113
G1 X-1.2 Y8.25 E72.89912
G1 X-.504 Y8.336 E72.973
G1 X0.00 Y8.335 E73.02609
G1 X0.00 Y-8.335 E74.78209
G1 X0.504 Y-8.336 E74.83518
G1 X1.2 Y-8.25 E74.90906
G1 X1.2 Y8.249 E76.64705
G1 X1.583 Y8.199 E76.68773
G1 X2.4 Y7.988 E76.77662
G1 X2.4 Y-7.99 E78.45973
G1 X2.559 Y-7.95 E78.477
G1 X3.533 Y-7.566 E78.58729
G1 X3.6 Y-7.529 E78.59535
G1 X3.6 Y7.532 E80.18186
G1 X4.492 Y7.039 E80.28922
G1 X4.8 Y6.815 E80.32934
G1 X4.8 Y-6.812 E81.76479
G1 X5.306 Y-6.447 E81.83051
G1 X6 Y-5.799 E81.93053
G1 X6 Y5.797 E83.15205
G0 F1500 X6.05 Y5.749
G1 F900 X6.435 Y5.296 E83.23611
G1 X6.984 Y4.55 E83.36708
G0 F1500 X7.2 Y4.209
G1 F900 X7.2 Y-4.209 E84.25383
G0 F1500 X6.999 Y-4.08
;TIME_ELAPSED:76.968198
G1 F1500 E77.75383
M140 S0
M107
M104 S0 ;extruder heater off
M140 S0 ;heated bed heater off (if you have it)
G91 ;relative positioning
G1 E-1 F300  ;retract the filament a bit before lifting the nozzle, to release some of the pressure
G1 Z+0.5 E-5 X-20 Y-20 F9000 ;move Z up a bit and retract filament even more
G28 X0 Y0 ;move X/Y to min endstops, so the head is out of the way
M84 ;steppers off
G90 ;absolute positioning
M82 ;absolute extrusion mode
M104 S0
;End of Gcode
;SETTING_3 {"extruder_quality": ["[general]\\nversion = 4\\nname = Carolyn - PLA
;SETTING_3 \\ndefinition = fdmprinter\\n\\n[metadata]\\nposition = 0\\nquality_t
;SETTING_3 ype = verydraft\\ntype = quality_changes\\nsetting_version = 5\\n\\n[
;SETTING_3 values]\\nbrim_width = 0\\ninfill_angles = [0,90]\\ninfill_line_dista
;SETTING_3 nce = 1.2\\ninfill_pattern = zigzag\\ninfill_sparse_density = 70\\nma
;SETTING_3 terial_flow = 120\\nskirt_line_count = 2\\nspeed_layer_0 = 15\\nspeed
;SETTING_3 _print = 15\\nspeed_travel = 25\\ntop_bottom_thickness = 0.0\\nwall_t
;SETTING_3 hickness = 0.0\\n\\n"], "global_quality": "[general]\\nversion = 4\\n
;SETTING_3 name = Carolyn - PLA\\ndefinition = fdmprinter\\n\\n[metadata]\\nqual
;SETTING_3 ity_type = verydraft\\ntype = quality_changes\\nsetting_version = 5\\
;SETTING_3 n\\n[values]\\nadhesion_type = none\\nlayer_height = 1.4\\nlayer_heig
;SETTING_3 ht_0 = 0.1\\nmaterial_bed_temperature = 0\\nsupport_enable = False\\n
;SETTING_3 \\n"}
