;FLAVOR:Marlin
;TIME:2324
;Filament used: 1.19451m
;Layer height: 0.8
;Generated with Cura_SteamEngine 3.6.0
M104 S200
M105
M109 S200
M82 ;absolute extrusion mode
G21 ;metric values
G90 ;absolute positioning
M82 ;set extruder to absolute mode
M107 ;start with the fan off
G28 ;move XYZ to min endstops
G1 Z15.0 F9000 ;move the platform down 15mm
G1 F9000
;Put printing message on LCD screen
M117 Printing...
G92 E0
;LAYER_COUNT:20
;LAYER:0
M107
G0 F600 X9.854 Y-26.799 Z0.1
;TYPE:SKIRT
G1 F300 X10.042 Y-26.73 E0.00151
G1 X11.881 Y-25.992 E0.01642
G1 X12.247 Y-25.821 E0.01946
G1 X14.502 Y-24.607 E0.03873
G1 X14.758 Y-24.455 E0.04097
G1 X16.166 Y-23.539 E0.0536
G1 X16.33 Y-23.426 E0.0551
G1 X17.962 Y-22.231 E0.07032
G1 X18.276 Y-21.972 E0.07339
G1 X20.177 Y-20.218 E0.09285
G1 X20.463 Y-19.922 E0.09594
G1 X22.874 Y-17.124 E0.12373
G1 X23.168 Y-16.731 E0.12743
G1 X24.538 Y-14.616 E0.14639
G1 X24.692 Y-14.356 E0.14866
G1 X25.53 Y-12.788 E0.16204
G1 X25.62 Y-12.607 E0.16356
G1 X26.456 Y-10.806 E0.1785
G1 X26.605 Y-10.433 E0.18152
G1 X27.419 Y-8.002 E0.20081
G1 X27.526 Y-7.607 E0.20389
G1 X28.294 Y-3.992 E0.2317
G1 X28.364 Y-3.5 E0.23544
G1 X28.548 Y-.917 E0.25492
G1 X28.557 Y-.615 E0.25719
G1 X28.536 Y1.046 E0.26969
G1 X28.528 Y1.243 E0.27118
G1 X28.391 Y3.272 E0.28648
G1 X28.341 Y3.672 E0.28951
G1 X27.884 Y6.19 E0.30877
G1 X27.788 Y6.588 E0.31185
G1 X26.716 Y10.136 E0.33974
G1 X26.541 Y10.6 E0.34347
G1 X25.476 Y12.915 E0.36264
G1 X25.338 Y13.182 E0.3649
G1 X24.485 Y14.69 E0.37794
G1 X24.382 Y14.862 E0.37945
G1 X23.306 Y16.539 E0.39444
G1 X23.071 Y16.864 E0.39746
G1 X21.468 Y18.839 E0.41659
G1 X21.268 Y19.066 E0.41887
G1 X20.057 Y20.325 E0.43202
G1 X19.916 Y20.463 E0.4335
G1 X18.47 Y21.81 E0.44837
G1 X18.158 Y22.07 E0.45142
G1 X16.088 Y23.602 E0.4708
G1 X15.835 Y23.773 E0.4731
G1 X14.365 Y24.679 E0.48609
G1 X14.196 Y24.777 E0.48756
G1 X12.456 Y25.723 E0.50246
G1 X12.09 Y25.895 E0.50551
G1 X9.78 Y26.833 E0.52427
G1 X9.507 Y26.932 E0.52645
G1 X7.81 Y27.466 E0.53984
G1 X7.606 Y27.523 E0.54143
G1 X5.656 Y28.013 E0.55656
G1 X5.261 Y28.09 E0.55959
G1 X2.722 Y28.433 E0.57886
G1 X2.423 Y28.46 E0.58112
G1 X0.737 Y28.546 E0.59383
G1 X0.538 Y28.551 E0.59532
G1 X-1.475 Y28.542 E0.61047
G1 X-1.881 Y28.517 E0.61353
G1 X-4.463 Y28.212 E0.63309
G1 X-4.867 Y28.141 E0.63618
G1 X-8.441 Y27.298 E0.66381
G1 X-8.91 Y27.153 E0.6675
G1 X-11.258 Y26.248 E0.68644
G1 X-11.529 Y26.131 E0.68866
G1 X-13.115 Y25.365 E0.70191
G1 X-13.299 Y25.269 E0.70347
G1 X-15.052 Y24.294 E0.71856
G1 X-15.393 Y24.079 E0.7216
G1 X-17.476 Y22.593 E0.74085
G1 X-17.794 Y22.337 E0.74392
G1 X-20.545 Y19.86 E0.77177
G1 X-20.89 Y19.504 E0.7755
G1 X-22.541 Y17.543 E0.79479
G1 X-22.727 Y17.302 E0.79708
G1 X-23.73 Y15.883 E0.81016
G1 X-23.839 Y15.719 E0.81164
G1 X-24.889 Y14.046 E0.8265
G1 X-25.084 Y13.693 E0.82954
G1 X-26.181 Y11.414 E0.84857
G1 X-26.298 Y11.143 E0.85079
G1 X-26.922 Y9.517 E0.86389
G1 X-26.99 Y9.324 E0.86543
G1 X-27.6 Y7.417 E0.8805
G1 X-27.701 Y7.026 E0.88354
G1 X-28.202 Y4.52 E0.90276
G1 X-28.249 Y4.222 E0.90503
G1 X-28.445 Y2.505 E0.91804
G1 X-28.462 Y2.307 E0.91953
G1 X-28.578 Y0.319 E0.93452
G1 X-28.579 Y-0.086 E0.93756
G1 X-28.442 Y-2.608 E0.95657
G1 X-28.414 Y-2.898 E0.95876
G1 X-28.182 Y-4.604 E0.97171
G1 X-28.149 Y-4.807 E0.97326
G1 X-27.764 Y-6.784 E0.98842
G1 X-27.663 Y-7.18 E0.99149
G1 X-26.881 Y-9.657 E1.01104
G1 X-26.736 Y-10.039 E1.01411
G1 X-25.236 Y-13.403 E1.04182
G1 X-25.004 Y-13.84 E1.04555
G1 X-23.657 Y-16.003 E1.06472
G1 X-23.488 Y-16.251 E1.06698
G1 X-22.442 Y-17.655 E1.08015
G1 X-22.318 Y-17.812 E1.08166
G1 X-21.052 Y-19.328 E1.09652
G1 X-20.778 Y-19.621 E1.09954
G1 X-18.93 Y-21.389 E1.11878
G1 X-18.7 Y-21.591 E1.12108
G1 X-17.344 Y-22.684 E1.13419
G1 X-17.187 Y-22.803 E1.13567
G1 X-15.583 Y-23.957 E1.15054
G1 X-15.243 Y-24.174 E1.15357
G1 X-13.021 Y-25.421 E1.17274
G1 X-12.752 Y-25.558 E1.17501
G1 X-11.172 Y-26.278 E1.18808
G1 X-10.989 Y-26.355 E1.18957
G1 X-9.126 Y-27.083 E1.20462
G1 X-8.742 Y-27.209 E1.20766
G1 X-6.333 Y-27.85 E1.22642
G1 X-6.048 Y-27.914 E1.22862
G1 X-4.317 Y-28.227 E1.24185
G1 X-4.112 Y-28.257 E1.24341
G1 X-2.114 Y-28.501 E1.25856
G1 X-1.709 Y-28.528 E1.26161
G1 X0.875 Y-28.55 E1.28106
G1 X1.285 Y-28.53 E1.28414
G1 X4.954 Y-28.142 E1.3119
G1 X5.441 Y-28.056 E1.31562
G1 X7.905 Y-27.445 E1.33473
G1 X8.192 Y-27.361 E1.33698
G1 X9.854 Y-26.799 E1.35018
G0 F600 X9.726 Y-26.42
G1 F300 X9.893 Y-26.359 E1.35151
G1 X11.732 Y-25.621 E1.36642
G1 X12.057 Y-25.469 E1.36912
G1 X14.312 Y-24.255 E1.38839
G1 X14.54 Y-24.119 E1.39039
G1 X15.948 Y-23.203 E1.40303
G1 X16.094 Y-23.103 E1.40436
G1 X17.726 Y-21.908 E1.41958
G1 X18.005 Y-21.678 E1.4223
G1 X19.906 Y-19.924 E1.44176
G1 X20.16 Y-19.661 E1.44451
G1 X22.571 Y-16.863 E1.47231
G1 X22.833 Y-16.514 E1.47559
G1 X24.203 Y-14.399 E1.49455
G1 X24.339 Y-14.167 E1.49657
G1 X25.177 Y-12.599 E1.50995
G1 X25.258 Y-12.438 E1.51131
G1 X26.094 Y-10.637 E1.52625
G1 X26.225 Y-10.306 E1.52892
G1 X27.039 Y-7.875 E1.54821
G1 X27.135 Y-7.524 E1.55095
G1 X27.903 Y-3.909 E1.57876
G1 X27.965 Y-3.471 E1.58209
G1 X28.149 Y-.888 E1.60157
G1 X28.157 Y-.621 E1.60358
G1 X28.136 Y1.04 E1.61608
G1 X28.129 Y1.216 E1.61741
G1 X27.992 Y3.245 E1.63271
G1 X27.948 Y3.6 E1.6354
G1 X27.491 Y6.118 E1.65465
G1 X27.405 Y6.473 E1.6574
G1 X26.333 Y10.021 E1.68529
G1 X26.177 Y10.432 E1.6886
G1 X25.112 Y12.747 E1.70777
G1 X24.99 Y12.985 E1.70978
G1 X24.137 Y14.493 E1.72282
G1 X24.045 Y14.646 E1.72416
G1 X22.969 Y16.323 E1.73916
G1 X22.761 Y16.612 E1.74183
G1 X21.158 Y18.587 E1.76097
G1 X20.979 Y18.788 E1.763
G1 X19.768 Y20.047 E1.77614
G1 X19.643 Y20.17 E1.77746
G1 X18.197 Y21.517 E1.79233
G1 X17.92 Y21.748 E1.79505
G1 X15.85 Y23.28 E1.81442
G1 X15.625 Y23.432 E1.81646
G1 X14.155 Y24.338 E1.82946
G1 X14.004 Y24.425 E1.83077
G1 X12.264 Y25.371 E1.84567
G1 X11.94 Y25.525 E1.84837
G1 X9.63 Y26.463 E1.86713
G1 X9.387 Y26.55 E1.86907
G1 X7.69 Y27.084 E1.88246
G1 X7.509 Y27.136 E1.88387
G1 X5.559 Y27.626 E1.899
G1 X5.207 Y27.693 E1.9017
G1 X2.668 Y28.036 E1.92098
G1 X2.403 Y28.061 E1.92298
G1 X0.717 Y28.147 E1.93568
G1 X0.54 Y28.151 E1.93701
G1 X-1.473 Y28.142 E1.95216
G1 X-1.834 Y28.12 E1.95488
G1 X-4.416 Y27.815 E1.97444
G1 X-4.776 Y27.752 E1.97719
G1 X-8.35 Y26.909 E2.00482
G1 X-8.766 Y26.78 E2.0081
G1 X-11.114 Y25.875 E2.02703
G1 X-11.355 Y25.771 E2.02901
G1 X-12.941 Y25.005 E2.04226
G1 X-13.104 Y24.92 E2.04364
G1 X-14.857 Y23.945 E2.05874
G1 X-15.16 Y23.753 E2.06144
G1 X-17.243 Y22.267 E2.08069
G1 X-17.526 Y22.04 E2.08342
G1 X-20.277 Y19.563 E2.11127
G1 X-20.584 Y19.246 E2.11459
G1 X-22.235 Y17.285 E2.13388
G1 X-22.4 Y17.071 E2.13591
G1 X-23.403 Y15.652 E2.14899
G1 X-23.5 Y15.506 E2.15031
G1 X-24.55 Y13.833 E2.16517
G1 X-24.723 Y13.52 E2.16786
G1 X-25.82 Y11.241 E2.18689
G1 X-25.925 Y11 E2.18887
G1 X-26.549 Y9.374 E2.20197
G1 X-26.609 Y9.202 E2.20334
G1 X-27.219 Y7.295 E2.21841
G1 X-27.309 Y6.947 E2.22111
G1 X-27.81 Y4.441 E2.24034
G1 X-27.851 Y4.177 E2.24235
G1 X-28.047 Y2.46 E2.25536
G1 X-28.063 Y2.283 E2.25669
G1 X-28.179 Y0.295 E2.27168
G1 X-28.179 Y-0.065 E2.27438
G1 X-28.042 Y-2.587 E2.29339
G1 X-28.018 Y-2.844 E2.29533
G1 X-27.786 Y-4.55 E2.30829
G1 X-27.756 Y-4.731 E2.30967
G1 X-27.371 Y-6.708 E2.32482
G1 X-27.282 Y-7.059 E2.32755
G1 X-26.5 Y-9.536 E2.34709
G1 X-26.371 Y-9.876 E2.34983
G1 X-24.871 Y-13.24 E2.37754
G1 X-24.664 Y-13.629 E2.38085
G1 X-23.317 Y-15.792 E2.40003
G1 X-23.167 Y-16.012 E2.40203
G1 X-22.121 Y-17.416 E2.4152
G1 X-22.011 Y-17.555 E2.41654
G1 X-20.745 Y-19.071 E2.4314
G1 X-20.501 Y-19.332 E2.43409
G1 X-18.653 Y-21.1 E2.45333
G1 X-18.449 Y-21.279 E2.45537
G1 X-17.093 Y-22.372 E2.46848
G1 X-16.954 Y-22.479 E2.4698
G1 X-15.35 Y-23.633 E2.48467
G1 X-15.047 Y-23.826 E2.48737
G1 X-12.825 Y-25.073 E2.50654
G1 X-12.586 Y-25.194 E2.50856
G1 X-11.006 Y-25.914 E2.52162
G1 X-10.844 Y-25.983 E2.52295
G1 X-8.981 Y-26.711 E2.538
G1 X-8.639 Y-26.822 E2.5407
G1 X-6.23 Y-27.463 E2.55946
G1 X-5.976 Y-27.52 E2.56142
G1 X-4.245 Y-27.833 E2.57465
G1 X-4.064 Y-27.86 E2.57603
G1 X-2.066 Y-28.104 E2.59117
G1 X-1.705 Y-28.128 E2.5939
G1 X0.879 Y-28.15 E2.61334
G1 X1.243 Y-28.132 E2.61608
G1 X4.912 Y-27.744 E2.64384
G1 X5.345 Y-27.668 E2.64715
G1 X7.809 Y-27.057 E2.66625
G1 X8.064 Y-26.982 E2.66825
G1 X9.726 Y-26.42 E2.68145
;MESH:circle.stl
G0 F600 X10.896 Y-23.235
G0 X10.645 Y-22.598
G0 X24 Y-6.358
;TYPE:FILL
G1 F300 X24 Y6.361 E2.77715
G1 X23.091 Y9.151 E2.79923
G1 X22 Y11.471 E2.81852
G1 X22 Y-11.471 E2.99114
G1 X21.772 Y-11.957 E2.99518
G1 X20.098 Y-14.597 E3.0187
G1 X20 Y-14.715 E3.01986
G1 X20 Y14.717 E3.24131
G1 X18.1 Y17.011 E3.26372
G1 X18 Y17.105 E3.26475
G1 X18 Y-17.101 E3.52213
G1 X16 Y-18.981 E3.54278
G1 X16 Y18.982 E3.82842
G1 X15.822 Y19.148 E3.83025
G1 X14 Y20.471 E3.8472
G1 X14 Y-20.469 E4.15524
G1 X13.313 Y-20.969 E4.16163
G1 X12 Y-21.691 E4.1729
G1 X12 Y21.693 E4.49934
G1 X10.573 Y22.476 E4.51158
G1 X10 Y22.703 E4.51622
G1 X10 Y-22.701 E4.85785
G1 X8 Y-23.495 E4.87404
G1 X8 Y23.495 E5.2276
G1 X7.665 Y23.627 E5.23031
G1 X6 Y24.054 E5.24325
G1 X6 Y-24.052 E5.60521
G1 X4.66 Y-24.397 E5.61562
G1 X4 Y-24.48 E5.62062
G1 X4 Y24.482 E5.98902
G1 X2 Y24.735 E6.00419
G1 X2 Y-24.735 E6.37642
G1 X1.572 Y-24.79 E6.37966
G1 X0.00 Y-24.79 E6.39149
G1 X0.00 Y24.79 E6.76454
G1 X-1.572 Y24.79 E6.77637
G1 X-2 Y24.735 E6.77962
G1 X-2 Y-24.735 E7.15184
G1 X-4 Y-24.482 E7.16701
G1 X-4 Y24.48 E7.53541
G1 X-4.66 Y24.397 E7.54041
G1 X-6 Y24.052 E7.55083
G1 X-6 Y-24.054 E7.91279
G1 X-7.665 Y-23.627 E7.92572
G1 X-8 Y-23.495 E7.92843
G1 X-8 Y23.495 E8.28199
G1 X-10 Y22.701 E8.29818
G1 X-10 Y-22.703 E8.63981
G1 X-10.573 Y-22.476 E8.64445
G1 X-12 Y-21.693 E8.6567
G1 X-12 Y21.691 E8.98313
G1 X-13.313 Y20.969 E8.9944
G1 X-14 Y20.469 E9.0008
G1 X-14 Y-20.471 E9.30884
G1 X-15.822 Y-19.148 E9.32578
G1 X-16 Y-18.982 E9.32761
G1 X-16 Y18.981 E9.61325
G1 X-18 Y17.101 E9.63391
G1 X-18 Y-17.105 E9.89128
G1 X-18.1 Y-17.011 E9.89231
G1 X-20 Y-14.717 E9.91472
G1 X-20 Y14.715 E10.13618
G1 X-20.098 Y14.597 E10.13733
G1 X-21.772 Y11.957 E10.16085
G1 X-22 Y11.471 E10.16489
G1 X-22 Y-11.471 E10.33751
G1 X-23.091 Y-9.151 E10.3568
G1 X-24 Y-6.363 E10.37887
G1 X-24 Y6.358 E10.47458
G0 F600 X-23.772 Y6.284
;MESH:NONMESH
G0 X6.208 Y24
;TIME_ELAPSED:287.338087
;LAYER:1
M106 S255
;MESH:circle.stl
G0 F900 X6.208 Y24 Z0.9
;TYPE:FILL
G1 F450 X-6.209 Y24 E11.22201
G1 X-7.674 Y23.624 E11.31305
G1 X-10.582 Y22.472 E11.50133
G1 X-11.441 Y22 E11.56033
G1 X11.44 Y22 E12.93762
G1 X13.304 Y20.975 E13.06567
G1 X14.646 Y20 E13.16552
G1 X-14.647 Y20 E14.92877
G1 X-15.828 Y19.142 E15.01664
G1 X-17.044 Y18 E15.11705
G1 X17.044 Y18 E17.16894
G1 X18.114 Y16.995 E17.2573
G1 X18.937 Y16 E17.33503
G1 X-18.938 Y15.999 E19.61487
G1 X-20.092 Y14.605 E19.7238
G1 X-20.477 Y13.999 E19.76702
G1 X20.476 Y14 E22.23213
G1 X21.746 Y12 E22.37474
G1 X-21.748 Y11.999 E24.99281
G1 X-21.768 Y11.966 E24.99513
G1 X-22.693 Y9.999 E25.12597
G1 X22.691 Y10 E27.85781
G1 X23.096 Y9.139 E27.91508
G1 X23.466 Y8 E27.98717
G1 X-23.468 Y7.999 E30.8123
G0 F900 X-23.764 Y7.086
G1 F450 X-24.078 Y6.086 E30.93849
G0 F900 X-24.095 Y5.999
G1 F450 X24.094 Y6 E33.83916
G1 X24.474 Y4 E33.9617
G1 X-24.476 Y3.999 E36.90819
G1 X-24.642 Y3.123 E36.96186
G1 X-24.713 Y1.999 E37.02965
G1 X24.712 Y2 E40.00473
G1 X24.838 Y0.00 E40.12535
G1 X-24.838 Y0.00 E43.11554
G1 X-24.712 Y-2 E43.23617
G1 X24.713 Y-1.999 E46.21124
G1 X24.642 Y-3.123 E46.27904
G1 X24.476 Y-3.999 E46.33271
G1 X-24.474 Y-4 E49.27919
G1 X-24.094 Y-6 E49.40173
G1 X24.095 Y-5.999 E52.30241
G0 F900 X24.078 Y-6.086
G1 F450 X23.764 Y-7.086 E52.42859
G0 F900 X23.468 Y-7.999
G1 F450 X-23.466 Y-8 E55.25373
G1 X-23.096 Y-9.139 E55.32582
G1 X-22.691 Y-10 E55.38309
G1 X22.693 Y-9.999 E58.11492
G1 X21.768 Y-11.966 E58.24576
G1 X21.748 Y-11.999 E58.24809
G1 X-21.746 Y-12 E60.86616
G1 X-20.476 Y-14 E61.00876
G1 X20.477 Y-13.999 E63.47388
G1 X20.092 Y-14.605 E63.5171
G1 X18.938 Y-15.999 E63.62603
G1 X-18.937 Y-16 E65.90587
G1 X-18.114 Y-16.995 E65.98359
G1 X-17.044 Y-18 E66.07196
G1 X17.044 Y-18 E68.12384
G1 X15.828 Y-19.142 E68.22426
G1 X14.647 Y-20 E68.31212
G1 X-14.646 Y-20 E70.07538
G1 X-13.304 Y-20.975 E70.17523
G1 X-11.44 Y-22 E70.30328
G1 X11.441 Y-22 E71.68057
G1 X10.582 Y-22.472 E71.73957
G1 X7.674 Y-23.624 E71.92785
G1 X6.209 Y-24 E72.01889
G1 X-6.208 Y-24 E72.76631
G0 F900 X-6.15 Y-23.768
;MESH:NONMESH
G0 X-24 Y6.362
;TIME_ELAPSED:427.738732
;LAYER:2
;MESH:circle.stl
G0 F1200 X-24 Y6.362 Z1.7
;TYPE:FILL
G1 F600 X-24 Y-6.363 E73.53228
G1 X-23.096 Y-9.14 E73.70807
G1 X-22 Y-11.474 E73.86328
G1 X-22 Y11.473 E75.24455
G1 X-21.768 Y11.967 E75.2774
G1 X-20.092 Y14.606 E75.46558
G1 X-20 Y14.717 E75.47426
G1 X-20 Y-14.718 E77.24606
G1 X-18.114 Y-16.995 E77.42403
G1 X-18 Y-17.103 E77.43349
G1 X-18 Y17.102 E79.49242
G1 X-16 Y18.981 E79.6576
G1 X-16 Y-18.982 E81.94274
G1 X-15.829 Y-19.142 E81.95683
G1 X-14 Y-20.471 E82.09292
G1 X-14 Y20.47 E84.55732
G1 X-13.305 Y20.975 E84.60903
G1 X-12 Y21.692 E84.69866
G1 X-12 Y-21.693 E87.31016
G1 X-10.583 Y-22.472 E87.4075
G1 X-10 Y-22.703 E87.44524
G1 X-10 Y22.702 E90.17834
G1 X-8 Y23.495 E90.30785
G1 X-8 Y-23.496 E93.13641
G1 X-7.675 Y-23.624 E93.15744
G1 X-6 Y-24.054 E93.26153
G1 X-6 Y24.053 E96.15728
G1 X-4.65 Y24.4 E96.24118
G1 X-4 Y24.482 E96.28062
G1 X-4 Y-24.483 E99.228
G1 X-2 Y-24.736 E99.34935
G1 X-2 Y24.735 E102.3272
G1 X-1.562 Y24.791 E102.35378
G1 X0.00 Y24.791 E102.4478
G1 X0.00 Y-24.791 E105.43233
G1 X1.562 Y-24.791 E105.52635
G1 X2 Y-24.735 E105.55293
G1 X2 Y24.736 E108.53078
G1 X4 Y24.483 E108.65212
G1 X4 Y-24.482 E111.59951
G1 X4.65 Y-24.4 E111.63895
G1 X6 Y-24.053 E111.72285
G1 X6 Y24.054 E114.61859
G1 X7.675 Y23.624 E114.72269
G1 X8 Y23.496 E114.74371
G1 X8 Y-23.495 E117.57228
G1 X10 Y-22.702 E117.70178
G1 X10 Y22.703 E120.43488
G1 X10.583 Y22.472 E120.47263
G1 X12 Y21.693 E120.56996
G1 X12 Y-21.692 E123.18147
G1 X13.305 Y-20.975 E123.2711
G1 X14 Y-20.47 E123.32281
G1 X14 Y20.471 E125.78721
G1 X15.829 Y19.142 E125.9233
G1 X16 Y18.982 E125.93739
G1 X16 Y-18.981 E128.22253
G1 X18 Y-17.102 E128.38771
G1 X18 Y17.103 E130.44664
G1 X18.114 Y16.995 E130.45609
G1 X20 Y14.718 E130.63406
G1 X20 Y-14.717 E132.40587
G1 X20.092 Y-14.606 E132.41455
G1 X21.768 Y-11.967 E132.60273
G1 X22 Y-11.473 E132.63558
G1 X22 Y11.474 E134.01684
G1 X23.096 Y9.14 E134.17205
G1 X24 Y6.363 E134.34785
G1 X24 Y-6.362 E135.11381
G0 F1200 X23.772 Y-6.288
;MESH:NONMESH
G0 X6.208 Y24
;TIME_ELAPSED:533.284155
;LAYER:3
;MESH:circle.stl
G0 X6.208 Y24 Z2.5
;TYPE:FILL
G1 F600 X-6.209 Y24 E135.86124
G1 X-7.674 Y23.624 E135.95228
G1 X-10.582 Y22.472 E136.14056
G1 X-11.441 Y22 E136.19956
G1 X11.44 Y22 E137.57685
G1 X13.304 Y20.975 E137.7049
G1 X14.646 Y20 E137.80475
G1 X-14.647 Y20 E139.568
G1 X-15.828 Y19.142 E139.65587
G1 X-17.044 Y18 E139.75629
G1 X17.044 Y18 E141.80817
G1 X18.114 Y16.995 E141.89653
G1 X18.937 Y16 E141.97426
G1 X-18.938 Y15.999 E144.2541
G1 X-20.092 Y14.605 E144.36303
G1 X-20.477 Y13.999 E144.40625
G1 X20.476 Y14 E146.87136
G1 X21.746 Y12 E147.01397
G1 X-21.748 Y11.999 E149.63204
G1 X-21.768 Y11.966 E149.63436
G1 X-22.693 Y9.999 E149.7652
G1 X22.691 Y10 E152.49704
G1 X23.096 Y9.139 E152.55431
G1 X23.466 Y8 E152.6264
G1 X-23.468 Y7.999 E155.45153
G0 F1200 X-23.764 Y7.086
G1 F600 X-24.078 Y6.086 E155.57772
G0 F1200 X-24.095 Y5.999
G1 F600 X24.094 Y6 E158.47839
G1 X24.474 Y4 E158.60094
G1 X-24.476 Y3.999 E161.54742
G1 X-24.642 Y3.123 E161.60109
G1 X-24.713 Y1.999 E161.66888
G1 X24.712 Y2 E164.64396
G1 X24.838 Y0.00 E164.76459
G1 X-24.838 Y0.00 E167.75477
G1 X-24.712 Y-2 E167.8754
G1 X24.713 Y-1.999 E170.85048
G1 X24.642 Y-3.123 E170.91827
G1 X24.476 Y-3.999 E170.97194
G1 X-24.474 Y-4 E173.91842
G1 X-24.094 Y-6 E174.04096
G1 X24.095 Y-5.999 E176.94164
G0 F1200 X24.078 Y-6.086
G1 F600 X23.764 Y-7.086 E177.06782
G0 F1200 X23.468 Y-7.999
G1 F600 X-23.466 Y-8 E179.89296
G1 X-23.096 Y-9.139 E179.96505
G1 X-22.691 Y-10 E180.02232
G1 X22.693 Y-9.999 E182.75416
G1 X21.768 Y-11.966 E182.885
G1 X21.748 Y-11.999 E182.88732
G1 X-21.746 Y-12 E185.50539
G1 X-20.476 Y-14 E185.64799
G1 X20.477 Y-13.999 E188.11311
G1 X20.092 Y-14.605 E188.15633
G1 X18.938 Y-15.999 E188.26526
G1 X-18.937 Y-16 E190.5451
G1 X-18.114 Y-16.995 E190.62282
G1 X-17.044 Y-18 E190.71119
G1 X17.044 Y-18 E192.76307
G1 X15.828 Y-19.142 E192.86349
G1 X14.647 Y-20 E192.95136
G1 X-14.646 Y-20 E194.71461
G1 X-13.304 Y-20.975 E194.81446
G1 X-11.44 Y-22 E194.94251
G1 X11.441 Y-22 E196.3198
G1 X10.582 Y-22.472 E196.3788
G1 X7.674 Y-23.624 E196.56708
G1 X6.209 Y-24 E196.65812
G1 X-6.208 Y-24 E197.40555
G0 F1200 X-6.15 Y-23.768
;MESH:NONMESH
G0 X-24 Y6.362
;TIME_ELAPSED:638.637795
;LAYER:4
;MESH:circle.stl
G0 X-24 Y6.362 Z3.3
;TYPE:FILL
G1 F600 X-24 Y-6.363 E198.17151
G1 X-23.096 Y-9.14 E198.3473
G1 X-22 Y-11.474 E198.50251
G1 X-22 Y11.473 E199.88378
G1 X-21.768 Y11.967 E199.91663
G1 X-20.092 Y14.606 E200.10481
G1 X-20 Y14.717 E200.11349
G1 X-20 Y-14.718 E201.88529
G1 X-18.114 Y-16.995 E202.06327
G1 X-18 Y-17.103 E202.07272
G1 X-18 Y17.102 E204.13165
G1 X-16 Y18.981 E204.29683
G1 X-16 Y-18.982 E206.58197
G1 X-15.829 Y-19.142 E206.59606
G1 X-14 Y-20.471 E206.73215
G1 X-14 Y20.47 E209.19655
G1 X-13.305 Y20.975 E209.24826
G1 X-12 Y21.692 E209.33789
G1 X-12 Y-21.693 E211.94939
G1 X-10.583 Y-22.472 E212.04673
G1 X-10 Y-22.703 E212.08448
G1 X-10 Y22.702 E214.81757
G1 X-8 Y23.495 E214.94708
G1 X-8 Y-23.496 E217.77565
G1 X-7.675 Y-23.624 E217.79667
G1 X-6 Y-24.054 E217.90077
G1 X-6 Y24.053 E220.79651
G1 X-4.65 Y24.4 E220.88041
G1 X-4 Y24.482 E220.91985
G1 X-4 Y-24.483 E223.86723
G1 X-2 Y-24.736 E223.98858
G1 X-2 Y24.735 E226.96643
G1 X-1.562 Y24.791 E226.99301
G1 X0.00 Y24.791 E227.08703
G1 X0.00 Y-24.791 E230.07156
G1 X1.562 Y-24.791 E230.16558
G1 X2 Y-24.735 E230.19216
G1 X2 Y24.736 E233.17001
G1 X4 Y24.483 E233.29135
G1 X4 Y-24.482 E236.23874
G1 X4.65 Y-24.4 E236.27818
G1 X6 Y-24.053 E236.36208
G1 X6 Y24.054 E239.25782
G1 X7.675 Y23.624 E239.36192
G1 X8 Y23.496 E239.38294
G1 X8 Y-23.495 E242.21151
G1 X10 Y-22.702 E242.34102
G1 X10 Y22.703 E245.07411
G1 X10.583 Y22.472 E245.11186
G1 X12 Y21.693 E245.2092
G1 X12 Y-21.692 E247.8207
G1 X13.305 Y-20.975 E247.91033
G1 X14 Y-20.47 E247.96204
G1 X14 Y20.471 E250.42644
G1 X15.829 Y19.142 E250.56253
G1 X16 Y18.982 E250.57662
G1 X16 Y-18.981 E252.86176
G1 X18 Y-17.102 E253.02694
G1 X18 Y17.103 E255.08587
G1 X18.114 Y16.995 E255.09532
G1 X20 Y14.718 E255.2733
G1 X20 Y-14.717 E257.0451
G1 X20.092 Y-14.606 E257.05378
G1 X21.768 Y-11.967 E257.24196
G1 X22 Y-11.473 E257.27481
G1 X22 Y11.474 E258.65607
G1 X23.096 Y9.14 E258.81129
G1 X24 Y6.363 E258.98708
G1 X24 Y-6.362 E259.75304
G0 F1200 X23.772 Y-6.288
;MESH:NONMESH
G0 X6.208 Y24
;TIME_ELAPSED:744.183218
;LAYER:5
;MESH:circle.stl
G0 X6.208 Y24 Z4.1
;TYPE:FILL
G1 F600 X-6.209 Y24 E260.50047
G1 X-7.674 Y23.624 E260.59151
G1 X-10.582 Y22.472 E260.77979
G1 X-11.441 Y22 E260.83879
G1 X11.44 Y22 E262.21608
G1 X13.304 Y20.975 E262.34413
G1 X14.646 Y20 E262.44398
G1 X-14.647 Y20 E264.20723
G1 X-15.828 Y19.142 E264.2951
G1 X-17.044 Y18 E264.39552
G1 X17.044 Y18 E266.4474
G1 X18.114 Y16.995 E266.53576
G1 X18.937 Y16 E266.61349
G1 X-18.938 Y15.999 E268.89333
G1 X-20.092 Y14.605 E269.00226
G1 X-20.477 Y13.999 E269.04548
G1 X20.476 Y14 E271.51059
G1 X21.746 Y12 E271.6532
G1 X-21.748 Y11.999 E274.27127
G1 X-21.768 Y11.966 E274.27359
G1 X-22.693 Y9.999 E274.40443
G1 X22.691 Y10 E277.13627
G1 X23.096 Y9.139 E277.19354
G1 X23.466 Y8 E277.26563
G1 X-23.468 Y7.999 E280.09076
G0 F1200 X-23.764 Y7.086
G1 F600 X-24.078 Y6.086 E280.21695
G0 F1200 X-24.095 Y5.999
G1 F600 X24.094 Y6 E283.11763
G1 X24.474 Y4 E283.24017
G1 X-24.476 Y3.999 E286.18665
G1 X-24.642 Y3.123 E286.24032
G1 X-24.713 Y1.999 E286.30811
G1 X24.712 Y2 E289.28319
G1 X24.838 Y0.00 E289.40382
G1 X-24.838 Y0.00 E292.394
G1 X-24.712 Y-2 E292.51463
G1 X24.713 Y-1.999 E295.48971
G1 X24.642 Y-3.123 E295.5575
G1 X24.476 Y-3.999 E295.61117
G1 X-24.474 Y-4 E298.55765
G1 X-24.094 Y-6 E298.68019
G1 X24.095 Y-5.999 E301.58087
G0 F1200 X24.078 Y-6.086
G1 F600 X23.764 Y-7.086 E301.70706
G0 F1200 X23.468 Y-7.999
G1 F600 X-23.466 Y-8 E304.53219
G1 X-23.096 Y-9.139 E304.60428
G1 X-22.691 Y-10 E304.66155
G1 X22.693 Y-9.999 E307.39339
G1 X21.768 Y-11.966 E307.52423
G1 X21.748 Y-11.999 E307.52655
G1 X-21.746 Y-12 E310.14462
G1 X-20.476 Y-14 E310.28723
G1 X20.477 Y-13.999 E312.75234
G1 X20.092 Y-14.605 E312.79556
G1 X18.938 Y-15.999 E312.90449
G1 X-18.937 Y-16 E315.18433
G1 X-18.114 Y-16.995 E315.26206
G1 X-17.044 Y-18 E315.35042
G1 X17.044 Y-18 E317.4023
G1 X15.828 Y-19.142 E317.50272
G1 X14.647 Y-20 E317.59059
G1 X-14.646 Y-20 E319.35384
G1 X-13.304 Y-20.975 E319.45369
G1 X-11.44 Y-22 E319.58174
G1 X11.441 Y-22 E320.95903
G1 X10.582 Y-22.472 E321.01803
G1 X7.674 Y-23.624 E321.20631
G1 X6.209 Y-24 E321.29735
G1 X-6.208 Y-24 E322.04478
G0 F1200 X-6.15 Y-23.768
;MESH:NONMESH
G0 X-24 Y6.362
;TIME_ELAPSED:849.536858
;LAYER:6
;MESH:circle.stl
G0 X-24 Y6.362 Z4.9
;TYPE:FILL
G1 F600 X-24 Y-6.363 E322.81074
G1 X-23.096 Y-9.14 E322.98653
G1 X-22 Y-11.474 E323.14175
G1 X-22 Y11.473 E324.52301
G1 X-21.768 Y11.967 E324.55586
G1 X-20.092 Y14.606 E324.74404
G1 X-20 Y14.717 E324.75272
G1 X-20 Y-14.718 E326.52453
G1 X-18.114 Y-16.995 E326.7025
G1 X-18 Y-17.103 E326.71195
G1 X-18 Y17.102 E328.77088
G1 X-16 Y18.981 E328.93606
G1 X-16 Y-18.982 E331.2212
G1 X-15.829 Y-19.142 E331.23529
G1 X-14 Y-20.471 E331.37138
G1 X-14 Y20.47 E333.83578
G1 X-13.305 Y20.975 E333.88749
G1 X-12 Y21.692 E333.97712
G1 X-12 Y-21.693 E336.58863
G1 X-10.583 Y-22.472 E336.68596
G1 X-10 Y-22.703 E336.72371
G1 X-10 Y22.702 E339.45681
G1 X-8 Y23.495 E339.58631
G1 X-8 Y-23.496 E342.41488
G1 X-7.675 Y-23.624 E342.4359
G1 X-6 Y-24.054 E342.54
G1 X-6 Y24.053 E345.43574
G1 X-4.65 Y24.4 E345.51964
G1 X-4 Y24.482 E345.55908
G1 X-4 Y-24.483 E348.50647
G1 X-2 Y-24.736 E348.62781
G1 X-2 Y24.735 E351.60566
G1 X-1.562 Y24.791 E351.63224
G1 X0.00 Y24.791 E351.72626
G1 X0.00 Y-24.791 E354.71079
G1 X1.562 Y-24.791 E354.80481
G1 X2 Y-24.735 E354.83139
G1 X2 Y24.736 E357.80924
G1 X4 Y24.483 E357.93059
G1 X4 Y-24.482 E360.87797
G1 X4.65 Y-24.4 E360.91741
G1 X6 Y-24.053 E361.00131
G1 X6 Y24.054 E363.89706
G1 X7.675 Y23.624 E364.00115
G1 X8 Y23.496 E364.02217
G1 X8 Y-23.495 E366.85074
G1 X10 Y-22.702 E366.98025
G1 X10 Y22.703 E369.71334
G1 X10.583 Y22.472 E369.75109
G1 X12 Y21.693 E369.84843
G1 X12 Y-21.692 E372.45993
G1 X13.305 Y-20.975 E372.54956
G1 X14 Y-20.47 E372.60127
G1 X14 Y20.471 E375.06567
G1 X15.829 Y19.142 E375.20176
G1 X16 Y18.982 E375.21585
G1 X16 Y-18.981 E377.50099
G1 X18 Y-17.102 E377.66617
G1 X18 Y17.103 E379.7251
G1 X18.114 Y16.995 E379.73455
G1 X20 Y14.718 E379.91253
G1 X20 Y-14.717 E381.68433
G1 X20.092 Y-14.606 E381.69301
G1 X21.768 Y-11.967 E381.88119
G1 X22 Y-11.473 E381.91404
G1 X22 Y11.474 E383.29531
G1 X23.096 Y9.14 E383.45052
G1 X24 Y6.363 E383.62631
G1 X24 Y-6.362 E384.39228
G0 F1200 X23.772 Y-6.288
;MESH:NONMESH
G0 X6.208 Y24
;TIME_ELAPSED:955.082281
;LAYER:7
;MESH:circle.stl
G0 X6.208 Y24 Z5.7
;TYPE:FILL
G1 F600 X-6.209 Y24 E385.1397
G1 X-7.674 Y23.624 E385.23074
G1 X-10.582 Y22.472 E385.41902
G1 X-11.441 Y22 E385.47802
G1 X11.44 Y22 E386.85531
G1 X13.304 Y20.975 E386.98336
G1 X14.646 Y20 E387.08321
G1 X-14.647 Y20 E388.84646
G1 X-15.828 Y19.142 E388.93433
G1 X-17.044 Y18 E389.03475
G1 X17.044 Y18 E391.08663
G1 X18.114 Y16.995 E391.175
G1 X18.937 Y16 E391.25272
G1 X-18.938 Y15.999 E393.53256
G1 X-20.092 Y14.605 E393.64149
G1 X-20.477 Y13.999 E393.68471
G1 X20.476 Y14 E396.14983
G1 X21.746 Y12 E396.29243
G1 X-21.748 Y11.999 E398.9105
G1 X-21.768 Y11.966 E398.91282
G1 X-22.693 Y9.999 E399.04366
G1 X22.691 Y10 E401.7755
G1 X23.096 Y9.139 E401.83277
G1 X23.466 Y8 E401.90486
G1 X-23.468 Y7.999 E404.73
G0 F1200 X-23.764 Y7.086
G1 F600 X-24.078 Y6.086 E404.85618
G0 F1200 X-24.095 Y5.999
G1 F600 X24.094 Y6 E407.75686
G1 X24.474 Y4 E407.8794
G1 X-24.476 Y3.999 E410.82588
G1 X-24.642 Y3.123 E410.87955
G1 X-24.713 Y1.999 E410.94734
G1 X24.712 Y2 E413.92242
G1 X24.838 Y0.00 E414.04305
G1 X-24.838 Y0.00 E417.03323
G1 X-24.712 Y-2 E417.15386
G1 X24.713 Y-1.999 E420.12894
G1 X24.642 Y-3.123 E420.19673
G1 X24.476 Y-3.999 E420.2504
G1 X-24.474 Y-4 E423.19688
G1 X-24.094 Y-6 E423.31943
G1 X24.095 Y-5.999 E426.2201
G0 F1200 X24.078 Y-6.086
G1 F600 X23.764 Y-7.086 E426.34629
G0 F1200 X23.468 Y-7.999
G1 F600 X-23.466 Y-8 E429.17142
G1 X-23.096 Y-9.139 E429.24351
G1 X-22.691 Y-10 E429.30078
G1 X22.693 Y-9.999 E432.03262
G1 X21.768 Y-11.966 E432.16346
G1 X21.748 Y-11.999 E432.16578
G1 X-21.746 Y-12 E434.78385
G1 X-20.476 Y-14 E434.92646
G1 X20.477 Y-13.999 E437.39157
G1 X20.092 Y-14.605 E437.43479
G1 X18.938 Y-15.999 E437.54372
G1 X-18.937 Y-16 E439.82356
G1 X-18.114 Y-16.995 E439.90129
G1 X-17.044 Y-18 E439.98965
G1 X17.044 Y-18 E442.04153
G1 X15.828 Y-19.142 E442.14195
G1 X14.647 Y-20 E442.22982
G1 X-14.646 Y-20 E443.99307
G1 X-13.304 Y-20.975 E444.09292
G1 X-11.44 Y-22 E444.22097
G1 X11.441 Y-22 E445.59826
G1 X10.582 Y-22.472 E445.65726
G1 X7.674 Y-23.624 E445.84554
G1 X6.209 Y-24 E445.93658
G1 X-6.208 Y-24 E446.68401
G0 F1200 X-6.15 Y-23.768
;MESH:NONMESH
G0 X-24 Y6.362
;TIME_ELAPSED:1060.435921
;LAYER:8
;MESH:circle.stl
G0 X-24 Y6.362 Z6.5
;TYPE:FILL
G1 F600 X-24 Y-6.363 E447.44997
G1 X-23.096 Y-9.14 E447.62577
G1 X-22 Y-11.474 E447.78098
G1 X-22 Y11.473 E449.16224
G1 X-21.768 Y11.967 E449.19509
G1 X-20.092 Y14.606 E449.38327
G1 X-20 Y14.717 E449.39195
G1 X-20 Y-14.718 E451.16376
G1 X-18.114 Y-16.995 E451.34173
G1 X-18 Y-17.103 E451.35118
G1 X-18 Y17.102 E453.41011
G1 X-16 Y18.981 E453.57529
G1 X-16 Y-18.982 E455.86043
G1 X-15.829 Y-19.142 E455.87453
G1 X-14 Y-20.471 E456.01061
G1 X-14 Y20.47 E458.47501
G1 X-13.305 Y20.975 E458.52672
G1 X-12 Y21.692 E458.61635
G1 X-12 Y-21.693 E461.22786
G1 X-10.583 Y-22.472 E461.32519
G1 X-10 Y-22.703 E461.36294
G1 X-10 Y22.702 E464.09604
G1 X-8 Y23.495 E464.22554
G1 X-8 Y-23.496 E467.05411
G1 X-7.675 Y-23.624 E467.07513
G1 X-6 Y-24.054 E467.17923
G1 X-6 Y24.053 E470.07497
G1 X-4.65 Y24.4 E470.15887
G1 X-4 Y24.482 E470.19831
G1 X-4 Y-24.483 E473.1457
G1 X-2 Y-24.736 E473.26704
G1 X-2 Y24.735 E476.24489
G1 X-1.562 Y24.791 E476.27147
G1 X0.00 Y24.791 E476.36549
G1 X0.00 Y-24.791 E479.35002
G1 X1.562 Y-24.791 E479.44404
G1 X2 Y-24.735 E479.47062
G1 X2 Y24.736 E482.44847
G1 X4 Y24.483 E482.56982
G1 X4 Y-24.482 E485.51721
G1 X4.65 Y-24.4 E485.55664
G1 X6 Y-24.053 E485.64054
G1 X6 Y24.054 E488.53629
G1 X7.675 Y23.624 E488.64038
G1 X8 Y23.496 E488.66141
G1 X8 Y-23.495 E491.48997
G1 X10 Y-22.702 E491.61948
G1 X10 Y22.703 E494.35258
G1 X10.583 Y22.472 E494.39032
G1 X12 Y21.693 E494.48766
G1 X12 Y-21.692 E497.09916
G1 X13.305 Y-20.975 E497.18879
G1 X14 Y-20.47 E497.24051
G1 X14 Y20.471 E499.7049
G1 X15.829 Y19.142 E499.84099
G1 X16 Y18.982 E499.85508
G1 X16 Y-18.981 E502.14022
G1 X18 Y-17.102 E502.30541
G1 X18 Y17.103 E504.36433
G1 X18.114 Y16.995 E504.37379
G1 X20 Y14.718 E504.55176
G1 X20 Y-14.717 E506.32356
G1 X20.092 Y-14.606 E506.33224
G1 X21.768 Y-11.967 E506.52042
G1 X22 Y-11.473 E506.55327
G1 X22 Y11.474 E507.93454
G1 X23.096 Y9.14 E508.08975
G1 X24 Y6.363 E508.26554
G1 X24 Y-6.362 E509.03151
G0 F1200 X23.772 Y-6.288
;MESH:NONMESH
G0 X6.208 Y24
;TIME_ELAPSED:1165.981344
;LAYER:9
;MESH:circle.stl
G0 X6.208 Y24 Z7.3
;TYPE:FILL
G1 F600 X-6.209 Y24 E509.77893
G1 X-7.674 Y23.624 E509.86997
G1 X-10.582 Y22.472 E510.05825
G1 X-11.441 Y22 E510.11725
G1 X11.44 Y22 E511.49454
G1 X13.304 Y20.975 E511.62259
G1 X14.646 Y20 E511.72244
G1 X-14.647 Y20 E513.4857
G1 X-15.828 Y19.142 E513.57357
G1 X-17.044 Y18 E513.67398
G1 X17.044 Y18 E515.72586
G1 X18.114 Y16.995 E515.81423
G1 X18.937 Y16 E515.89195
G1 X-18.938 Y15.999 E518.17179
G1 X-20.092 Y14.605 E518.28072
G1 X-20.477 Y13.999 E518.32394
G1 X20.476 Y14 E520.78906
G1 X21.746 Y12 E520.93166
G1 X-21.748 Y11.999 E523.54973
G1 X-21.768 Y11.966 E523.55206
G1 X-22.693 Y9.999 E523.6829
G1 X22.691 Y10 E526.41473
G1 X23.096 Y9.139 E526.472
G1 X23.466 Y8 E526.54409
G1 X-23.468 Y7.999 E529.36923
G0 F1200 X-23.764 Y7.086
G1 F600 X-24.078 Y6.086 E529.49541
G0 F1200 X-24.095 Y5.999
G1 F600 X24.094 Y6 E532.39609
G1 X24.474 Y4 E532.51863
G1 X-24.476 Y3.999 E535.46511
G1 X-24.642 Y3.123 E535.51878
G1 X-24.713 Y1.999 E535.58658
G1 X24.712 Y2 E538.56165
G1 X24.838 Y0.00 E538.68228
G1 X-24.838 Y0.00 E541.67247
G1 X-24.712 Y-2 E541.79309
G1 X24.713 Y-1.999 E544.76817
G1 X24.642 Y-3.123 E544.83596
G1 X24.476 Y-3.999 E544.88963
G1 X-24.474 Y-4 E547.83612
G1 X-24.094 Y-6 E547.95866
G1 X24.095 Y-5.999 E550.85934
G0 F1200 X24.078 Y-6.086
G1 F600 X23.764 Y-7.086 E550.98552
G0 F1200 X23.468 Y-7.999
G1 F600 X-23.466 Y-8 E553.81065
G1 X-23.096 Y-9.139 E553.88274
G1 X-22.691 Y-10 E553.94001
G1 X22.693 Y-9.999 E556.67185
G1 X21.768 Y-11.966 E556.80269
G1 X21.748 Y-11.999 E556.80501
G1 X-21.746 Y-12 E559.42308
G1 X-20.476 Y-14 E559.56569
G1 X20.477 Y-13.999 E562.0308
G1 X20.092 Y-14.605 E562.07402
G1 X18.938 Y-15.999 E562.18295
G1 X-18.937 Y-16 E564.46279
G1 X-18.114 Y-16.995 E564.54052
G1 X-17.044 Y-18 E564.62888
G1 X17.044 Y-18 E566.68077
G1 X15.828 Y-19.142 E566.78118
G1 X14.647 Y-20 E566.86905
G1 X-14.646 Y-20 E568.63231
G1 X-13.304 Y-20.975 E568.73215
G1 X-11.44 Y-22 E568.8602
G1 X11.441 Y-22 E570.23749
G1 X10.582 Y-22.472 E570.29649
G1 X7.674 Y-23.624 E570.48477
G1 X6.209 Y-24 E570.57581
G1 X-6.208 Y-24 E571.32324
G0 F1200 X-6.15 Y-23.768
;MESH:NONMESH
G0 X-24 Y6.362
;TIME_ELAPSED:1271.334984
;LAYER:10
;MESH:circle.stl
G0 X-24 Y6.362 Z8.1
;TYPE:FILL
G1 F600 X-24 Y-6.363 E572.0892
G1 X-23.096 Y-9.14 E572.265
G1 X-22 Y-11.474 E572.42021
G1 X-22 Y11.473 E573.80147
G1 X-21.768 Y11.967 E573.83433
G1 X-20.092 Y14.606 E574.02251
G1 X-20 Y14.717 E574.03118
G1 X-20 Y-14.718 E575.80299
G1 X-18.114 Y-16.995 E575.98096
G1 X-18 Y-17.103 E575.99041
G1 X-18 Y17.102 E578.04934
G1 X-16 Y18.981 E578.21452
G1 X-16 Y-18.982 E580.49966
G1 X-15.829 Y-19.142 E580.51376
G1 X-14 Y-20.471 E580.64985
G1 X-14 Y20.47 E583.11424
G1 X-13.305 Y20.975 E583.16595
G1 X-12 Y21.692 E583.25558
G1 X-12 Y-21.693 E585.86709
G1 X-10.583 Y-22.472 E585.96442
G1 X-10 Y-22.703 E586.00217
G1 X-10 Y22.702 E588.73527
G1 X-8 Y23.495 E588.86477
G1 X-8 Y-23.496 E591.69334
G1 X-7.675 Y-23.624 E591.71436
G1 X-6 Y-24.054 E591.81846
G1 X-6 Y24.053 E594.7142
G1 X-4.65 Y24.4 E594.7981
G1 X-4 Y24.482 E594.83754
G1 X-4 Y-24.483 E597.78493
G1 X-2 Y-24.736 E597.90628
G1 X-2 Y24.735 E600.88412
G1 X-1.562 Y24.791 E600.9107
G1 X0.00 Y24.791 E601.00472
G1 X0.00 Y-24.791 E603.98925
G1 X1.562 Y-24.791 E604.08327
G1 X2 Y-24.735 E604.10985
G1 X2 Y24.736 E607.0877
G1 X4 Y24.483 E607.20905
G1 X4 Y-24.482 E610.15644
G1 X4.65 Y-24.4 E610.19587
G1 X6 Y-24.053 E610.27978
G1 X6 Y24.054 E613.17552
G1 X7.675 Y23.624 E613.27961
G1 X8 Y23.496 E613.30064
G1 X8 Y-23.495 E616.1292
G1 X10 Y-22.702 E616.25871
G1 X10 Y22.703 E618.99181
G1 X10.583 Y22.472 E619.02955
G1 X12 Y21.693 E619.12689
G1 X12 Y-21.692 E621.7384
G1 X13.305 Y-20.975 E621.82802
G1 X14 Y-20.47 E621.87974
G1 X14 Y20.471 E624.34413
G1 X15.829 Y19.142 E624.48022
G1 X16 Y18.982 E624.49432
G1 X16 Y-18.981 E626.77945
G1 X18 Y-17.102 E626.94464
G1 X18 Y17.103 E629.00356
G1 X18.114 Y16.995 E629.01302
G1 X20 Y14.718 E629.19099
G1 X20 Y-14.717 E630.96279
G1 X20.092 Y-14.606 E630.97147
G1 X21.768 Y-11.967 E631.15965
G1 X22 Y-11.473 E631.1925
G1 X22 Y11.474 E632.57377
G1 X23.096 Y9.14 E632.72898
G1 X24 Y6.363 E632.90477
G1 X24 Y-6.362 E633.67074
G0 F1200 X23.772 Y-6.288
;MESH:NONMESH
G0 X6.208 Y24
;TIME_ELAPSED:1376.880407
;LAYER:11
;MESH:circle.stl
G0 X6.208 Y24 Z8.9
;TYPE:FILL
G1 F600 X-6.209 Y24 E634.41816
G1 X-7.674 Y23.624 E634.50921
G1 X-10.582 Y22.472 E634.69748
G1 X-11.441 Y22 E634.75648
G1 X11.44 Y22 E636.13378
G1 X13.304 Y20.975 E636.26182
G1 X14.646 Y20 E636.36167
G1 X-14.647 Y20 E638.12493
G1 X-15.828 Y19.142 E638.2128
G1 X-17.044 Y18 E638.31321
G1 X17.044 Y18 E640.3651
G1 X18.114 Y16.995 E640.45346
G1 X18.937 Y16 E640.53118
G1 X-18.938 Y15.999 E642.81102
G1 X-20.092 Y14.605 E642.91996
G1 X-20.477 Y13.999 E642.96317
G1 X20.476 Y14 E645.42829
G1 X21.746 Y12 E645.5709
G1 X-21.748 Y11.999 E648.18896
G1 X-21.768 Y11.966 E648.19129
G1 X-22.693 Y9.999 E648.32213
G1 X22.691 Y10 E651.05396
G1 X23.096 Y9.139 E651.11124
G1 X23.466 Y8 E651.18332
G1 X-23.468 Y7.999 E654.00846
G0 F1200 X-23.764 Y7.086
G1 F600 X-24.078 Y6.086 E654.13464
G0 F1200 X-24.095 Y5.999
G1 F600 X24.094 Y6 E657.03532
G1 X24.474 Y4 E657.15786
G1 X-24.476 Y3.999 E660.10435
G1 X-24.642 Y3.123 E660.15801
G1 X-24.713 Y1.999 E660.22581
G1 X24.712 Y2 E663.20088
G1 X24.838 Y0.00 E663.32151
G1 X-24.838 Y0.00 E666.3117
G1 X-24.712 Y-2 E666.43232
G1 X24.713 Y-1.999 E669.4074
G1 X24.642 Y-3.123 E669.47519
G1 X24.476 Y-3.999 E669.52886
G1 X-24.474 Y-4 E672.47535
G1 X-24.094 Y-6 E672.59789
G1 X24.095 Y-5.999 E675.49857
G0 F1200 X24.078 Y-6.086
G1 F600 X23.764 Y-7.086 E675.62475
G0 F1200 X23.468 Y-7.999
G1 F600 X-23.466 Y-8 E678.44988
G1 X-23.096 Y-9.139 E678.52197
G1 X-22.691 Y-10 E678.57925
G1 X22.693 Y-9.999 E681.31108
G1 X21.768 Y-11.966 E681.44192
G1 X21.748 Y-11.999 E681.44424
G1 X-21.746 Y-12 E684.06231
G1 X-20.476 Y-14 E684.20492
G1 X20.477 Y-13.999 E686.67004
G1 X20.092 Y-14.605 E686.71325
G1 X18.938 Y-15.999 E686.82218
G1 X-18.937 Y-16 E689.10202
G1 X-18.114 Y-16.995 E689.17975
G1 X-17.044 Y-18 E689.26811
G1 X17.044 Y-18 E691.32
G1 X15.828 Y-19.142 E691.42041
G1 X14.647 Y-20 E691.50828
G1 X-14.646 Y-20 E693.27154
G1 X-13.304 Y-20.975 E693.37139
G1 X-11.44 Y-22 E693.49943
G1 X11.441 Y-22 E694.87673
G1 X10.582 Y-22.472 E694.93572
G1 X7.674 Y-23.624 E695.124
G1 X6.209 Y-24 E695.21504
G1 X-6.208 Y-24 E695.96247
G0 F1200 X-6.15 Y-23.768
;MESH:NONMESH
G0 X-24 Y6.362
;TIME_ELAPSED:1482.234047
;LAYER:12
;MESH:circle.stl
G0 X-24 Y6.362 Z9.7
;TYPE:FILL
G1 F600 X-24 Y-6.363 E696.72844
G1 X-23.096 Y-9.14 E696.90423
G1 X-22 Y-11.474 E697.05944
G1 X-22 Y11.473 E698.44071
G1 X-21.768 Y11.967 E698.47356
G1 X-20.092 Y14.606 E698.66174
G1 X-20 Y14.717 E698.67041
G1 X-20 Y-14.718 E700.44222
G1 X-18.114 Y-16.995 E700.62019
G1 X-18 Y-17.103 E700.62964
G1 X-18 Y17.102 E702.68857
G1 X-16 Y18.981 E702.85375
G1 X-16 Y-18.982 E705.13889
G1 X-15.829 Y-19.142 E705.15299
G1 X-14 Y-20.471 E705.28908
G1 X-14 Y20.47 E707.75347
G1 X-13.305 Y20.975 E707.80518
G1 X-12 Y21.692 E707.89481
G1 X-12 Y-21.693 E710.50632
G1 X-10.583 Y-22.472 E710.60365
G1 X-10 Y-22.703 E710.6414
G1 X-10 Y22.702 E713.3745
G1 X-8 Y23.495 E713.504
G1 X-8 Y-23.496 E716.33257
G1 X-7.675 Y-23.624 E716.3536
G1 X-6 Y-24.054 E716.45769
G1 X-6 Y24.053 E719.35343
G1 X-4.65 Y24.4 E719.43733
G1 X-4 Y24.482 E719.47677
G1 X-4 Y-24.483 E722.42416
G1 X-2 Y-24.736 E722.54551
G1 X-2 Y24.735 E725.52335
G1 X-1.562 Y24.791 E725.54993
G1 X0.00 Y24.791 E725.64396
G1 X0.00 Y-24.791 E728.62848
G1 X1.562 Y-24.791 E728.72251
G1 X2 Y-24.735 E728.74909
G1 X2 Y24.736 E731.72693
G1 X4 Y24.483 E731.84828
G1 X4 Y-24.482 E734.79567
G1 X4.65 Y-24.4 E734.8351
G1 X6 Y-24.053 E734.91901
G1 X6 Y24.054 E737.81475
G1 X7.675 Y23.624 E737.91884
G1 X8 Y23.496 E737.93987
G1 X8 Y-23.495 E740.76843
G1 X10 Y-22.702 E740.89794
G1 X10 Y22.703 E743.63104
G1 X10.583 Y22.472 E743.66879
G1 X12 Y21.693 E743.76612
G1 X12 Y-21.692 E746.37763
G1 X13.305 Y-20.975 E746.46726
G1 X14 Y-20.47 E746.51897
G1 X14 Y20.471 E748.98336
G1 X15.829 Y19.142 E749.11945
G1 X16 Y18.982 E749.13355
G1 X16 Y-18.981 E751.41868
G1 X18 Y-17.102 E751.58387
G1 X18 Y17.103 E753.6428
G1 X18.114 Y16.995 E753.65225
G1 X20 Y14.718 E753.83022
G1 X20 Y-14.717 E755.60202
G1 X20.092 Y-14.606 E755.6107
G1 X21.768 Y-11.967 E755.79888
G1 X22 Y-11.473 E755.83173
G1 X22 Y11.474 E757.213
G1 X23.096 Y9.14 E757.36821
G1 X24 Y6.363 E757.544
G1 X24 Y-6.362 E758.30997
G0 F1200 X23.772 Y-6.288
;MESH:NONMESH
G0 X6.208 Y24
;TIME_ELAPSED:1587.779470
;LAYER:13
;MESH:circle.stl
G0 X6.208 Y24 Z10.5
;TYPE:FILL
G1 F600 X-6.209 Y24 E759.05739
G1 X-7.674 Y23.624 E759.14844
G1 X-10.582 Y22.472 E759.33671
G1 X-11.441 Y22 E759.39571
G1 X11.44 Y22 E760.77301
G1 X13.304 Y20.975 E760.90105
G1 X14.646 Y20 E761.0009
G1 X-14.647 Y20 E762.76416
G1 X-15.828 Y19.142 E762.85203
G1 X-17.044 Y18 E762.95244
G1 X17.044 Y18 E765.00433
G1 X18.114 Y16.995 E765.09269
G1 X18.937 Y16 E765.17042
G1 X-18.938 Y15.999 E767.45025
G1 X-20.092 Y14.605 E767.55919
G1 X-20.477 Y13.999 E767.6024
G1 X20.476 Y14 E770.06752
G1 X21.746 Y12 E770.21013
G1 X-21.748 Y11.999 E772.8282
G1 X-21.768 Y11.966 E772.83052
G1 X-22.693 Y9.999 E772.96136
G1 X22.691 Y10 E775.69319
G1 X23.096 Y9.139 E775.75047
G1 X23.466 Y8 E775.82255
G1 X-23.468 Y7.999 E778.64769
G0 F1200 X-23.764 Y7.086
G1 F600 X-24.078 Y6.086 E778.77387
G0 F1200 X-24.095 Y5.999
G1 F600 X24.094 Y6 E781.67455
G1 X24.474 Y4 E781.79709
G1 X-24.476 Y3.999 E784.74358
G1 X-24.642 Y3.123 E784.79725
G1 X-24.713 Y1.999 E784.86504
G1 X24.712 Y2 E787.84012
G1 X24.838 Y0.00 E787.96074
G1 X-24.838 Y0.00 E790.95093
G1 X-24.712 Y-2 E791.07155
G1 X24.713 Y-1.999 E794.04663
G1 X24.642 Y-3.123 E794.11442
G1 X24.476 Y-3.999 E794.16809
G1 X-24.474 Y-4 E797.11458
G1 X-24.094 Y-6 E797.23712
G1 X24.095 Y-5.999 E800.1378
G0 F1200 X24.078 Y-6.086
G1 F600 X23.764 Y-7.086 E800.26398
G0 F1200 X23.468 Y-7.999
G1 F600 X-23.466 Y-8 E803.08912
G1 X-23.096 Y-9.139 E803.1612
G1 X-22.691 Y-10 E803.21848
G1 X22.693 Y-9.999 E805.95031
G1 X21.768 Y-11.966 E806.08115
G1 X21.748 Y-11.999 E806.08347
G1 X-21.746 Y-12 E808.70154
G1 X-20.476 Y-14 E808.84415
G1 X20.477 Y-13.999 E811.30927
G1 X20.092 Y-14.605 E811.35248
G1 X18.938 Y-15.999 E811.46141
G1 X-18.937 Y-16 E813.74125
G1 X-18.114 Y-16.995 E813.81898
G1 X-17.044 Y-18 E813.90734
G1 X17.044 Y-18 E815.95923
G1 X15.828 Y-19.142 E816.05964
G1 X14.647 Y-20 E816.14751
G1 X-14.646 Y-20 E817.91077
G1 X-13.304 Y-20.975 E818.01062
G1 X-11.44 Y-22 E818.13866
G1 X11.441 Y-22 E819.51596
G1 X10.582 Y-22.472 E819.57495
G1 X7.674 Y-23.624 E819.76323
G1 X6.209 Y-24 E819.85427
G1 X-6.208 Y-24 E820.6017
G0 F1200 X-6.15 Y-23.768
;MESH:NONMESH
G0 X-24 Y6.362
;TIME_ELAPSED:1693.133110
;LAYER:14
;MESH:circle.stl
G0 X-24 Y6.362 Z11.3
;TYPE:FILL
G1 F600 X-24 Y-6.363 E821.36767
G1 X-23.096 Y-9.14 E821.54346
G1 X-22 Y-11.474 E821.69867
G1 X-22 Y11.473 E823.07994
G1 X-21.768 Y11.967 E823.11279
G1 X-20.092 Y14.606 E823.30097
G1 X-20 Y14.717 E823.30965
G1 X-20 Y-14.718 E825.08145
G1 X-18.114 Y-16.995 E825.25942
G1 X-18 Y-17.103 E825.26887
G1 X-18 Y17.102 E827.3278
G1 X-16 Y18.981 E827.49299
G1 X-16 Y-18.982 E829.77812
G1 X-15.829 Y-19.142 E829.79222
G1 X-14 Y-20.471 E829.92831
G1 X-14 Y20.47 E832.3927
G1 X-13.305 Y20.975 E832.44441
G1 X-12 Y21.692 E832.53404
G1 X-12 Y-21.693 E835.14555
G1 X-10.583 Y-22.472 E835.24288
G1 X-10 Y-22.703 E835.28063
G1 X-10 Y22.702 E838.01373
G1 X-8 Y23.495 E838.14324
G1 X-8 Y-23.496 E840.9718
G1 X-7.675 Y-23.624 E840.99283
G1 X-6 Y-24.054 E841.09692
G1 X-6 Y24.053 E843.99266
G1 X-4.65 Y24.4 E844.07657
G1 X-4 Y24.482 E844.116
G1 X-4 Y-24.483 E847.06339
G1 X-2 Y-24.736 E847.18474
G1 X-2 Y24.735 E850.16258
G1 X-1.562 Y24.791 E850.18916
G1 X0.00 Y24.791 E850.28319
G1 X0.00 Y-24.791 E853.26771
G1 X1.562 Y-24.791 E853.36174
G1 X2 Y-24.735 E853.38832
G1 X2 Y24.736 E856.36616
G1 X4 Y24.483 E856.48751
G1 X4 Y-24.482 E859.4349
G1 X4.65 Y-24.4 E859.47433
G1 X6 Y-24.053 E859.55824
G1 X6 Y24.054 E862.45398
G1 X7.675 Y23.624 E862.55807
G1 X8 Y23.496 E862.5791
G1 X8 Y-23.495 E865.40767
G1 X10 Y-22.702 E865.53717
G1 X10 Y22.703 E868.27027
G1 X10.583 Y22.472 E868.30802
G1 X12 Y21.693 E868.40535
G1 X12 Y-21.692 E871.01686
G1 X13.305 Y-20.975 E871.10649
G1 X14 Y-20.47 E871.1582
G1 X14 Y20.471 E873.62259
G1 X15.829 Y19.142 E873.75868
G1 X16 Y18.982 E873.77278
G1 X16 Y-18.981 E876.05791
G1 X18 Y-17.102 E876.2231
G1 X18 Y17.103 E878.28203
G1 X18.114 Y16.995 E878.29148
G1 X20 Y14.718 E878.46945
G1 X20 Y-14.717 E880.24125
G1 X20.092 Y-14.606 E880.24993
G1 X21.768 Y-11.967 E880.43811
G1 X22 Y-11.473 E880.47096
G1 X22 Y11.474 E881.85223
G1 X23.096 Y9.14 E882.00744
G1 X24 Y6.363 E882.18323
G1 X24 Y-6.362 E882.9492
G0 F1200 X23.772 Y-6.288
;MESH:NONMESH
G0 X6.208 Y24
;TIME_ELAPSED:1798.678532
;LAYER:15
;MESH:circle.stl
G0 X6.208 Y24 Z12.1
;TYPE:FILL
G1 F600 X-6.209 Y24 E883.69663
G1 X-7.674 Y23.624 E883.78767
G1 X-10.582 Y22.472 E883.97595
G1 X-11.441 Y22 E884.03494
G1 X11.44 Y22 E885.41224
G1 X13.304 Y20.975 E885.54028
G1 X14.646 Y20 E885.64013
G1 X-14.647 Y20 E887.40339
G1 X-15.828 Y19.142 E887.49126
G1 X-17.044 Y18 E887.59167
G1 X17.044 Y18 E889.64356
G1 X18.114 Y16.995 E889.73192
G1 X18.937 Y16 E889.80965
G1 X-18.938 Y15.999 E892.08949
G1 X-20.092 Y14.605 E892.19842
G1 X-20.477 Y13.999 E892.24163
G1 X20.476 Y14 E894.70675
G1 X21.746 Y12 E894.84936
G1 X-21.748 Y11.999 E897.46743
G1 X-21.768 Y11.966 E897.46975
G1 X-22.693 Y9.999 E897.60059
G1 X22.691 Y10 E900.33242
G1 X23.096 Y9.139 E900.3897
G1 X23.466 Y8 E900.46179
G1 X-23.468 Y7.999 E903.28692
G0 F1200 X-23.764 Y7.086
G1 F600 X-24.078 Y6.086 E903.4131
G0 F1200 X-24.095 Y5.999
G1 F600 X24.094 Y6 E906.31378
G1 X24.474 Y4 E906.43632
G1 X-24.476 Y3.999 E909.38281
G1 X-24.642 Y3.123 E909.43648
G1 X-24.713 Y1.999 E909.50427
G1 X24.712 Y2 E912.47935
G1 X24.838 Y0.00 E912.59997
G1 X-24.838 Y0.00 E915.59016
G1 X-24.712 Y-2 E915.71079
G1 X24.713 Y-1.999 E918.68586
G1 X24.642 Y-3.123 E918.75366
G1 X24.476 Y-3.999 E918.80732
G1 X-24.474 Y-4 E921.75381
G1 X-24.094 Y-6 E921.87635
G1 X24.095 Y-5.999 E924.77703
G0 F1200 X24.078 Y-6.086
G1 F600 X23.764 Y-7.086 E924.90321
G0 F1200 X23.468 Y-7.999
G1 F600 X-23.466 Y-8 E927.72835
G1 X-23.096 Y-9.139 E927.80043
G1 X-22.691 Y-10 E927.85771
G1 X22.693 Y-9.999 E930.58954
G1 X21.768 Y-11.966 E930.72038
G1 X21.748 Y-11.999 E930.72271
G1 X-21.746 Y-12 E933.34077
G1 X-20.476 Y-14 E933.48338
G1 X20.477 Y-13.999 E935.9485
G1 X20.092 Y-14.605 E935.99171
G1 X18.938 Y-15.999 E936.10065
G1 X-18.937 Y-16 E938.38049
G1 X-18.114 Y-16.995 E938.45821
G1 X-17.044 Y-18 E938.54657
G1 X17.044 Y-18 E940.59846
G1 X15.828 Y-19.142 E940.69887
G1 X14.647 Y-20 E940.78674
G1 X-14.646 Y-20 E942.55
G1 X-13.304 Y-20.975 E942.64985
G1 X-11.44 Y-22 E942.77789
G1 X11.441 Y-22 E944.15519
G1 X10.582 Y-22.472 E944.21419
G1 X7.674 Y-23.624 E944.40246
G1 X6.209 Y-24 E944.49351
G1 X-6.208 Y-24 E945.24093
G0 F1200 X-6.15 Y-23.768
;MESH:NONMESH
G0 X-24 Y6.362
;TIME_ELAPSED:1904.032173
;LAYER:16
;MESH:circle.stl
G0 X-24 Y6.362 Z12.9
;TYPE:FILL
G1 F600 X-24 Y-6.363 E946.0069
G1 X-23.096 Y-9.14 E946.18269
G1 X-22 Y-11.474 E946.3379
G1 X-22 Y11.473 E947.71917
G1 X-21.768 Y11.967 E947.75202
G1 X-20.092 Y14.606 E947.9402
G1 X-20 Y14.717 E947.94888
G1 X-20 Y-14.718 E949.72068
G1 X-18.114 Y-16.995 E949.89865
G1 X-18 Y-17.103 E949.9081
G1 X-18 Y17.102 E951.96703
G1 X-16 Y18.981 E952.13222
G1 X-16 Y-18.982 E954.41735
G1 X-15.829 Y-19.142 E954.43145
G1 X-14 Y-20.471 E954.56754
G1 X-14 Y20.47 E957.03193
G1 X-13.305 Y20.975 E957.08365
G1 X-12 Y21.692 E957.17327
G1 X-12 Y-21.693 E959.78478
G1 X-10.583 Y-22.472 E959.88212
G1 X-10 Y-22.703 E959.91986
G1 X-10 Y22.702 E962.65296
G1 X-8 Y23.495 E962.78247
G1 X-8 Y-23.496 E965.61103
G1 X-7.675 Y-23.624 E965.63206
G1 X-6 Y-24.054 E965.73615
G1 X-6 Y24.053 E968.63189
G1 X-4.65 Y24.4 E968.7158
G1 X-4 Y24.482 E968.75523
G1 X-4 Y-24.483 E971.70262
G1 X-2 Y-24.736 E971.82397
G1 X-2 Y24.735 E974.80182
G1 X-1.562 Y24.791 E974.82839
G1 X0.00 Y24.791 E974.92242
G1 X0.00 Y-24.791 E977.90695
G1 X1.562 Y-24.791 E978.00097
G1 X2 Y-24.735 E978.02755
G1 X2 Y24.736 E981.00539
G1 X4 Y24.483 E981.12674
G1 X4 Y-24.482 E984.07413
G1 X4.65 Y-24.4 E984.11357
G1 X6 Y-24.053 E984.19747
G1 X6 Y24.054 E987.09321
G1 X7.675 Y23.624 E987.1973
G1 X8 Y23.496 E987.21833
G1 X8 Y-23.495 E990.0469
G1 X10 Y-22.702 E990.1764
G1 X10 Y22.703 E992.9095
G1 X10.583 Y22.472 E992.94725
G1 X12 Y21.693 E993.04458
G1 X12 Y-21.692 E995.65609
G1 X13.305 Y-20.975 E995.74572
G1 X14 Y-20.47 E995.79743
G1 X14 Y20.471 E998.26182
G1 X15.829 Y19.142 E998.39791
G1 X16 Y18.982 E998.41201
G1 X16 Y-18.981 E1000.69715
G1 X18 Y-17.102 E1000.86233
G1 X18 Y17.103 E1002.92126
G1 X18.114 Y16.995 E1002.93071
G1 X20 Y14.718 E1003.10868
G1 X20 Y-14.717 E1004.88049
G1 X20.092 Y-14.606 E1004.88916
G1 X21.768 Y-11.967 E1005.07734
G1 X22 Y-11.473 E1005.1102
G1 X22 Y11.474 E1006.49146
G1 X23.096 Y9.14 E1006.64667
G1 X24 Y6.363 E1006.82246
G1 X24 Y-6.362 E1007.58843
G0 F1200 X23.772 Y-6.288
;MESH:NONMESH
G0 X6.208 Y24
;TIME_ELAPSED:2009.577595
;LAYER:17
;MESH:circle.stl
G0 X6.208 Y24 Z13.7
;TYPE:FILL
G1 F600 X-6.209 Y24 E1008.33586
G1 X-7.674 Y23.624 E1008.4269
G1 X-10.582 Y22.472 E1008.61518
G1 X-11.441 Y22 E1008.67418
G1 X11.44 Y22 E1010.05147
G1 X13.304 Y20.975 E1010.17952
G1 X14.646 Y20 E1010.27936
G1 X-14.647 Y20 E1012.04262
G1 X-15.828 Y19.142 E1012.13049
G1 X-17.044 Y18 E1012.2309
G1 X17.044 Y18 E1014.28279
G1 X18.114 Y16.995 E1014.37115
G1 X18.937 Y16 E1014.44888
G1 X-18.938 Y15.999 E1016.72872
G1 X-20.092 Y14.605 E1016.83765
G1 X-20.477 Y13.999 E1016.88087
G1 X20.476 Y14 E1019.34598
G1 X21.746 Y12 E1019.48859
G1 X-21.748 Y11.999 E1022.10666
G1 X-21.768 Y11.966 E1022.10898
G1 X-22.693 Y9.999 E1022.23982
G1 X22.691 Y10 E1024.97165
G1 X23.096 Y9.139 E1025.02893
G1 X23.466 Y8 E1025.10102
G1 X-23.468 Y7.999 E1027.92615
G0 F1200 X-23.764 Y7.086
G1 F600 X-24.078 Y6.086 E1028.05233
G0 F1200 X-24.095 Y5.999
G1 F600 X24.094 Y6 E1030.95301
G1 X24.474 Y4 E1031.07555
G1 X-24.476 Y3.999 E1034.02204
G1 X-24.642 Y3.123 E1034.07571
G1 X-24.713 Y1.999 E1034.1435
G1 X24.712 Y2 E1037.11858
G1 X24.838 Y0.00 E1037.2392
G1 X-24.838 Y0.00 E1040.22939
G1 X-24.712 Y-2 E1040.35002
G1 X24.713 Y-1.999 E1043.32509
G1 X24.642 Y-3.123 E1043.39289
G1 X24.476 Y-3.999 E1043.44655
G1 X-24.474 Y-4 E1046.39304
G1 X-24.094 Y-6 E1046.51558
G1 X24.095 Y-5.999 E1049.41626
G0 F1200 X24.078 Y-6.086
G1 F600 X23.764 Y-7.086 E1049.54244
G0 F1200 X23.468 Y-7.999
G1 F600 X-23.466 Y-8 E1052.36758
G1 X-23.096 Y-9.139 E1052.43967
G1 X-22.691 Y-10 E1052.49694
G1 X22.693 Y-9.999 E1055.22877
G1 X21.768 Y-11.966 E1055.35961
G1 X21.748 Y-11.999 E1055.36194
G1 X-21.746 Y-12 E1057.98
G1 X-20.476 Y-14 E1058.12261
G1 X20.477 Y-13.999 E1060.58773
G1 X20.092 Y-14.605 E1060.63095
G1 X18.938 Y-15.999 E1060.73988
G1 X-18.937 Y-16 E1063.01972
G1 X-18.114 Y-16.995 E1063.09744
G1 X-17.044 Y-18 E1063.1858
G1 X17.044 Y-18 E1065.23769
G1 X15.828 Y-19.142 E1065.3381
G1 X14.647 Y-20 E1065.42597
G1 X-14.646 Y-20 E1067.18923
G1 X-13.304 Y-20.975 E1067.28908
G1 X-11.44 Y-22 E1067.41712
G1 X11.441 Y-22 E1068.79442
G1 X10.582 Y-22.472 E1068.85342
G1 X7.674 Y-23.624 E1069.0417
G1 X6.209 Y-24 E1069.13274
G1 X-6.208 Y-24 E1069.88016
G0 F1200 X-6.15 Y-23.768
;MESH:NONMESH
G0 X-24 Y6.362
;TIME_ELAPSED:2114.931236
;LAYER:18
;MESH:circle.stl
G0 X-24 Y6.362 Z14.5
;TYPE:FILL
G1 F600 X-24 Y-6.363 E1070.64613
G1 X-23.096 Y-9.14 E1070.82192
G1 X-22 Y-11.474 E1070.97713
G1 X-22 Y11.473 E1072.3584
G1 X-21.768 Y11.967 E1072.39125
G1 X-20.092 Y14.606 E1072.57943
G1 X-20 Y14.717 E1072.58811
G1 X-20 Y-14.718 E1074.35991
G1 X-18.114 Y-16.995 E1074.53788
G1 X-18 Y-17.103 E1074.54734
G1 X-18 Y17.102 E1076.60626
G1 X-16 Y18.981 E1076.77145
G1 X-16 Y-18.982 E1079.05658
G1 X-15.829 Y-19.142 E1079.07068
G1 X-14 Y-20.471 E1079.20677
G1 X-14 Y20.47 E1081.67116
G1 X-13.305 Y20.975 E1081.72288
G1 X-12 Y21.692 E1081.8125
G1 X-12 Y-21.693 E1084.42401
G1 X-10.583 Y-22.472 E1084.52135
G1 X-10 Y-22.703 E1084.55909
G1 X-10 Y22.702 E1087.29219
G1 X-8 Y23.495 E1087.4217
G1 X-8 Y-23.496 E1090.25026
G1 X-7.675 Y-23.624 E1090.27129
G1 X-6 Y-24.054 E1090.37538
G1 X-6 Y24.053 E1093.27113
G1 X-4.65 Y24.4 E1093.35503
G1 X-4 Y24.482 E1093.39446
G1 X-4 Y-24.483 E1096.34185
G1 X-2 Y-24.736 E1096.4632
G1 X-2 Y24.735 E1099.44105
G1 X-1.562 Y24.791 E1099.46763
G1 X0.00 Y24.791 E1099.56165
G1 X0.00 Y-24.791 E1102.54618
G1 X1.562 Y-24.791 E1102.6402
G1 X2 Y-24.735 E1102.66678
G1 X2 Y24.736 E1105.64463
G1 X4 Y24.483 E1105.76597
G1 X4 Y-24.482 E1108.71336
G1 X4.65 Y-24.4 E1108.7528
G1 X6 Y-24.053 E1108.8367
G1 X6 Y24.054 E1111.73244
G1 X7.675 Y23.624 E1111.83654
G1 X8 Y23.496 E1111.85756
G1 X8 Y-23.495 E1114.68613
G1 X10 Y-22.702 E1114.81563
G1 X10 Y22.703 E1117.54873
G1 X10.583 Y22.472 E1117.58648
G1 X12 Y21.693 E1117.68381
G1 X12 Y-21.692 E1120.29532
G1 X13.305 Y-20.975 E1120.38495
G1 X14 Y-20.47 E1120.43666
G1 X14 Y20.471 E1122.90105
G1 X15.829 Y19.142 E1123.03714
G1 X16 Y18.982 E1123.05124
G1 X16 Y-18.981 E1125.33638
G1 X18 Y-17.102 E1125.50156
G1 X18 Y17.103 E1127.56049
G1 X18.114 Y16.995 E1127.56994
G1 X20 Y14.718 E1127.74791
G1 X20 Y-14.717 E1129.51972
G1 X20.092 Y-14.606 E1129.5284
G1 X21.768 Y-11.967 E1129.71657
G1 X22 Y-11.473 E1129.74943
G1 X22 Y11.474 E1131.13069
G1 X23.096 Y9.14 E1131.2859
G1 X24 Y6.363 E1131.4617
G1 X24 Y-6.362 E1132.22766
G0 F1200 X23.772 Y-6.288
;MESH:NONMESH
G0 X6.202 Y24
;TIME_ELAPSED:2220.476809
;LAYER:19
;MESH:circle.stl
G0 X6.202 Y24 Z15.3
;TYPE:FILL
G1 F600 X-6.204 Y24 E1132.97443
G1 X-7.657 Y23.628 E1133.06471
G1 X-10.56 Y22.481 E1133.2526
G1 X-11.437 Y22 E1133.3128
G1 X11.438 Y22 E1134.68974
G1 X13.322 Y20.963 E1134.81919
G1 X14.645 Y20 E1134.91769
G1 X-14.646 Y20 E1136.68082
G1 X-15.817 Y19.151 E1136.76789
G1 X-17.046 Y18 E1136.86924
G1 X17.043 Y18 E1138.92119
G1 X18.127 Y16.981 E1139.01074
G1 X18.936 Y16 E1139.08728
G1 X-18.937 Y15.999 E1141.367
G1 X-20.082 Y14.616 E1141.47507
G1 X-20.475 Y13.999 E1141.51911
G1 X20.475 Y14 E1143.98404
G1 X21.742 Y12 E1144.12656
G1 X-21.748 Y11.999 E1146.74438
G1 X-21.757 Y11.984 E1146.74544
G1 X-22.692 Y9.999 E1146.87751
G1 X22.689 Y10 E1149.60917
G1 X23.102 Y9.12 E1149.66768
G1 X23.465 Y8 E1149.73855
G1 X-23.466 Y7.999 E1152.5635
G1 X-24.055 Y6.192 E1152.67791
G1 X-24.092 Y5.999 E1152.68974
G1 X24.093 Y6 E1155.59017
G1 X24.472 Y4 E1155.7127
G1 X-24.475 Y3.999 E1158.65901
G1 X-24.638 Y3.143 E1158.71146
G1 X-24.711 Y1.999 E1158.78046
G1 X24.711 Y2 E1161.75536
G1 X24.835 Y0.00 E1161.87598
G1 X-24.835 Y0.00 E1164.8658
G1 X-24.711 Y-2 E1164.98642
G1 X24.711 Y-1.999 E1167.96132
G1 X24.638 Y-3.143 E1168.03032
G1 X24.475 Y-3.999 E1168.08277
G1 X-24.472 Y-4 E1171.02908
G1 X-24.093 Y-6 E1171.15161
G1 X24.093 Y-5.999 E1174.0521
G0 F1200 X24.074 Y-6.096
G1 F600 X23.76 Y-7.096 E1174.17829
G0 F1200 X23.466 Y-7.999
G1 F600 X-23.465 Y-8 E1177.00324
G1 X-23.102 Y-9.12 E1177.07411
G1 X-22.689 Y-10 E1177.13263
G1 X22.692 Y-9.999 E1179.86428
G1 X21.757 Y-11.984 E1179.99636
G1 X21.748 Y-11.999 E1179.99741
G1 X-21.742 Y-12 E1182.61524
G1 X-20.475 Y-14 E1182.75775
G1 X20.475 Y-13.999 E1185.22268
G1 X20.082 Y-14.616 E1185.26672
G1 X18.937 Y-15.999 E1185.37479
G1 X-18.936 Y-16 E1187.65451
G1 X-18.127 Y-16.981 E1187.73105
G1 X-17.043 Y-18 E1187.82061
G1 X17.046 Y-18 E1189.87255
G1 X15.817 Y-19.151 E1189.97391
G1 X14.646 Y-20 E1190.06097
G1 X-14.645 Y-20 E1191.82411
G1 X-13.322 Y-20.963 E1191.9226
G1 X-11.438 Y-22 E1192.05205
G1 X11.437 Y-22 E1193.42899
G1 X10.56 Y-22.481 E1193.4892
G1 X7.657 Y-23.628 E1193.67708
G1 X6.204 Y-24 E1193.76737
G1 X-6.202 Y-24 E1194.51413
G0 F1200 X-6.144 Y-23.768
;TIME_ELAPSED:2324.120312
M140 S0
M107
M104 S0 ;extruder heater off
M140 S0 ;heated bed heater off (if you have it)
G91 ;relative positioning
G1 E-1 F300  ;retract the filament a bit before lifting the nozzle, to release some of the pressure
G1 Z+0.5 E-5 X-20 Y-20 F9000 ;move Z up a bit and retract filament even more
G28 X0 Y0 ;move X/Y to min endstops, so the head is out of the way
M84 ;steppers off
G90 ;absolute positioning
M82 ;absolute extrusion mode
M104 S0
;End of Gcode
;SETTING_3 {"global_quality": "[general]\\nversion = 4\\nname = Carolyn - PLA\\n
;SETTING_3 definition = fdmprinter\\n\\n[metadata]\\nsetting_version = 5\\ntype 
;SETTING_3 = quality_changes\\nquality_type = verydraft\\n\\n[values]\\nadhesion
;SETTING_3 _type = skirt\\nlayer_height = 0.8\\nlayer_height_0 = 0.1\\nmaterial_
;SETTING_3 bed_temperature = 0\\nprint_sequence = one_at_a_time\\n\\n", "extrude
;SETTING_3 r_quality": ["[general]\\nversion = 4\\nname = Carolyn - PLA\\ndefini
;SETTING_3 tion = fdmprinter\\n\\n[metadata]\\nsetting_version = 5\\nposition = 
;SETTING_3 0\\ntype = quality_changes\\nquality_type = verydraft\\n\\n[values]\\
;SETTING_3 nbrim_width = 0\\ninfill_angles = [0,90]\\ninfill_line_distance = 2\\
;SETTING_3 ninfill_pattern = zigzag\\ninfill_sparse_density = 70\\nmaterial_flow
;SETTING_3  = 120\\nretraction_enable = False\\nskirt_line_count = 1\\nspeed_pri
;SETTING_3 nt = 10\\nspeed_travel = 20\\ntop_bottom_thickness = 0.0\\nwall_thick
;SETTING_3 ness = 0.0\\n\\n"]}
