;FLAVOR:Marlin
;TIME:1202
;Filament used: 0.166873m
;Layer height: 0.2
;Generated with Cura_SteamEngine 3.6.0
M104 S200
M105
M109 S200
M82 ;absolute extrusion mode
G21 ;metric values
G90 ;absolute positioning
M82 ;set extruder to absolute mode
M107 ;start with the fan off
G28 ;move XYZ to min endstops
G1 Z15.0 F9000 ;move the platform down 15mm
G1 F9000
;Put printing message on LCD screen
M117 Printing...
G92 E0
;LAYER_COUNT:26
;LAYER:0
M107
;MESH:Box_1_testhybrid.stl
G0 F600 X-12 Y12.34 Z0.2
;TYPE:FILL
G1 F300 X-12 Y-12.34 E0.3714
G1 X-10.5 Y-12.34 E0.39397
G1 X-10.5 Y12.34 E0.76536
G1 X-9 Y12.34 E0.78794
G1 X-9 Y-12.34 E1.15933
G1 X-7.5 Y-12.34 E1.1819
G1 X-7.5 Y12.34 E1.5533
G1 X-6 Y12.34 E1.57587
G1 X-6 Y-12.34 E1.94727
G1 X-4.5 Y-12.34 E1.96984
G1 X-4.5 Y12.34 E2.34124
G1 X-3 Y12.34 E2.36381
G1 X-3 Y-12.34 E2.73521
G1 X-1.5 Y-12.34 E2.75778
G1 X-1.5 Y12.34 E3.12917
G1 X0.00 Y12.34 E3.15175
G1 X0.00 Y-12.34 E3.52314
G1 X1.5 Y-12.34 E3.54571
G1 X1.5 Y12.34 E3.91711
G1 X3 Y12.34 E3.93968
G1 X3 Y-12.34 E4.31108
G1 X4.5 Y-12.34 E4.33365
G1 X4.5 Y12.34 E4.70505
G1 X6 Y12.34 E4.72762
G1 X6 Y-12.34 E5.09902
G1 X7.5 Y-12.34 E5.12159
G1 X7.5 Y12.34 E5.49298
G1 X9 Y12.34 E5.51556
G1 X9 Y-12.34 E5.88695
G1 X10.5 Y-12.34 E5.90952
G1 X10.5 Y12.34 E6.28092
G1 X12 Y12.34 E6.30349
G1 X12 Y-12.34 E6.67489
G0 F600 X12 Y-12.1
;MESH:NONMESH
G0 X12.34 Y12
;TIME_ELAPSED:92.869485
;LAYER:1
M106 S255
;MESH:Box_1_testhybrid.stl
G0 F900 X12.34 Y12 Z0.4
;TYPE:FILL
G1 F450 X-12.34 Y12 E7.04628
G1 X-12.34 Y10.5 E7.06886
G1 X12.34 Y10.5 E7.44025
G1 X12.34 Y9 E7.46282
G1 X-12.34 Y9 E7.83422
G1 X-12.34 Y7.499 E7.85681
G1 X12.34 Y7.5 E8.2282
G1 X12.34 Y6 E8.25078
G1 X-12.34 Y5.999 E8.62217
G1 X-12.34 Y4.499 E8.64474
G1 X12.34 Y4.5 E9.01614
G1 X12.34 Y3 E9.03871
G1 X-12.34 Y2.999 E9.41011
G1 X-12.34 Y1.499 E9.43268
G1 X12.34 Y1.5 E9.80408
G1 X12.34 Y0.00 E9.82665
G1 X-12.34 Y0.00 E10.19805
G1 X-12.34 Y-1.5 E10.22062
G1 X12.34 Y-1.499 E10.59201
G1 X12.34 Y-2.999 E10.61459
G1 X-12.34 Y-3 E10.98598
G1 X-12.34 Y-4.5 E11.00855
G1 X12.34 Y-4.499 E11.37995
G1 X12.34 Y-5.999 E11.40252
G1 X-12.34 Y-6 E11.77392
G1 X-12.34 Y-7.5 E11.79649
G1 X12.34 Y-7.499 E12.16789
G1 X12.34 Y-9 E12.19047
G1 X-12.34 Y-9 E12.56187
G1 X-12.34 Y-10.5 E12.58444
G1 X12.34 Y-10.5 E12.95584
G1 X12.34 Y-12 E12.97841
G1 X-12.34 Y-12 E13.34981
G0 F900 X-12.1 Y-12
;MESH:NONMESH
G0 X-12 Y12.34
;TIME_ELAPSED:153.734791
;LAYER:2
;MESH:Box_1_testhybrid.stl
G0 F1200 X-12 Y12.34 Z0.6
;TYPE:FILL
G1 F600 X-12 Y-12.34 E13.7212
G1 X-10.5 Y-12.34 E13.74378
G1 X-10.5 Y12.34 E14.11517
G1 X-9 Y12.34 E14.13774
G1 X-9 Y-12.34 E14.50914
G1 X-7.5 Y-12.34 E14.53171
G1 X-7.5 Y12.34 E14.90311
G1 X-6 Y12.34 E14.92568
G1 X-6 Y-12.34 E15.29708
G1 X-4.5 Y-12.34 E15.31965
G1 X-4.5 Y12.34 E15.69104
G1 X-3 Y12.34 E15.71362
G1 X-3 Y-12.34 E16.08501
G1 X-1.5 Y-12.34 E16.10758
G1 X-1.5 Y12.34 E16.47898
G1 X0.00 Y12.34 E16.50155
G1 X0.00 Y-12.34 E16.87295
G1 X1.5 Y-12.34 E16.89552
G1 X1.5 Y12.34 E17.26692
G1 X3 Y12.34 E17.28949
G1 X3 Y-12.34 E17.66089
G1 X4.5 Y-12.34 E17.68346
G1 X4.5 Y12.34 E18.05485
G1 X6 Y12.34 E18.07743
G1 X6 Y-12.34 E18.44882
G1 X7.5 Y-12.34 E18.47139
G1 X7.5 Y12.34 E18.84279
G1 X9 Y12.34 E18.86536
G1 X9 Y-12.34 E19.23676
G1 X10.5 Y-12.34 E19.25933
G1 X10.5 Y12.34 E19.63073
G1 X12 Y12.34 E19.6533
G1 X12 Y-12.34 E20.0247
G0 F1200 X12 Y-12.1
;MESH:NONMESH
G0 X12.34 Y12
;TIME_ELAPSED:199.392282
;LAYER:3
;MESH:Box_1_testhybrid.stl
G0 X12.34 Y12 Z0.8
;TYPE:FILL
G1 F600 X-12.34 Y12 E20.39609
G1 X-12.34 Y10.5 E20.41866
G1 X12.34 Y10.5 E20.79006
G1 X12.34 Y9 E20.81263
G1 X-12.34 Y9 E21.18403
G1 X-12.34 Y7.499 E21.20662
G1 X12.34 Y7.5 E21.57801
G1 X12.34 Y6 E21.60058
G1 X-12.34 Y5.999 E21.97198
G1 X-12.34 Y4.499 E21.99455
G1 X12.34 Y4.5 E22.36595
G1 X12.34 Y3 E22.38852
G1 X-12.34 Y2.999 E22.75992
G1 X-12.34 Y1.499 E22.78249
G1 X12.34 Y1.5 E23.15388
G1 X12.34 Y0.00 E23.17646
G1 X-12.34 Y0.00 E23.54785
G1 X-12.34 Y-1.5 E23.57042
G1 X12.34 Y-1.499 E23.94182
G1 X12.34 Y-2.999 E23.96439
G1 X-12.34 Y-3 E24.33579
G1 X-12.34 Y-4.5 E24.35836
G1 X12.34 Y-4.499 E24.72976
G1 X12.34 Y-5.999 E24.75233
G1 X-12.34 Y-6 E25.12373
G1 X-12.34 Y-7.5 E25.1463
G1 X12.34 Y-7.499 E25.51769
G1 X12.34 Y-9 E25.54028
G1 X-12.34 Y-9 E25.91168
G1 X-12.34 Y-10.5 E25.93425
G1 X12.34 Y-10.5 E26.30565
G1 X12.34 Y-12 E26.32822
G1 X-12.34 Y-12 E26.69961
G0 F1200 X-12.1 Y-12
;MESH:NONMESH
G0 X-12 Y12.34
;TIME_ELAPSED:245.062288
;LAYER:4
;MESH:Box_1_testhybrid.stl
G0 X-12 Y12.34 Z1
;TYPE:FILL
G1 F600 X-12 Y-12.34 E27.07101
G1 X-10.5 Y-12.34 E27.09358
G1 X-10.5 Y12.34 E27.46498
G1 X-9 Y12.34 E27.48755
G1 X-9 Y-12.34 E27.85895
G1 X-7.5 Y-12.34 E27.88152
G1 X-7.5 Y12.34 E28.25291
G1 X-6 Y12.34 E28.27549
G1 X-6 Y-12.34 E28.64688
G1 X-4.5 Y-12.34 E28.66946
G1 X-4.5 Y12.34 E29.04085
G1 X-3 Y12.34 E29.06342
G1 X-3 Y-12.34 E29.43482
G1 X-1.5 Y-12.34 E29.45739
G1 X-1.5 Y12.34 E29.82879
G1 X0.00 Y12.34 E29.85136
G1 X0.00 Y-12.34 E30.22276
G1 X1.5 Y-12.34 E30.24533
G1 X1.5 Y12.34 E30.61672
G1 X3 Y12.34 E30.6393
G1 X3 Y-12.34 E31.01069
G1 X4.5 Y-12.34 E31.03326
G1 X4.5 Y12.34 E31.40466
G1 X6 Y12.34 E31.42723
G1 X6 Y-12.34 E31.79863
G1 X7.5 Y-12.34 E31.8212
G1 X7.5 Y12.34 E32.1926
G1 X9 Y12.34 E32.21517
G1 X9 Y-12.34 E32.58657
G1 X10.5 Y-12.34 E32.60914
G1 X10.5 Y12.34 E32.98053
G1 X12 Y12.34 E33.00311
G1 X12 Y-12.34 E33.3745
G0 F1200 X12 Y-12.1
;MESH:NONMESH
G0 X12.34 Y12
;TIME_ELAPSED:290.719779
;LAYER:5
;MESH:Box_1_testhybrid.stl
G0 X12.34 Y12 Z1.2
;TYPE:FILL
G1 F600 X-12.34 Y12 E33.7459
G1 X-12.34 Y10.5 E33.76847
G1 X12.34 Y10.5 E34.13987
G1 X12.34 Y9 E34.16244
G1 X-12.34 Y9 E34.53383
G1 X-12.34 Y7.499 E34.55642
G1 X12.34 Y7.5 E34.92782
G1 X12.34 Y6 E34.95039
G1 X-12.34 Y5.999 E35.32179
G1 X-12.34 Y4.499 E35.34436
G1 X12.34 Y4.5 E35.71575
G1 X12.34 Y3 E35.73833
G1 X-12.34 Y2.999 E36.10972
G1 X-12.34 Y1.499 E36.1323
G1 X12.34 Y1.5 E36.50369
G1 X12.34 Y0.00 E36.52626
G1 X-12.34 Y0.00 E36.89766
G1 X-12.34 Y-1.5 E36.92023
G1 X12.34 Y-1.499 E37.29163
G1 X12.34 Y-2.999 E37.3142
G1 X-12.34 Y-3 E37.6856
G1 X-12.34 Y-4.5 E37.70817
G1 X12.34 Y-4.499 E38.07956
G1 X12.34 Y-5.999 E38.10214
G1 X-12.34 Y-6 E38.47353
G1 X-12.34 Y-7.5 E38.4961
G1 X12.34 Y-7.499 E38.8675
G1 X12.34 Y-9 E38.89009
G1 X-12.34 Y-9 E39.26148
G1 X-12.34 Y-10.5 E39.28406
G1 X12.34 Y-10.5 E39.65545
G1 X12.34 Y-12 E39.67802
G1 X-12.34 Y-12 E40.04942
G0 F1200 X-12.1 Y-12
;MESH:NONMESH
G0 X-12 Y12.34
;TIME_ELAPSED:336.389784
;LAYER:6
;MESH:Box_1_testhybrid.stl
G0 X-12 Y12.34 Z1.4
;TYPE:FILL
G1 F600 X-12 Y-12.34 E40.42082
G1 X-10.5 Y-12.34 E40.44339
G1 X-10.5 Y12.34 E40.81478
G1 X-9 Y12.34 E40.83736
G1 X-9 Y-12.34 E41.20875
G1 X-7.5 Y-12.34 E41.23133
G1 X-7.5 Y12.34 E41.60272
G1 X-6 Y12.34 E41.62529
G1 X-6 Y-12.34 E41.99669
G1 X-4.5 Y-12.34 E42.01926
G1 X-4.5 Y12.34 E42.39066
G1 X-3 Y12.34 E42.41323
G1 X-3 Y-12.34 E42.78463
G1 X-1.5 Y-12.34 E42.8072
G1 X-1.5 Y12.34 E43.17859
G1 X0.00 Y12.34 E43.20117
G1 X0.00 Y-12.34 E43.57256
G1 X1.5 Y-12.34 E43.59514
G1 X1.5 Y12.34 E43.96653
G1 X3 Y12.34 E43.9891
G1 X3 Y-12.34 E44.3605
G1 X4.5 Y-12.34 E44.38307
G1 X4.5 Y12.34 E44.75447
G1 X6 Y12.34 E44.77704
G1 X6 Y-12.34 E45.14844
G1 X7.5 Y-12.34 E45.17101
G1 X7.5 Y12.34 E45.5424
G1 X9 Y12.34 E45.56498
G1 X9 Y-12.34 E45.93637
G1 X10.5 Y-12.34 E45.95894
G1 X10.5 Y12.34 E46.33034
G1 X12 Y12.34 E46.35291
G1 X12 Y-12.34 E46.72431
G0 F1200 X12 Y-12.1
;MESH:NONMESH
G0 X12.34 Y12
;TIME_ELAPSED:382.047275
;LAYER:7
;MESH:Box_1_testhybrid.stl
G0 X12.34 Y12 Z1.6
;TYPE:FILL
G1 F600 X-12.34 Y12 E47.0957
G1 X-12.34 Y10.5 E47.11828
G1 X12.34 Y10.5 E47.48967
G1 X12.34 Y9 E47.51225
G1 X-12.34 Y9 E47.88364
G1 X-12.34 Y7.499 E47.90623
G1 X12.34 Y7.5 E48.27762
G1 X12.34 Y6 E48.3002
G1 X-12.34 Y5.999 E48.67159
G1 X-12.34 Y4.499 E48.69417
G1 X12.34 Y4.5 E49.06556
G1 X12.34 Y3 E49.08813
G1 X-12.34 Y2.999 E49.45953
G1 X-12.34 Y1.499 E49.4821
G1 X12.34 Y1.5 E49.8535
G1 X12.34 Y0.00 E49.87607
G1 X-12.34 Y0.00 E50.24747
G1 X-12.34 Y-1.5 E50.27004
G1 X12.34 Y-1.499 E50.64143
G1 X12.34 Y-2.999 E50.66401
G1 X-12.34 Y-3 E51.0354
G1 X-12.34 Y-4.5 E51.05798
G1 X12.34 Y-4.499 E51.42937
G1 X12.34 Y-5.999 E51.45194
G1 X-12.34 Y-6 E51.82334
G1 X-12.34 Y-7.5 E51.84591
G1 X12.34 Y-7.499 E52.21731
G1 X12.34 Y-9 E52.2399
G1 X-12.34 Y-9 E52.61129
G1 X-12.34 Y-10.5 E52.63386
G1 X12.34 Y-10.5 E53.00526
G1 X12.34 Y-12 E53.02783
G1 X-12.34 Y-12 E53.39923
G0 F1200 X-12.1 Y-12
;MESH:NONMESH
G0 X-12 Y12.34
;TIME_ELAPSED:427.717281
;LAYER:8
;MESH:Box_1_testhybrid.stl
G0 X-12 Y12.34 Z1.8
;TYPE:FILL
G1 F600 X-12 Y-12.34 E53.77062
G1 X-10.5 Y-12.34 E53.7932
G1 X-10.5 Y12.34 E54.16459
G1 X-9 Y12.34 E54.18716
G1 X-9 Y-12.34 E54.55856
G1 X-7.5 Y-12.34 E54.58113
G1 X-7.5 Y12.34 E54.95253
G1 X-6 Y12.34 E54.9751
G1 X-6 Y-12.34 E55.3465
G1 X-4.5 Y-12.34 E55.36907
G1 X-4.5 Y12.34 E55.74046
G1 X-3 Y12.34 E55.76304
G1 X-3 Y-12.34 E56.13443
G1 X-1.5 Y-12.34 E56.15701
G1 X-1.5 Y12.34 E56.5284
G1 X0.00 Y12.34 E56.55097
G1 X0.00 Y-12.34 E56.92237
G1 X1.5 Y-12.34 E56.94494
G1 X1.5 Y12.34 E57.31634
G1 X3 Y12.34 E57.33891
G1 X3 Y-12.34 E57.71031
G1 X4.5 Y-12.34 E57.73288
G1 X4.5 Y12.34 E58.10427
G1 X6 Y12.34 E58.12685
G1 X6 Y-12.34 E58.49824
G1 X7.5 Y-12.34 E58.52082
G1 X7.5 Y12.34 E58.89221
G1 X9 Y12.34 E58.91478
G1 X9 Y-12.34 E59.28618
G1 X10.5 Y-12.34 E59.30875
G1 X10.5 Y12.34 E59.68015
G1 X12 Y12.34 E59.70272
G1 X12 Y-12.34 E60.07412
G0 F1200 X12 Y-12.1
;MESH:NONMESH
G0 X12.34 Y12
;TIME_ELAPSED:473.374772
;LAYER:9
;MESH:Box_1_testhybrid.stl
G0 X12.34 Y12 Z2
;TYPE:FILL
G1 F600 X-12.34 Y12 E60.44551
G1 X-12.34 Y10.5 E60.46808
G1 X12.34 Y10.5 E60.83948
G1 X12.34 Y9 E60.86205
G1 X-12.34 Y9 E61.23345
G1 X-12.34 Y7.499 E61.25604
G1 X12.34 Y7.5 E61.62743
G1 X12.34 Y6 E61.65
G1 X-12.34 Y5.999 E62.0214
G1 X-12.34 Y4.499 E62.04397
G1 X12.34 Y4.5 E62.41537
G1 X12.34 Y3 E62.43794
G1 X-12.34 Y2.999 E62.80934
G1 X-12.34 Y1.499 E62.83191
G1 X12.34 Y1.5 E63.2033
G1 X12.34 Y0.00 E63.22588
G1 X-12.34 Y0.00 E63.59727
G1 X-12.34 Y-1.5 E63.61985
G1 X12.34 Y-1.499 E63.99124
G1 X12.34 Y-2.999 E64.01381
G1 X-12.34 Y-3 E64.38521
G1 X-12.34 Y-4.5 E64.40778
G1 X12.34 Y-4.499 E64.77918
G1 X12.34 Y-5.999 E64.80175
G1 X-12.34 Y-6 E65.17315
G1 X-12.34 Y-7.5 E65.19572
G1 X12.34 Y-7.499 E65.56711
G1 X12.34 Y-9 E65.5897
G1 X-12.34 Y-9 E65.9611
G1 X-12.34 Y-10.5 E65.98367
G1 X12.34 Y-10.5 E66.35507
G1 X12.34 Y-12 E66.37764
G1 X-12.34 Y-12 E66.74903
G0 F1200 X-12.1 Y-12
;MESH:NONMESH
G0 X-12 Y12.34
;TIME_ELAPSED:519.044778
;LAYER:10
;MESH:Box_1_testhybrid.stl
G0 X-12 Y12.34 Z2.2
;TYPE:FILL
G1 F600 X-12 Y-12.34 E67.12043
G1 X-10.5 Y-12.34 E67.143
G1 X-10.5 Y12.34 E67.5144
G1 X-9 Y12.34 E67.53697
G1 X-9 Y-12.34 E67.90837
G1 X-7.5 Y-12.34 E67.93094
G1 X-7.5 Y12.34 E68.30233
G1 X-6 Y12.34 E68.32491
G1 X-6 Y-12.34 E68.6963
G1 X-4.5 Y-12.34 E68.71888
G1 X-4.5 Y12.34 E69.09027
G1 X-3 Y12.34 E69.11284
G1 X-3 Y-12.34 E69.48424
G1 X-1.5 Y-12.34 E69.50681
G1 X-1.5 Y12.34 E69.87821
G1 X0.00 Y12.34 E69.90078
G1 X0.00 Y-12.34 E70.27218
G1 X1.5 Y-12.34 E70.29475
G1 X1.5 Y12.34 E70.66614
G1 X3 Y12.34 E70.68872
G1 X3 Y-12.34 E71.06011
G1 X4.5 Y-12.34 E71.08269
G1 X4.5 Y12.34 E71.45408
G1 X6 Y12.34 E71.47665
G1 X6 Y-12.34 E71.84805
G1 X7.5 Y-12.34 E71.87062
G1 X7.5 Y12.34 E72.24202
G1 X9 Y12.34 E72.26459
G1 X9 Y-12.34 E72.63599
G1 X10.5 Y-12.34 E72.65856
G1 X10.5 Y12.34 E73.02995
G1 X12 Y12.34 E73.05253
G1 X12 Y-12.34 E73.42392
G0 F1200 X12 Y-12.1
;MESH:NONMESH
G0 X12.34 Y12
;TIME_ELAPSED:564.702268
;LAYER:11
;MESH:Box_1_testhybrid.stl
G0 X12.34 Y12 Z2.4
;TYPE:FILL
G1 F600 X-12.34 Y12 E73.79532
G1 X-12.34 Y10.5 E73.81789
G1 X12.34 Y10.5 E74.18929
G1 X12.34 Y9 E74.21186
G1 X-12.34 Y9 E74.58325
G1 X-12.34 Y7.499 E74.60584
G1 X12.34 Y7.5 E74.97724
G1 X12.34 Y6 E74.99981
G1 X-12.34 Y5.999 E75.37121
G1 X-12.34 Y4.499 E75.39378
G1 X12.34 Y4.5 E75.76517
G1 X12.34 Y3 E75.78775
G1 X-12.34 Y2.999 E76.15914
G1 X-12.34 Y1.499 E76.18172
G1 X12.34 Y1.5 E76.55311
G1 X12.34 Y0.00 E76.57568
G1 X-12.34 Y0.00 E76.94708
G1 X-12.34 Y-1.5 E76.96965
G1 X12.34 Y-1.499 E77.34105
G1 X12.34 Y-2.999 E77.36362
G1 X-12.34 Y-3 E77.73502
G1 X-12.34 Y-4.5 E77.75759
G1 X12.34 Y-4.499 E78.12898
G1 X12.34 Y-5.999 E78.15156
G1 X-12.34 Y-6 E78.52295
G1 X-12.34 Y-7.5 E78.54553
G1 X12.34 Y-7.499 E78.91692
G1 X12.34 Y-9 E78.93951
G1 X-12.34 Y-9 E79.3109
G1 X-12.34 Y-10.5 E79.33348
G1 X12.34 Y-10.5 E79.70487
G1 X12.34 Y-12 E79.72745
G1 X-12.34 Y-12 E80.09884
G0 F1200 X-12.1 Y-12
;MESH:NONMESH
G0 X-12 Y12.34
;TIME_ELAPSED:610.372274
;LAYER:12
;MESH:Box_1_testhybrid.stl
G0 X-12 Y12.34 Z2.6
;TYPE:FILL
G1 F600 X-12 Y-12.34 E80.47024
G1 X-10.5 Y-12.34 E80.49281
G1 X-10.5 Y12.34 E80.8642
G1 X-9 Y12.34 E80.88678
G1 X-9 Y-12.34 E81.25817
G1 X-7.5 Y-12.34 E81.28075
G1 X-7.5 Y12.34 E81.65214
G1 X-6 Y12.34 E81.67471
G1 X-6 Y-12.34 E82.04611
G1 X-4.5 Y-12.34 E82.06868
G1 X-4.5 Y12.34 E82.44008
G1 X-3 Y12.34 E82.46265
G1 X-3 Y-12.34 E82.83405
G1 X-1.5 Y-12.34 E82.85662
G1 X-1.5 Y12.34 E83.22801
G1 X0.00 Y12.34 E83.25059
G1 X0.00 Y-12.34 E83.62198
G1 X1.5 Y-12.34 E83.64456
G1 X1.5 Y12.34 E84.01595
G1 X3 Y12.34 E84.03852
G1 X3 Y-12.34 E84.40992
G1 X4.5 Y-12.34 E84.43249
G1 X4.5 Y12.34 E84.80389
G1 X6 Y12.34 E84.82646
G1 X6 Y-12.34 E85.19786
G1 X7.5 Y-12.34 E85.22043
G1 X7.5 Y12.34 E85.59182
G1 X9 Y12.34 E85.6144
G1 X9 Y-12.34 E85.98579
G1 X10.5 Y-12.34 E86.00837
G1 X10.5 Y12.34 E86.37976
G1 X12 Y12.34 E86.40233
G1 X12 Y-12.34 E86.77373
G0 F1200 X12 Y-12.1
;MESH:NONMESH
G0 X12.34 Y12
;TIME_ELAPSED:656.029765
;LAYER:13
;MESH:Box_1_testhybrid.stl
G0 X12.34 Y12 Z2.8
;TYPE:FILL
G1 F600 X-12.34 Y12 E87.14512
G1 X-12.34 Y10.5 E87.1677
G1 X12.34 Y10.5 E87.53909
G1 X12.34 Y9 E87.56167
G1 X-12.34 Y9 E87.93306
G1 X-12.34 Y7.499 E87.95565
G1 X12.34 Y7.5 E88.32704
G1 X12.34 Y6 E88.34962
G1 X-12.34 Y5.999 E88.72101
G1 X-12.34 Y4.499 E88.74359
G1 X12.34 Y4.5 E89.11498
G1 X12.34 Y3 E89.13755
G1 X-12.34 Y2.999 E89.50895
G1 X-12.34 Y1.499 E89.53152
G1 X12.34 Y1.5 E89.90292
G1 X12.34 Y0.00 E89.92549
G1 X-12.34 Y0.00 E90.29689
G1 X-12.34 Y-1.5 E90.31946
G1 X12.34 Y-1.499 E90.69085
G1 X12.34 Y-2.999 E90.71343
G1 X-12.34 Y-3 E91.08482
G1 X-12.34 Y-4.5 E91.1074
G1 X12.34 Y-4.499 E91.47879
G1 X12.34 Y-5.999 E91.50136
G1 X-12.34 Y-6 E91.87276
G1 X-12.34 Y-7.5 E91.89533
G1 X12.34 Y-7.499 E92.26673
G1 X12.34 Y-9 E92.28932
G1 X-12.34 Y-9 E92.66071
G1 X-12.34 Y-10.5 E92.68328
G1 X12.34 Y-10.5 E93.05468
G1 X12.34 Y-12 E93.07725
G1 X-12.34 Y-12 E93.44865
G0 F1200 X-12.1 Y-12
;MESH:NONMESH
G0 X-12 Y12.34
;TIME_ELAPSED:701.699771
;LAYER:14
;MESH:Box_1_testhybrid.stl
G0 X-12 Y12.34 Z3
;TYPE:FILL
G1 F600 X-12 Y-12.34 E93.82004
G1 X-10.5 Y-12.34 E93.84262
G1 X-10.5 Y12.34 E94.21401
G1 X-9 Y12.34 E94.23658
G1 X-9 Y-12.34 E94.60798
G1 X-7.5 Y-12.34 E94.63055
G1 X-7.5 Y12.34 E95.00195
G1 X-6 Y12.34 E95.02452
G1 X-6 Y-12.34 E95.39592
G1 X-4.5 Y-12.34 E95.41849
G1 X-4.5 Y12.34 E95.78988
G1 X-3 Y12.34 E95.81246
G1 X-3 Y-12.34 E96.18385
G1 X-1.5 Y-12.34 E96.20643
G1 X-1.5 Y12.34 E96.57782
G1 X0.00 Y12.34 E96.60039
G1 X0.00 Y-12.34 E96.97179
G1 X1.5 Y-12.34 E96.99436
G1 X1.5 Y12.34 E97.36576
G1 X3 Y12.34 E97.38833
G1 X3 Y-12.34 E97.75973
G1 X4.5 Y-12.34 E97.7823
G1 X4.5 Y12.34 E98.15369
G1 X6 Y12.34 E98.17627
G1 X6 Y-12.34 E98.54766
G1 X7.5 Y-12.34 E98.57024
G1 X7.5 Y12.34 E98.94163
G1 X9 Y12.34 E98.9642
G1 X9 Y-12.34 E99.3356
G1 X10.5 Y-12.34 E99.35817
G1 X10.5 Y12.34 E99.72957
G1 X12 Y12.34 E99.75214
G1 X12 Y-12.34 E100.12354
G0 F1200 X12 Y-12.1
;MESH:NONMESH
G0 X12.34 Y12
;TIME_ELAPSED:747.357261
;LAYER:15
;MESH:Box_1_testhybrid.stl
G0 X12.34 Y12 Z3.2
;TYPE:FILL
G1 F600 X-12.34 Y12 E100.49493
G1 X-12.34 Y10.5 E100.5175
G1 X12.34 Y10.5 E100.8889
G1 X12.34 Y9 E100.91147
G1 X-12.34 Y9 E101.28287
G1 X-12.34 Y7.499 E101.30546
G1 X12.34 Y7.5 E101.67685
G1 X12.34 Y6 E101.69942
G1 X-12.34 Y5.999 E102.07082
G1 X-12.34 Y4.499 E102.09339
G1 X12.34 Y4.5 E102.46479
G1 X12.34 Y3 E102.48736
G1 X-12.34 Y2.999 E102.85876
G1 X-12.34 Y1.499 E102.88133
G1 X12.34 Y1.5 E103.25272
G1 X12.34 Y0.00 E103.2753
G1 X-12.34 Y0.00 E103.64669
G1 X-12.34 Y-1.5 E103.66927
G1 X12.34 Y-1.499 E104.04066
G1 X12.34 Y-2.999 E104.06323
G1 X-12.34 Y-3 E104.43463
G1 X-12.34 Y-4.5 E104.4572
G1 X12.34 Y-4.499 E104.8286
G1 X12.34 Y-5.999 E104.85117
G1 X-12.34 Y-6 E105.22257
G1 X-12.34 Y-7.5 E105.24514
G1 X12.34 Y-7.499 E105.61653
G1 X12.34 Y-9 E105.63912
G1 X-12.34 Y-9 E106.01052
G1 X-12.34 Y-10.5 E106.03309
G1 X12.34 Y-10.5 E106.40449
G1 X12.34 Y-12 E106.42706
G1 X-12.34 Y-12 E106.79845
G0 F1200 X-12.1 Y-12
;MESH:NONMESH
G0 X-12 Y12.34
;TIME_ELAPSED:793.027267
;LAYER:16
;MESH:Box_1_testhybrid.stl
G0 X-12 Y12.34 Z3.4
;TYPE:FILL
G1 F600 X-12 Y-12.34 E107.16985
G1 X-10.5 Y-12.34 E107.19242
G1 X-10.5 Y12.34 E107.56382
G1 X-9 Y12.34 E107.58639
G1 X-9 Y-12.34 E107.95779
G1 X-7.5 Y-12.34 E107.98036
G1 X-7.5 Y12.34 E108.35176
G1 X-6 Y12.34 E108.37433
G1 X-6 Y-12.34 E108.74572
G1 X-4.5 Y-12.34 E108.7683
G1 X-4.5 Y12.34 E109.13969
G1 X-3 Y12.34 E109.16226
G1 X-3 Y-12.34 E109.53366
G1 X-1.5 Y-12.34 E109.55623
G1 X-1.5 Y12.34 E109.92763
G1 X0.00 Y12.34 E109.9502
G1 X0.00 Y-12.34 E110.3216
G1 X1.5 Y-12.34 E110.34417
G1 X1.5 Y12.34 E110.71556
G1 X3 Y12.34 E110.73814
G1 X3 Y-12.34 E111.10953
G1 X4.5 Y-12.34 E111.13211
G1 X4.5 Y12.34 E111.5035
G1 X6 Y12.34 E111.52607
G1 X6 Y-12.34 E111.89747
G1 X7.5 Y-12.34 E111.92004
G1 X7.5 Y12.34 E112.29144
G1 X9 Y12.34 E112.31401
G1 X9 Y-12.34 E112.68541
G1 X10.5 Y-12.34 E112.70798
G1 X10.5 Y12.34 E113.07937
G1 X12 Y12.34 E113.10195
G1 X12 Y-12.34 E113.47334
G0 F1200 X12 Y-12.1
;MESH:NONMESH
G0 X12.34 Y12
;TIME_ELAPSED:838.684758
;LAYER:17
;MESH:Box_1_testhybrid.stl
G0 X12.34 Y12 Z3.6
;TYPE:FILL
G1 F600 X-12.34 Y12 E113.84474
G1 X-12.34 Y10.5 E113.86731
G1 X12.34 Y10.5 E114.23871
G1 X12.34 Y9 E114.26128
G1 X-12.34 Y9 E114.63268
G1 X-12.34 Y7.499 E114.65526
G1 X12.34 Y7.5 E115.02666
G1 X12.34 Y6 E115.04923
G1 X-12.34 Y5.999 E115.42063
G1 X-12.34 Y4.499 E115.4432
G1 X12.34 Y4.5 E115.8146
G1 X12.34 Y3 E115.83717
G1 X-12.34 Y2.999 E116.20856
G1 X-12.34 Y1.499 E116.23114
G1 X12.34 Y1.5 E116.60253
G1 X12.34 Y0.00 E116.6251
G1 X-12.34 Y0.00 E116.9965
G1 X-12.34 Y-1.5 E117.01907
G1 X12.34 Y-1.499 E117.39047
G1 X12.34 Y-2.999 E117.41304
G1 X-12.34 Y-3 E117.78444
G1 X-12.34 Y-4.5 E117.80701
G1 X12.34 Y-4.499 E118.1784
G1 X12.34 Y-5.999 E118.20098
G1 X-12.34 Y-6 E118.57237
G1 X-12.34 Y-7.5 E118.59495
G1 X12.34 Y-7.499 E118.96634
G1 X12.34 Y-9 E118.98893
G1 X-12.34 Y-9 E119.36032
G1 X-12.34 Y-10.5 E119.3829
G1 X12.34 Y-10.5 E119.75429
G1 X12.34 Y-12 E119.77687
G1 X-12.34 Y-12 E120.14826
G0 F1200 X-12.1 Y-12
;MESH:NONMESH
G0 X-12 Y12.34
;TIME_ELAPSED:884.354764
;LAYER:18
;MESH:Box_1_testhybrid.stl
G0 X-12 Y12.34 Z3.8
;TYPE:FILL
G1 F600 X-12 Y-12.34 E120.51966
G1 X-10.5 Y-12.34 E120.54223
G1 X-10.5 Y12.34 E120.91363
G1 X-9 Y12.34 E120.9362
G1 X-9 Y-12.34 E121.30759
G1 X-7.5 Y-12.34 E121.33017
G1 X-7.5 Y12.34 E121.70156
G1 X-6 Y12.34 E121.72413
G1 X-6 Y-12.34 E122.09553
G1 X-4.5 Y-12.34 E122.1181
G1 X-4.5 Y12.34 E122.4895
G1 X-3 Y12.34 E122.51207
G1 X-3 Y-12.34 E122.88347
G1 X-1.5 Y-12.34 E122.90604
G1 X-1.5 Y12.34 E123.27744
G1 X0.00 Y12.34 E123.30001
G1 X0.00 Y-12.34 E123.6714
G1 X1.5 Y-12.34 E123.69398
G1 X1.5 Y12.34 E124.06537
G1 X3 Y12.34 E124.08794
G1 X3 Y-12.34 E124.45934
G1 X4.5 Y-12.34 E124.48191
G1 X4.5 Y12.34 E124.85331
G1 X6 Y12.34 E124.87588
G1 X6 Y-12.34 E125.24728
G1 X7.5 Y-12.34 E125.26985
G1 X7.5 Y12.34 E125.64124
G1 X9 Y12.34 E125.66382
G1 X9 Y-12.34 E126.03521
G1 X10.5 Y-12.34 E126.05779
G1 X10.5 Y12.34 E126.42918
G1 X12 Y12.34 E126.45175
G1 X12 Y-12.34 E126.82315
G0 F1200 X12 Y-12.1
;MESH:NONMESH
G0 X12.34 Y12
;TIME_ELAPSED:930.012254
;LAYER:19
;MESH:Box_1_testhybrid.stl
G0 X12.34 Y12 Z4
;TYPE:FILL
G1 F600 X-12.34 Y12 E127.19455
G1 X-12.34 Y10.5 E127.21712
G1 X12.34 Y10.5 E127.58851
G1 X12.34 Y9 E127.61109
G1 X-12.34 Y9 E127.98248
G1 X-12.34 Y7.499 E128.00507
G1 X12.34 Y7.5 E128.37647
G1 X12.34 Y6 E128.39904
G1 X-12.34 Y5.999 E128.77043
G1 X-12.34 Y4.499 E128.79301
G1 X12.34 Y4.5 E129.1644
G1 X12.34 Y3 E129.18697
G1 X-12.34 Y2.999 E129.55837
G1 X-12.34 Y1.499 E129.58094
G1 X12.34 Y1.5 E129.95234
G1 X12.34 Y0.00 E129.97491
G1 X-12.34 Y0.00 E130.34631
G1 X-12.34 Y-1.5 E130.36888
G1 X12.34 Y-1.499 E130.74028
G1 X12.34 Y-2.999 E130.76285
G1 X-12.34 Y-3 E131.13424
G1 X-12.34 Y-4.5 E131.15682
G1 X12.34 Y-4.499 E131.52821
G1 X12.34 Y-5.999 E131.55078
G1 X-12.34 Y-6 E131.92218
G1 X-12.34 Y-7.5 E131.94475
G1 X12.34 Y-7.499 E132.31615
G1 X12.34 Y-9 E132.33874
G1 X-12.34 Y-9 E132.71013
G1 X-12.34 Y-10.5 E132.7327
G1 X12.34 Y-10.5 E133.1041
G1 X12.34 Y-12 E133.12667
G1 X-12.34 Y-12 E133.49807
G0 F1200 X-12.1 Y-12
;MESH:NONMESH
G0 X-12 Y12.34
;TIME_ELAPSED:975.682260
;LAYER:20
;MESH:Box_1_testhybrid.stl
G0 X-12 Y12.34 Z4.2
;TYPE:FILL
G1 F600 X-12 Y-12.34 E133.86946
G1 X-10.5 Y-12.34 E133.89204
G1 X-10.5 Y12.34 E134.26343
G1 X-9 Y12.34 E134.286
G1 X-9 Y-12.34 E134.6574
G1 X-7.5 Y-12.34 E134.67997
G1 X-7.5 Y12.34 E135.05137
G1 X-6 Y12.34 E135.07394
G1 X-6 Y-12.34 E135.44534
G1 X-4.5 Y-12.34 E135.46791
G1 X-4.5 Y12.34 E135.83931
G1 X-3 Y12.34 E135.86188
G1 X-3 Y-12.34 E136.23327
G1 X-1.5 Y-12.34 E136.25585
G1 X-1.5 Y12.34 E136.62724
G1 X0.00 Y12.34 E136.64981
G1 X0.00 Y-12.34 E137.02121
G1 X1.5 Y-12.34 E137.04378
G1 X1.5 Y12.34 E137.41518
G1 X3 Y12.34 E137.43775
G1 X3 Y-12.34 E137.80915
G1 X4.5 Y-12.34 E137.83172
G1 X4.5 Y12.34 E138.20312
G1 X6 Y12.34 E138.22569
G1 X6 Y-12.34 E138.59708
G1 X7.5 Y-12.34 E138.61966
G1 X7.5 Y12.34 E138.99105
G1 X9 Y12.34 E139.01362
G1 X9 Y-12.34 E139.38502
G1 X10.5 Y-12.34 E139.40759
G1 X10.5 Y12.34 E139.77899
G1 X12 Y12.34 E139.80156
G1 X12 Y-12.34 E140.17296
G0 F1200 X12 Y-12.1
;MESH:NONMESH
G0 X12.34 Y12
;TIME_ELAPSED:1021.339751
;LAYER:21
;MESH:Box_1_testhybrid.stl
G0 X12.34 Y12 Z4.4
;TYPE:FILL
G1 F600 X-12.34 Y12 E140.54435
G1 X-12.34 Y10.5 E140.56692
G1 X12.34 Y10.5 E140.93832
G1 X12.34 Y9 E140.96089
G1 X-12.34 Y9 E141.33229
G1 X-12.34 Y7.499 E141.35488
G1 X12.34 Y7.5 E141.72627
G1 X12.34 Y6 E141.74884
G1 X-12.34 Y5.999 E142.12024
G1 X-12.34 Y4.499 E142.14281
G1 X12.34 Y4.5 E142.51421
G1 X12.34 Y3 E142.53678
G1 X-12.34 Y2.999 E142.90818
G1 X-12.34 Y1.499 E142.93075
G1 X12.34 Y1.5 E143.30215
G1 X12.34 Y0.00 E143.32472
G1 X-12.34 Y0.00 E143.69611
G1 X-12.34 Y-1.5 E143.71869
G1 X12.34 Y-1.499 E144.09008
G1 X12.34 Y-2.999 E144.11265
G1 X-12.34 Y-3 E144.48405
G1 X-12.34 Y-4.5 E144.50662
G1 X12.34 Y-4.499 E144.87802
G1 X12.34 Y-5.999 E144.90059
G1 X-12.34 Y-6 E145.27199
G1 X-12.34 Y-7.5 E145.29456
G1 X12.34 Y-7.499 E145.66596
G1 X12.34 Y-9 E145.68854
G1 X-12.34 Y-9 E146.05994
G1 X-12.34 Y-10.5 E146.08251
G1 X12.34 Y-10.5 E146.45391
G1 X12.34 Y-12 E146.47648
G1 X-12.34 Y-12 E146.84788
G0 F1200 X-12.1 Y-12
;MESH:NONMESH
G0 X-12 Y12.34
;TIME_ELAPSED:1067.009757
;LAYER:22
;MESH:Box_1_testhybrid.stl
G0 X-12 Y12.34 Z4.6
;TYPE:FILL
G1 F600 X-12 Y-12.34 E147.21927
G1 X-10.5 Y-12.34 E147.24184
G1 X-10.5 Y12.34 E147.61324
G1 X-9 Y12.34 E147.63581
G1 X-9 Y-12.34 E148.00721
G1 X-7.5 Y-12.34 E148.02978
G1 X-7.5 Y12.34 E148.40118
G1 X-6 Y12.34 E148.42375
G1 X-6 Y-12.34 E148.79514
G1 X-4.5 Y-12.34 E148.81772
G1 X-4.5 Y12.34 E149.18911
G1 X-3 Y12.34 E149.21168
G1 X-3 Y-12.34 E149.58308
G1 X-1.5 Y-12.34 E149.60565
G1 X-1.5 Y12.34 E149.97705
G1 X0.00 Y12.34 E149.99962
G1 X0.00 Y-12.34 E150.37102
G1 X1.5 Y-12.34 E150.39359
G1 X1.5 Y12.34 E150.76499
G1 X3 Y12.34 E150.78756
G1 X3 Y-12.34 E151.15895
G1 X4.5 Y-12.34 E151.18153
G1 X4.5 Y12.34 E151.55292
G1 X6 Y12.34 E151.57549
G1 X6 Y-12.34 E151.94689
G1 X7.5 Y-12.34 E151.96946
G1 X7.5 Y12.34 E152.34086
G1 X9 Y12.34 E152.36343
G1 X9 Y-12.34 E152.73483
G1 X10.5 Y-12.34 E152.7574
G1 X10.5 Y12.34 E153.1288
G1 X12 Y12.34 E153.15137
G1 X12 Y-12.34 E153.52276
G0 F1200 X12 Y-12.1
;MESH:NONMESH
G0 X12.34 Y12
;TIME_ELAPSED:1112.667247
;LAYER:23
;MESH:Box_1_testhybrid.stl
G0 X12.34 Y12 Z4.8
;TYPE:FILL
G1 F600 X-12.34 Y12 E153.89416
G1 X-12.34 Y10.5 E153.91673
G1 X12.34 Y10.5 E154.28813
G1 X12.34 Y9 E154.3107
G1 X-12.34 Y9 E154.6821
G1 X-12.34 Y7.499 E154.70468
G1 X12.34 Y7.5 E155.07608
G1 X12.34 Y6 E155.09865
G1 X-12.34 Y5.999 E155.47005
G1 X-12.34 Y4.499 E155.49262
G1 X12.34 Y4.5 E155.86402
G1 X12.34 Y3 E155.88659
G1 X-12.34 Y2.999 E156.25798
G1 X-12.34 Y1.499 E156.28056
G1 X12.34 Y1.5 E156.65195
G1 X12.34 Y0.00 E156.67452
G1 X-12.34 Y0.00 E157.04592
G1 X-12.34 Y-1.5 E157.06849
G1 X12.34 Y-1.499 E157.43989
G1 X12.34 Y-2.999 E157.46246
G1 X-12.34 Y-3 E157.83386
G1 X-12.34 Y-4.5 E157.85643
G1 X12.34 Y-4.499 E158.22783
G1 X12.34 Y-5.999 E158.2504
G1 X-12.34 Y-6 E158.62179
G1 X-12.34 Y-7.5 E158.64437
G1 X12.34 Y-7.499 E159.01576
G1 X12.34 Y-9 E159.03835
G1 X-12.34 Y-9 E159.40975
G1 X-12.34 Y-10.5 E159.43232
G1 X12.34 Y-10.5 E159.80371
G1 X12.34 Y-12 E159.82629
G1 X-12.34 Y-12 E160.19768
G0 F1200 X-12.1 Y-12
;MESH:NONMESH
G0 X-12 Y12.34
;TIME_ELAPSED:1158.337253
;LAYER:24
;MESH:Box_1_testhybrid.stl
G0 X-12 Y12.34 Z5
;TYPE:FILL
G1 F600 X-12 Y-12.34 E160.56908
G1 X-10.5 Y-12.34 E160.59165
G1 X-10.5 Y12.34 E160.96305
G1 X-9 Y12.34 E160.98562
G1 X-9 Y-12.34 E161.35701
G1 X-7.5 Y-12.34 E161.37959
G1 X-7.5 Y12.34 E161.75098
G1 X-6 Y12.34 E161.77356
G1 X-6 Y-12.34 E162.14495
G1 X-4.5 Y-12.34 E162.16752
G1 X-4.5 Y12.34 E162.53892
G1 X-3 Y12.34 E162.56149
G1 X-3 Y-12.34 E162.93289
G1 X-1.5 Y-12.34 E162.95546
G1 X-1.5 Y12.34 E163.32686
G1 X0.00 Y12.34 E163.34943
G1 X0.00 Y-12.34 E163.72082
G1 X1.5 Y-12.34 E163.7434
G1 X1.5 Y12.34 E164.11479
G1 X3 Y12.34 E164.13736
G1 X3 Y-12.34 E164.50876
G1 X4.5 Y-12.34 E164.53133
G1 X4.5 Y12.34 E164.90273
G1 X6 Y12.34 E164.9253
G1 X6 Y-12.34 E165.2967
G1 X7.5 Y-12.34 E165.31927
G1 X7.5 Y12.34 E165.69067
G1 X9 Y12.34 E165.71324
G1 X9 Y-12.34 E166.08463
G1 X10.5 Y-12.34 E166.10721
G1 X10.5 Y12.34 E166.4786
G1 X12 Y12.34 E166.50117
G1 X12 Y-12.34 E166.87257
G0 F1200 X12 Y-12.1
;TIME_ELAPSED:1202.789624
M140 S0
M107
M104 S0 ;extruder heater off
M140 S0 ;heated bed heater off (if you have it)
G91 ;relative positioning
G1 E-1 F300  ;retract the filament a bit before lifting the nozzle, to release some of the pressure
G1 Z+0.5 E-5 X-20 Y-20 F9000 ;move Z up a bit and retract filament even more
G28 X0 Y0 ;move X/Y to min endstops, so the head is out of the way
M84 ;steppers off
G90 ;absolute positioning
M82 ;absolute extrusion mode
M104 S0
;End of Gcode
;SETTING_3 {"global_quality": "[general]\\nversion = 4\\nname = Jiannan-syringe\
;SETTING_3 \ndefinition = fdmprinter\\n\\n[metadata]\\nsetting_version = 5\\ntyp
;SETTING_3 e = quality_changes\\nquality_type = verydraft\\n\\n[values]\\nadhesi
;SETTING_3 on_type = none\\nlayer_height = 0.2\\nlayer_height_0 = 0.2\\nmaterial
;SETTING_3 _bed_temperature = 0\\nsupport_enable = False\\n\\n", "extruder_quali
;SETTING_3 ty": ["[general]\\nversion = 4\\nname = Jiannan-syringe\\ndefinition 
;SETTING_3 = fdmprinter\\n\\n[metadata]\\nsetting_version = 5\\nposition = 0\\nt
;SETTING_3 ype = quality_changes\\nquality_type = verydraft\\n\\n[values]\\nbrim
;SETTING_3 _width = 0\\ninfill_angles = [0,90]\\ninfill_line_distance = 1.5\\nin
;SETTING_3 fill_pattern = zigzag\\ninfill_sparse_density = 70\\nmaterial_flow = 
;SETTING_3 120\\nmaterial_print_temperature = 200\\nretraction_enable = False\\n
;SETTING_3 skirt_line_count = 2\\nspeed_print = 10\\nspeed_travel = 20\\ntop_bot
;SETTING_3 tom_thickness = 0.0\\nwall_thickness = 0.0\\n\\n"]}
