;FLAVOR:Marlin
;TIME:75
;Filament used: 0.0177515m
;Layer height: 0.8
;Generated with Cura_SteamEngine 3.6.0
M104 S200
M105
M109 S200
M82 ;absolute extrusion mode
G21 ;metric values
G90 ;absolute positioning
M82 ;set extruder to absolute mode
M107 ;start with the fan off
G28 ;move XYZ to min endstops
G1 Z15.0 F9000 ;move the platform down 15mm
G1 F9000
;Put printing message on LCD screen
M117 Printing...
G92 E0
G1 F1500 E-6.5
;LAYER_COUNT:8
;LAYER:0
M107
G0 F600 X0.591 Y-7.626 Z0.2
;TYPE:SKIRT
G1 F1500 E0
G1 F450 X1.234 Y-7.581 E0.0097
G1 X1.866 Y-7.457 E0.01939
G1 X2.454 Y-7.266 E0.0287
G1 X3.141 Y-6.996 E0.0398
G1 X3.725 Y-6.723 E0.0495
G1 X4.453 Y-6.244 E0.06262
G1 X5.024 Y-5.795 E0.07355
G1 X5.505 Y-5.365 E0.08326
G1 X5.955 Y-4.847 E0.09358
G1 X6.289 Y-4.406 E0.10191
G1 X6.646 Y-3.868 E0.11163
G1 X6.933 Y-3.291 E0.12132
G1 X7.058 Y-2.965 E0.12658
G1 X7.382 Y-2.028 E0.1415
G1 X7.555 Y-1.407 E0.1512
G1 X7.662 Y-.579 E0.16376
G1 X7.682 Y-.164 E0.17001
G1 X7.673 Y0.48 E0.17971
G1 X7.609 Y0.99 E0.18744
G1 X7.49 Y1.664 E0.19774
G1 X7.339 Y2.291 E0.20745
G1 X7.124 Y2.865 E0.21667
G1 X6.904 Y3.362 E0.22485
G1 X6.607 Y3.934 E0.23455
G1 X6.038 Y4.709 E0.24902
G1 X5.389 Y5.44 E0.26373
G1 X4.932 Y5.895 E0.27343
G1 X4.253 Y6.4 E0.28616
G1 X3.886 Y6.629 E0.29267
G1 X3.319 Y6.935 E0.30237
G1 X2.823 Y7.135 E0.31042
G1 X2.174 Y7.358 E0.32074
G1 X1.552 Y7.529 E0.33045
G1 X0.819 Y7.629 E0.34159
G1 X0.168 Y7.671 E0.3514
G1 X-.477 Y7.673 E0.36111
G1 X-1.367 Y7.542 E0.37465
G1 X-2.172 Y7.351 E0.3871
G1 X-2.789 Y7.163 E0.3968
G1 X-3.648 Y6.749 E0.41115
G1 X-4.251 Y6.387 E0.42174
G1 X-4.783 Y6.022 E0.43144
G1 X-5.264 Y5.594 E0.44113
G1 X-5.587 Y5.237 E0.44838
G1 X-6.207 Y4.485 E0.46305
G1 X-6.586 Y3.963 E0.47275
G1 X-6.897 Y3.398 E0.48246
G1 X-7.079 Y2.961 E0.48958
G1 X-7.315 Y2.315 E0.49993
G1 X-7.499 Y1.697 E0.50963
G1 X-7.609 Y1.012 E0.52007
G1 X-7.667 Y0.388 E0.52951
G1 X-7.686 Y-.256 E0.5392
G1 X-7.626 Y-.898 E0.5489
G1 X-7.522 Y-1.401 E0.55663
G1 X-7.254 Y-2.432 E0.57266
G1 X-7.053 Y-3.045 E0.58237
G1 X-6.778 Y-3.628 E0.59207
G1 X-6.309 Y-4.338 E0.60488
G1 X-5.706 Y-5.105 E0.61956
G1 X-5.277 Y-5.586 E0.62926
G1 X-4.633 Y-6.128 E0.64193
G1 X-4.276 Y-6.382 E0.64852
G1 X-3.728 Y-6.722 E0.65822
G1 X-3.164 Y-6.984 E0.66758
G1 X-2.429 Y-7.273 E0.67947
G1 X-1.815 Y-7.472 E0.68918
G1 X-1.182 Y-7.592 E0.69887
G1 X-.487 Y-7.634 E0.70935
G1 X0.591 Y-7.626 E0.72558
G0 F600 X0.588 Y-7.226
G1 F450 X1.205 Y-7.181 E0.73488
G1 X1.812 Y-7.058 E0.7442
G1 X2.308 Y-6.893 E0.75207
G1 X2.995 Y-6.623 E0.76318
G1 X3.555 Y-6.36 E0.77249
G1 X4.206 Y-5.929 E0.78424
G1 X4.777 Y-5.48 E0.79517
G1 X5.238 Y-5.067 E0.80448
G1 X5.636 Y-4.605 E0.81366
G1 X5.97 Y-4.164 E0.82198
G1 X6.312 Y-3.647 E0.83131
G1 X6.68 Y-2.835 E0.84473
G1 X7.004 Y-1.898 E0.85965
G1 X7.169 Y-1.3 E0.86898
G1 X7.262 Y-.56 E0.88021
G1 X7.282 Y-.145 E0.88646
G1 X7.272 Y0.474 E0.89578
G1 X7.215 Y0.921 E0.90256
G1 X7.096 Y1.595 E0.91286
G1 X6.949 Y2.196 E0.92217
G1 X6.758 Y2.703 E0.93032
G1 X6.538 Y3.2 E0.9385
G1 X6.251 Y3.749 E0.94782
G1 X5.738 Y4.444 E0.96082
G1 X5.089 Y5.175 E0.97553
G1 X4.649 Y5.61 E0.98484
G1 X4.041 Y6.06 E0.99622
G1 X3.674 Y6.289 E1.00273
G1 X3.128 Y6.583 E1.01207
G1 X2.693 Y6.756 E1.01911
G1 X2.044 Y6.979 E1.02944
G1 X1.446 Y7.143 E1.03877
G1 X0.793 Y7.23 E1.04868
G1 X0.142 Y7.272 E1.0585
G1 X-.477 Y7.272 E1.06781
G1 X-1.275 Y7.152 E1.07996
G1 X-2.08 Y6.961 E1.09241
G1 X-2.672 Y6.78 E1.10172
G1 X-3.443 Y6.406 E1.11462
G1 X-4.046 Y6.044 E1.1252
G1 X-4.555 Y5.692 E1.13452
G1 X-5.015 Y5.277 E1.14384
G1 X-5.279 Y4.982 E1.1498
G1 X-5.899 Y4.23 E1.16446
G1 X-6.261 Y3.728 E1.17378
G1 X-6.556 Y3.183 E1.1831
G1 X-6.704 Y2.824 E1.18895
G1 X-6.94 Y2.178 E1.1993
G1 X-7.114 Y1.584 E1.20861
G1 X-7.21 Y0.975 E1.21789
G1 X-7.268 Y0.351 E1.22732
G1 X-7.286 Y-.268 E1.23664
G1 X-7.223 Y-.884 E1.24596
G1 X-7.135 Y-1.301 E1.25237
G1 X-6.867 Y-2.332 E1.2684
G1 X-6.672 Y-2.92 E1.27772
G1 X-6.404 Y-3.478 E1.28704
G1 X-5.994 Y-4.091 E1.29814
G1 X-5.391 Y-4.858 E1.31282
G1 X-4.978 Y-5.319 E1.32213
G1 X-4.401 Y-5.802 E1.33346
G1 X-4.044 Y-6.056 E1.34005
G1 X-3.517 Y-6.382 E1.34937
G1 X-3.017 Y-6.612 E1.35766
G1 X-2.282 Y-6.901 E1.36954
G1 X-1.693 Y-7.09 E1.37885
G1 X-1.083 Y-7.202 E1.38818
G1 X-.49 Y-7.234 E1.39712
G1 X0.588 Y-7.226 E1.41334
G0 F600 X0.585 Y-6.826
G1 F450 X1.176 Y-6.782 E1.42226
G1 X1.756 Y-6.658 E1.43119
G1 X2.161 Y-6.521 E1.43762
G1 X2.848 Y-6.251 E1.44873
G1 X3.384 Y-5.998 E1.45765
G1 X3.959 Y-5.615 E1.46804
G1 X4.53 Y-5.166 E1.47897
G1 X4.97 Y-4.769 E1.48789
G1 X5.318 Y-4.364 E1.49593
G1 X5.652 Y-3.923 E1.50425
G1 X5.977 Y-3.427 E1.51318
G1 X6.302 Y-2.704 E1.52511
G1 X6.626 Y-1.767 E1.54002
G1 X6.782 Y-1.195 E1.54895
G1 X6.863 Y-.541 E1.55886
G1 X6.883 Y-.126 E1.56512
G1 X6.871 Y0.467 E1.57404
G1 X6.821 Y0.851 E1.57987
G1 X6.702 Y1.525 E1.59017
G1 X6.56 Y2.101 E1.5991
G1 X6.392 Y2.541 E1.60618
G1 X6.172 Y3.038 E1.61436
G1 X5.896 Y3.563 E1.62329
G1 X5.439 Y4.178 E1.63482
G1 X4.79 Y4.909 E1.64953
G1 X4.368 Y5.325 E1.65845
G1 X3.829 Y5.721 E1.66851
G1 X3.462 Y5.95 E1.67502
G1 X2.939 Y6.229 E1.68394
G1 X2.563 Y6.378 E1.69003
G1 X1.914 Y6.601 E1.70035
G1 X1.341 Y6.756 E1.70929
G1 X0.767 Y6.831 E1.718
G1 X0.116 Y6.873 E1.72781
G1 X-.477 Y6.871 E1.73674
G1 X-1.183 Y6.763 E1.74749
G1 X-1.988 Y6.572 E1.75994
G1 X-2.554 Y6.397 E1.76885
G1 X-3.237 Y6.063 E1.78029
G1 X-3.84 Y5.701 E1.79088
G1 X-4.326 Y5.363 E1.79979
G1 X-4.763 Y4.962 E1.80871
G1 X-4.97 Y4.728 E1.81341
G1 X-5.59 Y3.976 E1.82808
G1 X-5.935 Y3.494 E1.837
G1 X-6.213 Y2.97 E1.84592
G1 X-6.328 Y2.687 E1.85052
G1 X-6.564 Y2.041 E1.86087
G1 X-6.729 Y1.471 E1.8698
G1 X-6.812 Y0.938 E1.87792
G1 X-6.87 Y0.314 E1.88735
G1 X-6.885 Y-.279 E1.89628
G1 X-6.82 Y-.868 E1.90519
G1 X-6.747 Y-1.2 E1.91031
G1 X-6.479 Y-2.231 E1.92634
G1 X-6.292 Y-2.793 E1.93525
G1 X-6.031 Y-3.326 E1.94418
G1 X-5.68 Y-3.843 E1.95359
G1 X-5.077 Y-4.61 E1.96827
G1 X-4.68 Y-5.051 E1.9772
G1 X-4.169 Y-5.476 E1.9872
G1 X-3.812 Y-5.73 E1.99379
G1 X-3.307 Y-6.041 E2.00272
G1 X-2.871 Y-6.24 E2.00993
G1 X-2.136 Y-6.529 E2.02182
G1 X-1.571 Y-6.708 E2.03073
G1 X-.987 Y-6.81 E2.03966
G1 X-.493 Y-6.834 E2.0471
G1 X0.585 Y-6.826 E2.06332
G0 F600 X0.582 Y-6.426
G1 F450 X1.145 Y-6.382 E2.07182
G1 X1.697 Y-6.259 E2.08033
G1 X2.015 Y-6.149 E2.08539
G1 X2.702 Y-5.879 E2.0965
G1 X3.212 Y-5.635 E2.10501
G1 X3.712 Y-5.3 E2.11407
G1 X4.283 Y-4.851 E2.125
G1 X4.701 Y-4.471 E2.1335
G1 X4.999 Y-4.122 E2.1404
G1 X5.333 Y-3.681 E2.14873
G1 X5.641 Y-3.207 E2.15724
G1 X5.924 Y-2.573 E2.16768
G1 X6.248 Y-1.636 E2.1826
G1 X6.395 Y-1.09 E2.19111
G1 X6.463 Y-.522 E2.19972
G1 X6.483 Y-.107 E2.20597
G1 X6.471 Y0.459 E2.21449
G1 X6.427 Y0.781 E2.21938
G1 X6.308 Y1.455 E2.22968
G1 X6.171 Y2.004 E2.2382
G1 X6.027 Y2.379 E2.24424
G1 X5.807 Y2.876 E2.25242
G1 X5.542 Y3.376 E2.26094
G1 X5.14 Y3.913 E2.27103
G1 X4.491 Y4.644 E2.28574
G1 X4.087 Y5.039 E2.29424
G1 X3.618 Y5.382 E2.30299
G1 X3.251 Y5.611 E2.3095
G1 X2.751 Y5.875 E2.31801
G1 X2.433 Y6 E2.32315
G1 X1.784 Y6.223 E2.33348
G1 X1.238 Y6.368 E2.34198
G1 X0.742 Y6.432 E2.3495
G1 X0.091 Y6.474 E2.35932
G1 X-.475 Y6.47 E2.36784
G1 X-1.09 Y6.374 E2.3772
G1 X-1.895 Y6.183 E2.38965
G1 X-2.435 Y6.014 E2.39817
G1 X-3.031 Y5.72 E2.40817
G1 X-3.634 Y5.358 E2.41875
G1 X-4.097 Y5.034 E2.42726
G1 X-4.661 Y4.474 E2.43922
G1 X-5.281 Y3.722 E2.45388
G1 X-5.609 Y3.261 E2.4624
G1 X-5.952 Y2.55 E2.47428
G1 X-6.188 Y1.904 E2.48463
G1 X-6.344 Y1.36 E2.49314
G1 X-6.414 Y0.901 E2.50013
G1 X-6.472 Y0.277 E2.50956
G1 X-6.484 Y-.288 E2.51807
G1 X-6.36 Y-1.099 E2.53041
G1 X-6.092 Y-2.13 E2.54644
G1 X-5.912 Y-2.666 E2.55495
G1 X-5.658 Y-3.171 E2.56346
G1 X-5.366 Y-3.596 E2.57122
G1 X-4.763 Y-4.363 E2.5859
G1 X-4.383 Y-4.782 E2.59441
G1 X-3.937 Y-5.15 E2.60311
G1 X-3.58 Y-5.404 E2.60971
G1 X-3.097 Y-5.699 E2.61822
G1 X-2.725 Y-5.868 E2.62437
G1 X-1.99 Y-6.157 E2.63626
G1 X-1.45 Y-6.326 E2.64477
G1 X-.892 Y-6.417 E2.65328
G1 X-.496 Y-6.434 E2.65924
G1 X0.582 Y-6.426 E2.67547
G0 F600 X0.579 Y-6.026
G1 F450 X1.113 Y-5.982 E2.68353
G1 X1.869 Y-5.777 E2.69532
G1 X2.556 Y-5.507 E2.70643
G1 X3.039 Y-5.274 E2.7145
G1 X3.464 Y-4.986 E2.72222
G1 X4.035 Y-4.537 E2.73315
G1 X4.431 Y-4.175 E2.74123
G1 X4.68 Y-3.881 E2.74702
G1 X5.014 Y-3.44 E2.75535
G1 X5.305 Y-2.989 E2.76343
G1 X5.546 Y-2.442 E2.77242
G1 X5.87 Y-1.505 E2.78734
G1 X6.007 Y-.987 E2.7954
G1 X6.064 Y-.502 E2.80275
G1 X6.084 Y-0.087 E2.809
G1 X6.033 Y0.712 E2.82105
G1 X5.914 Y1.386 E2.83135
G1 X5.782 Y1.906 E2.83943
G1 X5.661 Y2.217 E2.84445
G1 X5.441 Y2.714 E2.85263
G1 X5.188 Y3.187 E2.8607
G1 X4.841 Y3.647 E2.86937
G1 X4.192 Y4.378 E2.88408
G1 X3.807 Y4.752 E2.89216
G1 X3.406 Y5.042 E2.8996
G1 X3.039 Y5.271 E2.90611
G1 X2.564 Y5.52 E2.91418
G1 X2.303 Y5.622 E2.9184
G1 X1.654 Y5.845 E2.92873
G1 X1.135 Y5.981 E2.9368
G1 X0.716 Y6.033 E2.94316
G1 X0.065 Y6.075 E2.95297
G1 X-.471 Y6.069 E2.96104
G1 X-.998 Y5.985 E2.96907
G1 X-1.803 Y5.794 E2.98152
G1 X-2.314 Y5.631 E2.98959
G1 X-2.825 Y5.378 E2.99817
G1 X-3.428 Y5.016 E3.00876
G1 X-3.866 Y4.706 E3.01683
G1 X-4.353 Y4.219 E3.0272
G1 X-4.973 Y3.467 E3.04186
G1 X-5.282 Y3.029 E3.04993
G1 X-5.576 Y2.412 E3.06021
G1 X-5.812 Y1.766 E3.07056
G1 X-5.958 Y1.25 E3.07863
G1 X-6.016 Y0.864 E3.08451
G1 X-6.074 Y0.24 E3.09394
G1 X-6.083 Y-.296 E3.10201
G1 X-5.973 Y-.999 E3.11271
G1 X-5.705 Y-2.03 E3.12874
G1 X-5.532 Y-2.537 E3.13681
G1 X-5.285 Y-3.013 E3.14488
G1 X-5.051 Y-3.349 E3.15104
G1 X-4.448 Y-4.116 E3.16572
G1 X-4.086 Y-4.512 E3.17379
G1 X-3.705 Y-4.824 E3.1812
G1 X-3.348 Y-5.078 E3.1878
G1 X-2.889 Y-5.356 E3.19587
G1 X-2.578 Y-5.495 E3.201
G1 X-1.843 Y-5.784 E3.21288
G1 X-1.331 Y-5.943 E3.22095
G1 X-.801 Y-6.023 E3.22902
G1 X-.499 Y-6.034 E3.23356
G1 X0.579 Y-6.026 E3.24979
G0 F600 X0.576 Y-5.626
G1 F450 X1.079 Y-5.582 E3.25739
G1 X1.722 Y-5.404 E3.26743
G1 X2.409 Y-5.134 E3.27853
G1 X2.864 Y-4.913 E3.28615
G1 X3.217 Y-4.671 E3.29259
G1 X3.788 Y-4.222 E3.30352
G1 X4.159 Y-3.88 E3.31111
G1 X4.361 Y-3.639 E3.31584
G1 X4.695 Y-3.198 E3.32417
G1 X4.967 Y-2.772 E3.33177
G1 X5.168 Y-2.312 E3.33933
G1 X5.492 Y-1.375 E3.35425
G1 X5.619 Y-.885 E3.36186
G1 X5.664 Y-.483 E3.36795
G1 X5.684 Y-0.068 E3.3742
G1 X5.639 Y0.642 E3.38491
G1 X5.52 Y1.316 E3.39521
G1 X5.393 Y1.806 E3.40283
G1 X5.295 Y2.055 E3.40685
G1 X5.075 Y2.552 E3.41503
G1 X4.835 Y2.997 E3.42264
G1 X4.542 Y3.382 E3.42992
G1 X3.893 Y4.113 E3.44463
G1 X3.529 Y4.463 E3.45223
G1 X3.194 Y4.703 E3.45843
G1 X2.827 Y4.932 E3.46494
G1 X2.173 Y5.243 E3.47584
G1 X1.524 Y5.466 E3.48617
G1 X1.034 Y5.592 E3.49378
G1 X0.69 Y5.633 E3.49899
G1 X0.039 Y5.675 E3.50881
G1 X-.466 Y5.668 E3.51641
G1 X-.906 Y5.596 E3.52312
G1 X-1.711 Y5.405 E3.53557
G1 X-2.192 Y5.249 E3.54318
G1 X-2.619 Y5.035 E3.55037
G1 X-3.222 Y4.673 E3.56095
G1 X-3.634 Y4.379 E3.56857
G1 X-4.044 Y3.965 E3.57734
G1 X-4.664 Y3.213 E3.592
G1 X-4.954 Y2.798 E3.59962
G1 X-5.201 Y2.275 E3.60833
G1 X-5.437 Y1.629 E3.61868
G1 X-5.572 Y1.142 E3.62628
G1 X-5.617 Y0.827 E3.63107
G1 X-5.675 Y0.203 E3.6405
G1 X-5.682 Y-.302 E3.6481
G1 X-5.586 Y-.898 E3.65718
G1 X-5.318 Y-1.929 E3.67321
G1 X-5.153 Y-2.407 E3.68082
G1 X-4.914 Y-2.853 E3.68844
G1 X-4.737 Y-3.102 E3.69304
G1 X-4.134 Y-3.869 E3.70772
G1 X-3.791 Y-4.24 E3.71532
G1 X-3.473 Y-4.498 E3.72148
G1 X-3.116 Y-4.752 E3.72808
G1 X-2.682 Y-5.012 E3.73569
G1 X-2.432 Y-5.123 E3.73981
G1 X-1.697 Y-5.412 E3.75169
G1 X-1.213 Y-5.559 E3.7593
G1 X-.502 Y-5.634 E3.77006
G1 X0.576 Y-5.626 E3.78629
G1 F1500 E-2.71371
;MESH:CylinderComplement.stl
G0 F600 X0.369 Y-3.138
G0 X0.29 Y-2.464
G0 X-0.002 Y-2.4
G0 X0.00 Y-2.539
;TYPE:FILL
G1 F1500 E3.78629
G1 F450 X0.00 Y2.54 E3.86272
G1 X0.00 Y2.64
G0 F600 X-0.003 Y2.399
G0 X-1.042 Y2.161
G0 X-1.103 Y2.286
G1 F450 X1.104 Y2.286 E3.89593
G0 F600 X1.143 Y2.268
G1 F450 X1.143 Y-2.266 E3.96416
G0 F600 X1.104 Y-2.286
G1 F450 X-1.1 Y-2.286 E3.99732
G0 F600 X-1.143 Y-2.267
G1 F450 X-1.143 Y2.266 E4.06554
G1 X-1.143 Y2.366
G0 F600 X-1.043 Y2.16
G0 X-2.142 Y1.081
G0 X-2.268 Y1.142
G1 F450 X2.267 Y1.143 E4.13378
G0 F600 X2.286 Y1.106
G1 F450 X2.286 Y-1.105 E4.16706
G0 F600 X2.269 Y-1.142
G1 F450 X-2.267 Y-1.143 E4.23532
G0 F600 X-2.286 Y-1.108
G1 F450 X-2.286 Y1.105 E4.26862
G1 X-2.286 Y1.205
G0 F600 X-2.121 Y1.125
G0 X-2.399 Y0.00
G0 X-2.539 Y0.00
G1 F450 X2.539 Y0.00 E4.34503
G1 X2.639 Y0.00
G0 F600 X2.099 Y0.003
;MESH:NONMESH
G0 X-1.035 Y2.164
G0 X-1.094 Y2.286
;TIME_ELAPSED:48.727483
;LAYER:1
M106 S255
;MESH:CylinderComplement.stl
G0 F900 X-1.094 Y2.286 Z1
;TYPE:FILL
G1 F600 X1.102 Y2.286 E4.47722
G0 F900 X1.142 Y2.266
G1 F600 X1.143 Y-2.265 E4.74996
G0 F900 X1.103 Y-2.286
G1 F600 X-1.103 Y-2.286 E4.88274
G0 F900 X-1.142 Y-2.268
G1 F600 X-1.143 Y2.263 E5.15548
G1 X-1.143 Y2.363
G0 F900 X-1.05 Y2.154
G0 X0.00 Y2.398
G0 X0.00 Y2.539
G1 F600 X0.00 Y-2.539 E5.46115
G1 X0.00 Y-2.639
G0 F900 X-0.006 Y-2.4
G0 X-2.142 Y-1.08
G0 X-2.266 Y-1.143
G1 F600 X2.269 Y-1.142 E5.73413
G0 F900 X2.286 Y-1.107
G1 F600 X2.286 Y1.101 E5.86703
G0 F900 X2.267 Y1.143
G1 F600 X-2.267 Y1.142 E6.13995
G0 F900 X-2.286 Y1.103
G1 F600 X-2.286 Y-1.105 E6.27286
G1 X-2.286 Y-1.205
G0 F900 X-2.121 Y-1.121
G0 X-2.399 Y0.001
G0 X-2.538 Y0.00
G1 F600 X2.54 Y0.00 E6.57852
G1 X2.64 Y0.00
G0 F900 X2.099 Y0.012
;MESH:NONMESH
G0 X2.534 Y0.00
;TIME_ELAPSED:53.156972
;LAYER:2
;MESH:CylinderComplement.stl
G0 F1200 X2.534 Y0.00 Z1.8
;TYPE:FILL
G1 F600 X-2.539 Y0.00 E6.88389
G1 X-2.639 Y0.00
G0 F1200 X-2.4 Y0.004
G0 X-2.16 Y1.043
G0 X-2.286 Y1.103
G1 F600 X-2.286 Y-1.107 E7.01692
G0 F1200 X-2.264 Y-1.143
G1 F600 X2.267 Y-1.142 E7.28965
G0 F1200 X2.286 Y-1.105
G1 F600 X2.286 Y1.105 E7.42268
G0 F1200 X2.267 Y1.143
G1 F600 X-2.268 Y1.142 E7.69566
G1 X-2.368 Y1.142
G0 F1200 X-2.16 Y1.043
G0 X-1.08 Y2.142
G0 X-1.143 Y2.266
G1 F600 X-1.143 Y-2.269 E7.96864
G0 F1200 X-1.106 Y-2.286
G1 F600 X1.104 Y-2.286 E8.10167
G0 F1200 X1.143 Y-2.267
G1 F600 X1.143 Y2.267 E8.37459
G0 F1200 X1.102 Y2.286
G1 F600 X-1.104 Y2.286 E8.50737
G1 X-1.204 Y2.286
G0 F1200 X-1.122 Y2.121
G0 X0.001 Y2.399
G0 X0.00 Y2.538
G1 F600 X0.00 Y-2.54 E8.81304
G1 X0.00 Y-2.64
G0 F1200 X0.004 Y-2.099
;MESH:NONMESH
G0 X-1.032 Y2.166
G0 X-1.092 Y2.286
;TIME_ELAPSED:57.634637
;LAYER:3
;MESH:CylinderComplement.stl
G0 X-1.092 Y2.286 Z2.6
;TYPE:FILL
G1 F600 X1.102 Y2.286 E8.9451
G0 F1200 X1.142 Y2.267
G1 F600 X1.143 Y-2.265 E9.2179
G0 F1200 X1.101 Y-2.286
G1 F600 X-1.106 Y-2.286 E9.35075
G0 F1200 X-1.142 Y-2.268
G1 F600 X-1.143 Y2.261 E9.62337
G1 X-1.143 Y2.361
G0 F1200 X-1.046 Y2.155
G0 X0.002 Y2.4
G0 X0.00 Y2.539
G1 F600 X0.00 Y-2.54 E9.92909
G1 X0.00 Y-2.64
G0 F1200 X0.005 Y-2.399
G0 X-2.145 Y-1.076
G0 X-2.267 Y-1.143
G1 F600 X2.268 Y-1.142 E10.20207
G0 F1200 X2.286 Y-1.106
G1 F600 X2.286 Y1.108 E10.33534
G0 F1200 X2.268 Y1.143
G1 F600 X-2.268 Y1.142 E10.60838
G0 F1200 X-2.286 Y1.104
G1 F600 X-2.286 Y-1.105 E10.74135
G1 X-2.286 Y-1.205
G0 F1200 X-2.123 Y-1.117
G0 X-2.4 Y0.005
G0 X-2.539 Y0.00
G1 F600 X2.539 Y0.00 E11.04701
G1 X2.639 Y0.00
G0 F1200 X2.099 Y0.00
;MESH:NONMESH
G0 X1.04 Y2.161
G0 X1.099 Y2.286
;TIME_ELAPSED:62.061972
;LAYER:4
;MESH:CylinderComplement.stl
G0 X1.099 Y2.286 Z3.4
;TYPE:FILL
G1 F600 X-1.105 Y2.286 E11.17968
G0 F1200 X-1.143 Y2.266
G1 F600 X-1.143 Y-2.268 E11.4526
G0 F1200 X-1.105 Y-2.286
G1 F600 X1.104 Y-2.286 E11.58556
G0 F1200 X1.143 Y-2.267
G1 F600 X1.143 Y2.266 E11.85842
G1 X1.143 Y2.366
G0 F1200 X1.044 Y2.158
G0 X0.00 Y2.398
G0 X0.00 Y2.539
G1 F600 X0.00 Y-2.54 E12.16415
G1 X0.00 Y-2.64
G0 F1200 X0.007 Y-2.399
G0 X2.142 Y-1.079
G0 X2.267 Y-1.142
G1 F600 X-2.268 Y-1.143 E12.43712
G0 F1200 X-2.286 Y-1.109
G1 F600 X-2.286 Y1.104 E12.57033
G0 F1200 X-2.268 Y1.142
G1 F600 X2.268 Y1.143 E12.84337
G0 F1200 X2.286 Y1.108
G1 F600 X2.286 Y-1.105 E12.97658
G1 X2.286 Y-1.205
G0 F1200 X2.12 Y-1.122
G0 X2.398 Y0.001
G0 X2.539 Y0.00
G1 F600 X-2.538 Y0.00 E13.28219
G1 X-2.638 Y0.00
G0 F1200 X-2.098 Y0.007
;MESH:NONMESH
G0 X-1.043 Y-2.161
G0 X-1.097 Y-2.286
;TIME_ELAPSED:66.490616
;LAYER:5
;MESH:CylinderComplement.stl
G0 X-1.097 Y-2.286 Z4.2
;TYPE:FILL
G1 F600 X1.105 Y-2.286 E13.41473
G0 F1200 X1.143 Y-2.267
G1 F600 X1.142 Y2.267 E13.68765
G0 F1200 X1.101 Y2.286
G1 F600 X-1.105 Y2.286 E13.82044
G0 F1200 X-1.143 Y2.266
G1 F600 X-1.142 Y-2.267 E14.0933
G1 X-1.142 Y-2.367
G0 F1200 X-1.053 Y-2.154
G0 X-0.005 Y-2.4
G0 X0.00 Y-2.539
G1 F600 X0.00 Y2.536 E14.39878
G1 X0.00 Y2.636
G0 F1200 X-0.01 Y2.396
G0 X2.142 Y1.084
G0 X2.266 Y1.143
G1 F600 X-2.267 Y1.142 E14.67164
G0 F1200 X-2.286 Y1.102
G1 F600 X-2.286 Y-1.108 E14.80467
G0 F1200 X-2.267 Y-1.143
G1 F600 X2.268 Y-1.142 E15.07765
G0 F1200 X2.286 Y-1.105
G1 F600 X2.286 Y1.104 E15.21061
G1 X2.286 Y1.204
G0 F1200 X2.127 Y1.113
G0 X2.399 Y0.003
G0 X2.54 Y0.00
G1 F600 X-2.538 Y0.00 E15.51628
G1 X-2.638 Y0.00
G0 F1200 X-2.099 Y0.003
;MESH:NONMESH
G0 X-2.14 Y1.083
G0 X-2.266 Y1.142
;TIME_ELAPSED:70.851601
;LAYER:6
;MESH:CylinderComplement.stl
G0 X-2.266 Y1.142 Z5
;TYPE:FILL
G1 F600 X2.268 Y1.143 E15.7892
G0 F1200 X2.286 Y1.107
G1 F600 X2.286 Y-1.106 E15.9224
G0 F1200 X2.268 Y-1.142
G1 F600 X-2.267 Y-1.143 E16.19538
G0 F1200 X-2.286 Y-1.108
G1 F600 X-2.286 Y1.102 E16.32841
G1 X-2.286 Y1.202
G0 F1200 X-2.121 Y1.122
G0 X-2.399 Y0.00
G0 X-2.539 Y0.00
G1 F600 X2.54 Y0.00 E16.63414
G1 X2.64 Y0.00
G0 F1200 X2.4 Y0.012
G0 X1.077 Y-2.145
G0 X1.143 Y-2.267
G1 F600 X1.143 Y2.267 E16.90705
G0 F1200 X1.103 Y2.286
G1 F600 X-1.104 Y2.286 E17.0399
G0 F1200 X-1.143 Y2.267
G1 F600 X-1.143 Y-2.268 E17.31288
G0 F1200 X-1.102 Y-2.286
G1 F600 X1.106 Y-2.286 E17.44579
G1 X1.206 Y-2.286
G0 F1200 X1.119 Y-2.123
G0 X-0.002 Y-2.4
G0 X0.00 Y-2.539
G1 F600 X0.00 Y2.54 E17.75151
G1 X0.00 Y2.64
G0 F1200 X-0.009 Y2.099
;TIME_ELAPSED:75.155755
G1 F1500 E11.25151
M140 S0
M107
M104 S0 ;extruder heater off
M140 S0 ;heated bed heater off (if you have it)
G91 ;relative positioning
G1 E-1 F300  ;retract the filament a bit before lifting the nozzle, to release some of the pressure
G1 Z+0.5 E-5 X-20 Y-20 F9000 ;move Z up a bit and retract filament even more
G28 X0 Y0 ;move X/Y to min endstops, so the head is out of the way
M84 ;steppers off
G90 ;absolute positioning
M82 ;absolute extrusion mode
M104 S0
;End of Gcode
;SETTING_3 {"global_quality": "[general]\\nversion = 4\\nname = Carolyn - PLA\\n
;SETTING_3 definition = fdmprinter\\n\\n[metadata]\\ntype = quality_changes\\nse
;SETTING_3 tting_version = 5\\nquality_type = verydraft\\n\\n[values]\\nadhesion
;SETTING_3 _type = skirt\\nlayer_height = 0.8\\nlayer_height_0 = 0.2\\nmaterial_
;SETTING_3 bed_temperature = 0\\n\\n", "extruder_quality": ["[general]\\nversion
;SETTING_3  = 4\\nname = Carolyn - PLA\\ndefinition = fdmprinter\\n\\n[metadata]
;SETTING_3 \\ntype = quality_changes\\nsetting_version = 5\\nposition = 0\\nqual
;SETTING_3 ity_type = verydraft\\n\\n[values]\\nbrim_width = 0\\ninfill_angles =
;SETTING_3  [0,90]\\ninfill_line_distance = =0 if infill_sparse_density == 0 els
;SETTING_3 e (infill_line_width * 100) / infill_sparse_density * (2 if infill_pa
;SETTING_3 ttern == 'grid' else (3 if infill_pattern == 'triangles' or infill_pa
;SETTING_3 ttern == 'trihexagon' or infill_pattern == 'cubic' or infill_pattern 
;SETTING_3 == 'cubicsubdiv' else (2 if infill_pattern == 'tetrahedral' or infill
;SETTING_3 _pattern == 'quarter_cubic' else (1 if infill_pattern == 'cross' or i
;SETTING_3 nfill_pattern == 'cross_3d' else 1))))\\ninfill_pattern = grid\\ninfi
;SETTING_3 ll_sparse_density = 70\\nmaterial_flow = 120\\nskirt_line_count = 2\\
;SETTING_3 nspeed_print = 15\\nspeed_travel = 20\\ntop_bottom_thickness = 0.0\\n
;SETTING_3 wall_thickness = 0.0\\n\\n"]}
