;FLAVOR:Marlin
;TIME:81
;Filament used: 0.00773765m
;Layer height: 0.2
;Generated with Cura_SteamEngine 3.6.0
M104 S200
M105
M109 S200
M82 ;absolute extrusion mode
G21 ;metric values
G90 ;absolute positioning
M82 ;set extruder to absolute mode
M107 ;start with the fan off
G28 ;move XYZ to min endstops
G1 Z15.0 F9000 ;move the platform down 15mm
G1 F9000
;Put printing message on LCD screen
M117 Printing...
G92 E0
;LAYER_COUNT:26
;LAYER:0
M107
G0 F600 X-4.267 Y6.356 Z0.1
;TYPE:SKIRT
G1 F450 X-5.031 Y5.771 E0.00724
G1 X-5.518 Y5.348 E0.01209
G1 X-5.948 Y4.868 E0.01694
G1 X-6.33 Y4.316 E0.02199
G1 X-6.794 Y3.542 E0.02878
G1 X-7.091 Y2.969 E0.03364
G1 X-7.314 Y2.365 E0.03848
G1 X-7.404 Y2.025 E0.04113
G1 X-7.55 Y1.385 E0.04607
G1 X-7.654 Y0.748 E0.05093
G1 X-7.68 Y0.281 E0.05445
G1 X-7.684 Y-.115 E0.05743
G1 X-7.65 Y-.759 E0.06228
G1 X-7.51 Y-1.501 E0.06796
G1 X-7.269 Y-2.41 E0.07503
G1 X-7.066 Y-3.021 E0.07988
G1 X-6.788 Y-3.603 E0.08473
G1 X-6.422 Y-4.172 E0.08982
G1 X-5.857 Y-4.935 E0.09697
G1 X-5.442 Y-5.428 E0.10182
G1 X-4.969 Y-5.866 E0.10667
G1 X-4.651 Y-6.106 E0.10966
G1 X-4.123 Y-6.474 E0.11451
G1 X-3.573 Y-6.809 E0.11935
G1 X-3.14 Y-7.012 E0.12295
G1 X-2.744 Y-7.176 E0.12617
G1 X-2.134 Y-7.386 E0.13103
G1 X-1.431 Y-7.528 E0.13643
G1 X-.555 Y-7.643 E0.14307
G1 X0.088 Y-7.687 E0.14792
G1 X0.732 Y-7.651 E0.15278
G1 X1.09 Y-7.596 E0.1555
G1 X1.76 Y-7.469 E0.16063
G1 X2.385 Y-7.31 E0.16548
G1 X3.22 Y-6.958 E0.1723
G1 X3.932 Y-6.582 E0.17836
G1 X4.483 Y-6.246 E0.18322
G1 X5.148 Y-5.693 E0.18972
G1 X5.603 Y-5.246 E0.19452
G1 X6.034 Y-4.767 E0.19937
G1 X6.495 Y-4.08 E0.2056
G1 X6.87 Y-3.411 E0.21137
G1 X7.15 Y-2.83 E0.21622
G1 X7.408 Y-2.007 E0.22271
G1 X7.553 Y-1.361 E0.22769
G1 X7.655 Y-.724 E0.23255
G1 X7.678 Y-.119 E0.2371
G1 X7.667 Y0.435 E0.24127
G1 X7.614 Y1.078 E0.24612
G1 X7.482 Y1.709 E0.25097
G1 X7.384 Y2.026 E0.25347
G1 X7.066 Y2.949 E0.26082
G1 X6.819 Y3.544 E0.26566
G1 X6.5 Y4.104 E0.27051
G1 X6.044 Y4.701 E0.27617
G1 X5.397 Y5.432 E0.28351
G1 X4.94 Y5.888 E0.28837
G1 X4.259 Y6.396 E0.29476
G1 X3.891 Y6.626 E0.29803
G1 X3.324 Y6.933 E0.30288
G1 X2.884 Y7.113 E0.30645
G1 X2.271 Y7.332 E0.31135
G1 X1.652 Y7.511 E0.3162
G1 X1.015 Y7.612 E0.32105
G1 X0.693 Y7.632 E0.32348
G1 X-.188 Y7.661 E0.33011
G1 X-.832 Y7.642 E0.33496
G1 X-1.469 Y7.544 E0.33981
G1 X-1.932 Y7.421 E0.34342
G1 X-2.679 Y7.184 E0.34931
G1 X-3.28 Y6.951 E0.35416
G1 X-3.848 Y6.646 E0.35901
G1 X-4.267 Y6.356 E0.36285
G0 F600 X-4.024 Y6.038
G1 F450 X-4.788 Y5.453 E0.37009
G1 X-5.255 Y5.046 E0.37475
G1 X-5.665 Y4.581 E0.37941
G1 X-5.987 Y4.11 E0.38371
G1 X-6.451 Y3.336 E0.3905
G1 X-6.734 Y2.785 E0.39516
G1 X-7.014 Y1.936 E0.40188
G1 X-7.16 Y1.296 E0.40682
G1 X-7.258 Y0.684 E0.41149
G1 X-7.28 Y0.276 E0.41456
G1 X-7.284 Y-.12 E0.41754
G1 X-7.25 Y-.738 E0.4222
G1 X-7.124 Y-1.398 E0.42725
G1 X-6.883 Y-2.307 E0.43433
G1 X-6.686 Y-2.894 E0.43899
G1 X-6.415 Y-3.451 E0.44365
G1 X-6.101 Y-3.933 E0.44798
G1 X-5.536 Y-4.696 E0.45512
G1 X-5.136 Y-5.169 E0.45978
G1 X-4.678 Y-5.587 E0.46445
G1 X-4.423 Y-5.778 E0.46684
G1 X-3.895 Y-6.146 E0.47169
G1 X-3.365 Y-6.467 E0.47635
G1 X-2.987 Y-6.643 E0.47949
G1 X-2.591 Y-6.807 E0.48271
G1 X-2.004 Y-7.006 E0.48737
G1 X-1.379 Y-7.131 E0.49217
G1 X-.503 Y-7.246 E0.49882
G1 X0.115 Y-7.287 E0.50348
G1 X1.016 Y-7.203 E0.51029
G1 X1.686 Y-7.076 E0.51542
G1 X2.286 Y-6.922 E0.52008
G1 X3.033 Y-6.604 E0.52619
G1 X3.745 Y-6.228 E0.53225
G1 X4.273 Y-5.905 E0.5369
G1 X4.868 Y-5.408 E0.54274
G1 X5.323 Y-4.961 E0.54754
G1 X5.736 Y-4.499 E0.5522
G1 X6.146 Y-3.884 E0.55776
G1 X6.521 Y-3.215 E0.56353
G1 X6.788 Y-2.656 E0.56819
G1 X7.017 Y-1.919 E0.574
G1 X7.162 Y-1.273 E0.57898
G1 X7.259 Y-.661 E0.58364
G1 X7.278 Y-.127 E0.58766
G1 X7.267 Y0.427 E0.59183
G1 X7.215 Y1.044 E0.59649
G1 X7.006 Y1.896 E0.60309
G1 X6.688 Y2.819 E0.61044
G1 X6.449 Y3.39 E0.61509
G1 X6.138 Y3.926 E0.61976
G1 X5.744 Y4.436 E0.62461
G1 X5.097 Y5.167 E0.63195
G1 X4.658 Y5.604 E0.63661
G1 X4.047 Y6.056 E0.64233
G1 X3.679 Y6.286 E0.6456
G1 X3.134 Y6.58 E0.65026
G1 X2.75 Y6.736 E0.65337
G1 X2.137 Y6.955 E0.65827
G1 X1.541 Y7.126 E0.66294
G1 X0.68 Y7.232 E0.66946
G1 X-.201 Y7.261 E0.6761
G1 X-.82 Y7.242 E0.68076
G1 X-1.431 Y7.143 E0.68541
G1 X-1.811 Y7.039 E0.68838
G1 X-2.558 Y6.802 E0.69427
G1 X-3.135 Y6.577 E0.69893
G1 X-3.678 Y6.28 E0.70359
G1 X-4.024 Y6.038 E0.70677
G0 F600 X-3.781 Y5.72
G1 F450 X-4.545 Y5.135 E0.71401
G1 X-4.99 Y4.744 E0.71847
G1 X-5.379 Y4.296 E0.72293
G1 X-5.644 Y3.904 E0.72649
G1 X-6.108 Y3.13 E0.73328
G1 X-6.378 Y2.602 E0.73774
G1 X-6.624 Y1.847 E0.74372
G1 X-6.77 Y1.207 E0.74866
G1 X-6.862 Y0.621 E0.75312
G1 X-6.88 Y0.272 E0.75575
G1 X-6.884 Y-.124 E0.75873
G1 X-6.85 Y-.716 E0.76319
G1 X-6.737 Y-1.296 E0.76764
G1 X-6.496 Y-2.205 E0.77471
G1 X-6.306 Y-2.766 E0.77917
G1 X-6.042 Y-3.297 E0.78363
G1 X-5.779 Y-3.695 E0.78722
G1 X-5.214 Y-4.458 E0.79436
G1 X-4.83 Y-4.91 E0.79883
G1 X-4.194 Y-5.45 E0.8051
G1 X-3.666 Y-5.818 E0.80995
G1 X-3.158 Y-6.123 E0.8144
G1 X-2.834 Y-6.273 E0.81709
G1 X-2.438 Y-6.437 E0.82032
G1 X-1.876 Y-6.627 E0.82478
G1 X-1.327 Y-6.735 E0.82899
G1 X-.451 Y-6.85 E0.83564
G1 X0.141 Y-6.887 E0.8401
G1 X0.941 Y-6.81 E0.84615
G1 X1.611 Y-6.683 E0.85128
G1 X2.185 Y-6.534 E0.85574
G1 X2.847 Y-6.251 E0.86116
G1 X3.559 Y-5.875 E0.86722
G1 X4.063 Y-5.563 E0.87168
G1 X4.588 Y-5.123 E0.87683
G1 X5.043 Y-4.676 E0.88163
G1 X5.437 Y-4.233 E0.88609
G1 X5.797 Y-3.688 E0.89101
G1 X6.172 Y-3.019 E0.89678
G1 X6.427 Y-2.484 E0.90124
G1 X6.627 Y-1.832 E0.90637
G1 X6.772 Y-1.186 E0.91135
G1 X6.863 Y-.6 E0.91581
G1 X6.878 Y-.135 E0.91931
G1 X6.867 Y0.419 E0.92348
G1 X6.815 Y1.01 E0.92794
G1 X6.628 Y1.765 E0.9338
G1 X6.31 Y2.688 E0.94114
G1 X6.08 Y3.235 E0.94561
G1 X5.778 Y3.745 E0.95007
G1 X5.445 Y4.171 E0.95413
G1 X4.798 Y4.902 E0.96148
G1 X4.376 Y5.319 E0.96594
G1 X3.835 Y5.717 E0.971
G1 X3.467 Y5.947 E0.97426
G1 X2.944 Y6.227 E0.97873
G1 X2.615 Y6.36 E0.9814
G1 X2.002 Y6.579 E0.98629
G1 X1.432 Y6.74 E0.99075
G1 X0.667 Y6.833 E0.99655
G1 X-.214 Y6.862 E1.00318
G1 X-.807 Y6.841 E1.00765
G1 X-1.391 Y6.741 E1.0121
G1 X-1.69 Y6.658 E1.01444
G1 X-2.437 Y6.421 E1.02034
G1 X-2.988 Y6.204 E1.02479
G1 X-3.506 Y5.915 E1.02925
G1 X-3.781 Y5.72 E1.03179
G0 F600 X-3.538 Y5.403
G1 F450 X-4.302 Y4.818 E1.03903
G1 X-4.725 Y4.443 E1.04328
G1 X-5.092 Y4.013 E1.04754
G1 X-5.301 Y3.699 E1.05038
G1 X-5.765 Y2.925 E1.05717
G1 X-6.02 Y2.42 E1.06142
G1 X-6.234 Y1.758 E1.06666
G1 X-6.38 Y1.118 E1.0716
G1 X-6.466 Y0.559 E1.07585
G1 X-6.48 Y0.268 E1.07804
G1 X-6.484 Y-.128 E1.08102
G1 X-6.45 Y-.692 E1.08528
G1 X-6.35 Y-1.193 E1.08912
G1 X-6.109 Y-2.102 E1.0962
G1 X-5.926 Y-2.637 E1.10045
G1 X-5.67 Y-3.141 E1.1047
G1 X-5.458 Y-3.457 E1.10757
G1 X-4.893 Y-4.22 E1.11471
G1 X-4.525 Y-4.65 E1.11897
G1 X-3.965 Y-5.122 E1.12448
G1 X-3.437 Y-5.49 E1.12932
G1 X-2.952 Y-5.779 E1.13357
G1 X-2.681 Y-5.904 E1.13582
G1 X-2.285 Y-6.068 E1.13904
G1 X-1.748 Y-6.246 E1.1433
G1 X-1.275 Y-6.338 E1.14692
G1 X-.399 Y-6.453 E1.15357
G1 X0.166 Y-6.487 E1.15783
G1 X0.867 Y-6.417 E1.16313
G1 X1.537 Y-6.29 E1.16826
G1 X2.084 Y-6.146 E1.17252
G1 X2.66 Y-5.897 E1.17724
G1 X3.372 Y-5.521 E1.1833
G1 X3.852 Y-5.222 E1.18755
G1 X4.307 Y-4.837 E1.19204
G1 X4.762 Y-4.39 E1.19684
G1 X5.137 Y-3.967 E1.20109
G1 X5.448 Y-3.493 E1.20536
G1 X5.823 Y-2.824 E1.21113
G1 X6.064 Y-2.312 E1.21538
G1 X6.237 Y-1.744 E1.21985
G1 X6.382 Y-1.098 E1.22483
G1 X6.466 Y-.539 E1.22909
G1 X6.478 Y-.143 E1.23207
G1 X6.467 Y0.411 E1.23624
G1 X6.416 Y0.974 E1.24049
G1 X6.25 Y1.635 E1.24562
G1 X5.932 Y2.558 E1.25296
G1 X5.71 Y3.078 E1.25722
G1 X5.418 Y3.562 E1.26147
G1 X5.145 Y3.906 E1.26477
G1 X4.498 Y4.637 E1.27212
G1 X4.095 Y5.033 E1.27637
G1 X3.623 Y5.378 E1.28077
G1 X3.255 Y5.608 E1.28404
G1 X2.756 Y5.873 E1.28829
G1 X2.481 Y5.983 E1.29052
G1 X1.868 Y6.202 E1.29541
G1 X1.323 Y6.354 E1.29967
G1 X0.654 Y6.433 E1.30474
G1 X-.227 Y6.462 E1.31137
G1 X-.792 Y6.44 E1.31563
G1 X-1.569 Y6.277 E1.3216
G1 X-2.316 Y6.04 E1.3275
G1 X-2.841 Y5.831 E1.33175
G1 X-3.538 Y5.403 E1.3379
G0 F600 X-3.295 Y5.085
G1 F450 X-4.059 Y4.5 E1.34514
G1 X-4.459 Y4.143 E1.34918
G1 X-4.802 Y3.731 E1.35321
G1 X-4.958 Y3.493 E1.35535
G1 X-5.422 Y2.719 E1.36214
G1 X-5.662 Y2.24 E1.36617
G1 X-5.844 Y1.669 E1.37068
G1 X-5.99 Y1.029 E1.37562
G1 X-6.08 Y0.264 E1.38142
G1 X-6.084 Y-.132 E1.3844
G1 X-6.049 Y-.667 E1.38843
G1 X-5.964 Y-1.091 E1.39168
G1 X-5.723 Y-2 E1.39876
G1 X-5.547 Y-2.506 E1.40279
G1 X-5.298 Y-2.981 E1.40683
G1 X-5.136 Y-3.219 E1.40899
G1 X-4.571 Y-3.982 E1.41614
G1 X-4.221 Y-4.388 E1.42017
G1 X-3.736 Y-4.793 E1.42492
G1 X-3.208 Y-5.161 E1.42977
G1 X-2.527 Y-5.534 E1.43561
G1 X-2.131 Y-5.698 E1.43883
G1 X-1.622 Y-5.866 E1.44287
G1 X-1.223 Y-5.941 E1.44592
G1 X-.347 Y-6.056 E1.45257
G1 X0.189 Y-6.086 E1.45661
G1 X0.792 Y-6.024 E1.46117
G1 X1.462 Y-5.897 E1.4663
G1 X1.98 Y-5.758 E1.47034
G1 X2.473 Y-5.543 E1.47438
G1 X3.185 Y-5.167 E1.48044
G1 X3.639 Y-4.882 E1.48447
G1 X4.027 Y-4.552 E1.48831
G1 X4.482 Y-4.105 E1.49311
G1 X4.835 Y-3.702 E1.49714
G1 X5.099 Y-3.297 E1.50077
G1 X5.474 Y-2.628 E1.50654
G1 X5.701 Y-2.142 E1.51058
G1 X5.847 Y-1.656 E1.5144
G1 X5.992 Y-1.01 E1.51938
G1 X6.07 Y-.48 E1.52341
G1 X6.078 Y-.151 E1.52589
G1 X6.067 Y0.403 E1.53006
G1 X6.017 Y0.937 E1.53409
G1 X5.872 Y1.505 E1.5385
G1 X5.554 Y2.428 E1.54585
G1 X5.342 Y2.92 E1.54988
G1 X5.059 Y3.376 E1.55392
G1 X4.846 Y3.641 E1.55648
G1 X4.199 Y4.372 E1.56382
G1 X3.814 Y4.746 E1.56786
G1 X3.411 Y5.039 E1.57161
G1 X3.043 Y5.269 E1.57487
G1 X2.346 Y5.606 E1.5807
G1 X1.733 Y5.825 E1.5856
G1 X1.216 Y5.967 E1.58963
G1 X0.64 Y6.033 E1.59399
G1 X-.241 Y6.062 E1.60063
G1 X-.776 Y6.04 E1.60465
G1 X-1.448 Y5.895 E1.60983
G1 X-2.195 Y5.658 E1.61572
G1 X-2.692 Y5.459 E1.61975
G1 X-3.295 Y5.085 E1.62509
G0 F600 X-3.051 Y4.768
G1 F450 X-3.815 Y4.183 E1.63233
G1 X-4.191 Y3.845 E1.63614
G1 X-4.615 Y3.287 E1.64141
G1 X-5.079 Y2.513 E1.6482
G1 X-5.303 Y2.061 E1.65199
G1 X-5.454 Y1.58 E1.65579
G1 X-5.6 Y0.94 E1.66073
G1 X-5.68 Y0.26 E1.66588
G1 X-5.684 Y-.136 E1.66886
G1 X-5.649 Y-.64 E1.67266
G1 X-5.577 Y-.988 E1.67533
G1 X-5.336 Y-1.897 E1.68241
G1 X-5.168 Y-2.374 E1.68621
G1 X-4.815 Y-2.981 E1.6915
G1 X-4.25 Y-3.744 E1.69864
G1 X-3.918 Y-4.126 E1.70245
G1 X-3.508 Y-4.465 E1.70645
G1 X-2.98 Y-4.833 E1.7113
G1 X-2.374 Y-5.164 E1.71649
G1 X-1.978 Y-5.328 E1.71972
G1 X-1.497 Y-5.484 E1.72352
G1 X-1.171 Y-5.545 E1.72602
G1 X-.295 Y-5.66 E1.73266
G1 X0.21 Y-5.686 E1.73647
G1 X0.718 Y-5.631 E1.74031
G1 X1.388 Y-5.504 E1.74544
G1 X1.876 Y-5.371 E1.74925
G1 X2.286 Y-5.19 E1.75262
G1 X2.998 Y-4.814 E1.75868
G1 X3.425 Y-4.543 E1.76249
G1 X3.747 Y-4.267 E1.76568
G1 X4.202 Y-3.82 E1.77048
G1 X4.533 Y-3.438 E1.77428
G1 X4.75 Y-3.102 E1.77729
G1 X5.125 Y-2.433 E1.78306
G1 X5.337 Y-1.974 E1.78686
G1 X5.456 Y-1.569 E1.79004
G1 X5.601 Y-.923 E1.79502
G1 X5.673 Y-.422 E1.79883
G1 X5.678 Y-.158 E1.80082
G1 X5.667 Y0.396 E1.80499
G1 X5.617 Y0.899 E1.80879
G1 X5.493 Y1.374 E1.81248
G1 X5.175 Y2.297 E1.81983
G1 X4.974 Y2.761 E1.82363
G1 X4.546 Y3.376 E1.82927
G1 X3.899 Y4.107 E1.83662
G1 X3.535 Y4.458 E1.84042
G1 X3.199 Y4.7 E1.84354
G1 X2.831 Y4.93 E1.8468
G1 X2.212 Y5.229 E1.85197
G1 X1.599 Y5.448 E1.85687
G1 X1.111 Y5.58 E1.86068
G1 X0.627 Y5.633 E1.86434
G1 X-.254 Y5.662 E1.87097
G1 X-.759 Y5.639 E1.87477
G1 X-1.327 Y5.514 E1.87915
G1 X-2.074 Y5.277 E1.88505
G1 X-2.542 Y5.087 E1.88885
G1 X-3.051 Y4.768 E1.89337
;MESH:CylinderComplement.stl
G0 F600 X-1.275 Y2.897
G0 X-.847 Y2.332
G0 X1.2 Y2.008
;TYPE:FILL
G1 F450 X1.2 Y-2.006 E1.92357
G1 X1.147 Y-2.039 E1.92404
G1 X1.005 Y-2.113 E1.92524
G1 X0.737 Y-2.221 E1.92742
G1 X0.563 Y-2.272 E1.92878
G1 X0.432 Y-2.301 E1.92979
G1 X0.265 Y-2.326 E1.93106
G1 X0.127 Y-2.337 E1.9321
G1 X0.00 Y-2.339 E1.93306
G1 X0.00 Y2.34 E1.96827
G1 X-0.045 Y2.34 E1.9686
G1 X-.351 Y2.314 E1.97092
G1 X-.645 Y2.25 E1.97318
G1 X-.809 Y2.196 E1.97448
G1 X-.938 Y2.144 E1.97553
G1 X-1.083 Y2.074 E1.97674
G1 X-1.2 Y2.007 E1.97775
G1 X-1.2 Y-2.009 E2.00797
G0 F600 X-1.083 Y-1.798
;MESH:NONMESH
G0 X2.003 Y-1.199
;TIME_ELAPSED:37.424831
;LAYER:1
M106 S255
;MESH:CylinderComplement.stl
G0 F900 X2.003 Y-1.199 Z0.3
;TYPE:FILL
G1 F600 X-2.006 Y-1.2 E2.0683
G1 X-2.059 Y-1.112 E2.06984
G1 X-2.124 Y-.982 E2.07203
G1 X-2.185 Y-.837 E2.0744
G1 X-2.233 Y-.698 E2.07661
G1 X-2.307 Y-.39 E2.08138
G1 X-2.329 Y-.227 E2.08385
G1 X-2.339 Y-0.084 E2.08601
G1 X-2.339 Y0.00 E2.08727
G1 X2.339 Y0.00 E2.15767
G1 X2.335 Y0.155 E2.16
G1 X2.318 Y0.315 E2.16243
G1 X2.294 Y0.465 E2.16471
G1 X2.212 Y0.765 E2.16939
G1 X2.097 Y1.037 E2.17384
G1 X2.012 Y1.193 E2.17651
G0 F900 X2.007 Y1.2
G1 F600 X-2.008 Y1.199 E2.23693
G0 F900 X-1.799 Y1.078
;MESH:NONMESH
G0 X1.2 Y2.007
;TIME_ELAPSED:39.255849
;LAYER:2
;MESH:CylinderComplement.stl
G0 F1200 X1.2 Y2.007 Z0.5
;TYPE:FILL
G1 F600 X1.2 Y-2.007 E2.29733
G1 X1.158 Y-2.033 E2.29808
G1 X1.023 Y-2.104 E2.30037
G1 X0.726 Y-2.225 E2.3052
G1 X0.586 Y-2.267 E2.3074
G1 X0.444 Y-2.297 E2.30958
G1 X0.274 Y-2.324 E2.31217
G1 X0.137 Y-2.336 E2.31424
G1 X0.00 Y-2.339 E2.3163
G1 X0.00 Y2.339 E2.3867
G1 X-0.054 Y2.34 E2.38751
G1 X-.361 Y2.312 E2.39215
G1 X-.506 Y2.284 E2.39437
G1 X-.656 Y2.246 E2.3967
G1 X-.963 Y2.132 E2.40163
G1 X-1.088 Y2.072 E2.40372
G1 X-1.2 Y2.003 E2.4057
G1 X-1.2 Y-2.009 E2.46607
G0 F1200 X-1.085 Y-1.797
;MESH:NONMESH
G0 X-2.007 Y1.199
;TIME_ELAPSED:41.031711
;LAYER:3
;MESH:CylinderComplement.stl
G0 X-2.007 Y1.199 Z0.7
;TYPE:FILL
G1 F600 X2.007 Y1.2 E2.52648
G1 X2.016 Y1.187 E2.52671
G1 X2.084 Y1.063 E2.52884
G1 X2.205 Y0.781 E2.53346
G1 X2.291 Y0.475 E2.53824
G1 X2.316 Y0.326 E2.54052
G1 X2.334 Y0.166 E2.54294
G1 X2.34 Y0.00 E2.54544
G1 X-2.338 Y0.00 E2.61584
G1 X-2.338 Y-0.098 E2.61731
G1 X-2.327 Y-.251 E2.61962
G1 X-2.274 Y-.548 E2.62416
G1 X-2.231 Y-.704 E2.62659
G1 X-2.118 Y-.994 E2.63128
G1 X-2.054 Y-1.119 E2.63339
G1 X-2.006 Y-1.2 E2.63481
G1 X2.008 Y-1.199 E2.69521
G0 F1200 X1.803 Y-1.071
;MESH:NONMESH
G0 X-1.2 Y-2.002
;TIME_ELAPSED:42.808054
;LAYER:4
;MESH:CylinderComplement.stl
G0 X-1.2 Y-2.002 Z0.9
;TYPE:FILL
G1 F600 X-1.2 Y2.006 E2.75553
G1 X-1.096 Y2.067 E2.75734
G1 X-.815 Y2.193 E2.76197
G1 X-.68 Y2.239 E2.76412
G1 X-.526 Y2.279 E2.76652
G1 X-.372 Y2.31 E2.76888
G1 X-0.065 Y2.339 E2.77352
G1 X0.00 Y2.339 E2.7745
G1 X0.00 Y-2.339 E2.84489
G1 X0.142 Y-2.335 E2.84703
G1 X0.446 Y-2.297 E2.85164
G1 X0.606 Y-2.26 E2.85411
G1 X0.745 Y-2.218 E2.8563
G1 X0.897 Y-2.161 E2.85874
G1 X1.029 Y-2.102 E2.86092
G1 X1.17 Y-2.027 E2.86332
G1 X1.2 Y-2.007 E2.86386
G1 X1.2 Y2.007 E2.92427
G0 F1200 X1.077 Y1.798
;MESH:NONMESH
G0 X2.007 Y-1.199
;TIME_ELAPSED:44.583573
;LAYER:5
;MESH:CylinderComplement.stl
G0 X2.007 Y-1.199 Z1.1
;TYPE:FILL
G1 F600 X-2.006 Y-1.2 E2.98466
G1 X-2.042 Y-1.141 E2.9857
G1 X-2.115 Y-1.001 E2.98807
G1 X-2.231 Y-.707 E2.99283
G1 X-2.273 Y-.556 E2.99519
G1 X-2.301 Y-.425 E2.9972
G1 X-2.325 Y-.261 E2.9997
G1 X-2.337 Y-.109 E3.00199
G1 X-2.338 Y0.00 E3.00363
G1 X2.34 Y0.00 E3.07403
G1 X2.34 Y0.017 E3.07429
G1 X2.332 Y0.18 E3.07674
G1 X2.314 Y0.338 E3.07913
G1 X2.287 Y0.495 E3.08153
G1 X2.253 Y0.634 E3.08369
G1 X2.148 Y0.927 E3.08837
G1 X2.078 Y1.075 E3.09083
G1 X2.01 Y1.196 E3.09292
G0 F1200 X2.007 Y1.2
G1 F600 X-2.008 Y1.199 E3.15334
G0 F1200 X-1.797 Y1.081
;MESH:NONMESH
G0 X1.2 Y2.005
;TIME_ELAPSED:46.359555
;LAYER:6
;MESH:CylinderComplement.stl
G0 X1.2 Y2.005 Z1.3
;TYPE:FILL
G1 F600 X1.2 Y-2.008 E3.21373
G1 X1.181 Y-2.02 E3.21407
G1 X1.039 Y-2.096 E3.21649
G1 X0.912 Y-2.154 E3.21859
G1 X0.746 Y-2.217 E3.22126
G1 X0.621 Y-2.255 E3.22323
G1 X0.45 Y-2.295 E3.22587
G1 X0.305 Y-2.319 E3.22809
G1 X0.159 Y-2.334 E3.23029
G1 X0.00 Y-2.339 E3.23269
G1 X0.00 Y2.339 E3.30308
G1 X-0.075 Y2.339 E3.30421
G1 X-.384 Y2.308 E3.30889
G1 X-.544 Y2.276 E3.31134
G1 X-.691 Y2.236 E3.31363
G1 X-.824 Y2.19 E3.31575
G1 X-.967 Y2.131 E3.31808
G1 X-1.116 Y2.055 E3.3206
G1 X-1.2 Y2.006 E3.32206
G1 X-1.2 Y-2.009 E3.38248
G0 F1200 X-1.072 Y-1.804
;MESH:NONMESH
G0 X2.007 Y-1.199
;TIME_ELAPSED:48.135582
;LAYER:7
;MESH:CylinderComplement.stl
G0 X2.007 Y-1.199 Z1.5
;TYPE:FILL
G1 F600 X-2.002 Y-1.2 E3.44281
G1 X-2.109 Y-1.012 E3.44606
G1 X-2.221 Y-.734 E3.45057
G1 X-2.27 Y-.567 E3.45319
G1 X-2.297 Y-.447 E3.45504
G1 X-2.337 Y-.112 E3.46012
G1 X-2.339 Y0.00 E3.46181
