;FLAVOR:Marlin
;TIME:1202
;Filament used: 0.166873m
;Layer height: 0.2
;Generated with Cura_SteamEngine 3.6.0
M104 S200
M105
M109 S200
M82 ;absolute extrusion mode
G21 ;metric values
G90 ;absolute positioning
M82 ;set extruder to absolute mode
M107 ;start with the fan off
G28 ;move XYZ to min endstops
G1 Z15.0 F9000 ;move the platform down 15mm
G1 F9000
;Put printing message on LCD screen
M117 Printing...
G92 E0
;LAYER_COUNT:26
;LAYER:0
M107
;MESH:Box_1_testhybrid.stl
G0 F600 X-12 Y12.34 Z0.2
;TYPE:FILL
G1 F300 X-12 Y-12.34 E0.3714
G1 X-10.5 Y-12.34 E0.39397
G1 X-10.5 Y12.34 E0.76536
G1 X-9 Y12.34 E0.78794
G1 X-9 Y-12.34 E1.15933
G1 X-7.5 Y-12.34 E1.1819
G1 X-7.5 Y12.34 E1.5533
G1 X-6 Y12.34 E1.57587
G1 X-6 Y-12.34 E1.94727
G1 X-4.5 Y-12.34 E1.96984
G1 X-4.5 Y12.34 E2.34124
G1 X-3 Y12.34 E2.36381
G1 X-3 Y-12.34 E2.73521
G1 X-1.5 Y-12.34 E2.75778
G1 X-1.5 Y12.34 E3.12917
G1 X0.00 Y12.34 E3.15175
G1 X0.00 Y-12.34 E3.52314
G1 X1.5 Y-12.34 E3.54571
G1 X1.5 Y12.34 E3.91711
G1 X3 Y12.34 E3.93968
G1 X3 Y-12.34 E4.31108
G1 X4.5 Y-12.34 E4.33365
G1 X4.5 Y12.34 E4.70505
G1 X6 Y12.34 E4.72762
G1 X6 Y-12.34 E5.09902
G1 X7.5 Y-12.34 E5.12159
G1 X7.5 Y12.34 E5.49298
G1 X9 Y12.34 E5.51556
G1 X9 Y-12.34 E5.88695
G1 X10.5 Y-12.34 E5.90952
G1 X10.5 Y12.34 E6.28092
G1 X12 Y12.34 E6.30349
G1 X12 Y-12.34 E6.67489
G0 F600 X12 Y-12.1
;MESH:NONMESH
G0 X12.34 Y12
;TIME_ELAPSED:92.869485
;LAYER:1
M106 S255
;TYPE:FILL
G0 F900 X12.34 Y12 Z0.200000
G1 F450 X-12.34 Y12 E7.046280
G1 X-12.34 Y10.5 E7.068860
G1 X12.34 Y10.5 E7.440250
G1 X12.34 Y9 E7.462830
G1 X-12.34 Y9 E7.834220
G1 X-12.34 Y7.499 E7.856800
G1 X12.34 Y7.5 E8.228190
G1 X12.34 Y6 E8.250770
G1 X-12.34 Y5.999 E8.622160
G1 X-12.34 Y4.499 E8.644740
G1 X12.34 Y4.5 E9.016130
G1 X12.34 Y3 E9.038710
G1 X-12.34 Y2.999 E9.410100
G1 X-12.34 Y1.499 E9.432680
G1 X12.34 Y1.5 E9.804070
G1 X12.34 Y0.00 E9.826650
G1 X-12.34 Y0.00 E10.198040
G1 X-12.34 Y-1.5 E10.220620
G1 X12.34 Y-1.499 E10.592010
G1 X12.34 Y-2.999 E10.614590
G1 X-12.34 Y-3 E10.985980
G1 X-12.34 Y-4.5 E11.008560
G1 X12.34 Y-4.499 E11.379950
G1 X12.34 Y-5.999 E11.402530
G1 X-12.34 Y-6 E11.773920
G1 X-12.34 Y-7.5 E11.796500
G1 X12.34 Y-7.499 E12.167890
G1 X12.34 Y-9 E12.190470
G1 X-12.34 Y-9 E12.561860
G1 X-12.34 Y-10.5 E12.584440
G1 X12.34 Y-10.5 E12.955830
G1 X12.34 Y-12 E12.978410
G1 X-12.34 Y-12 E13.349800
G0 F900 X-12.1 Y-12
G0 F900 X12.34 Y12 Z0.400000
G1 F450 X-12.34 Y12 E13.721190
G1 X-12.34 Y10.5 E13.743770
G1 X12.34 Y10.5 E14.115160
G1 X12.34 Y9 E14.137740
G1 X-12.34 Y9 E14.509130
G1 X-12.34 Y7.499 E14.531710
G1 X12.34 Y7.5 E14.903100
G1 X12.34 Y6 E14.925680
G1 X-12.34 Y5.999 E15.297070
G1 X-12.34 Y4.499 E15.319650
G1 X12.34 Y4.5 E15.691040
G1 X12.34 Y3 E15.713620
G1 X-12.34 Y2.999 E16.085010
G1 X-12.34 Y1.499 E16.107590
G1 X12.34 Y1.5 E16.478980
G1 X12.34 Y0.00 E16.501560
G1 X-12.34 Y0.00 E16.872950
G1 X-12.34 Y-1.5 E16.895530
G1 X12.34 Y-1.499 E17.266920
G1 X12.34 Y-2.999 E17.289500
G1 X-12.34 Y-3 E17.660890
G1 X-12.34 Y-4.5 E17.683470
G1 X12.34 Y-4.499 E18.054860
G1 X12.34 Y-5.999 E18.077440
G1 X-12.34 Y-6 E18.448830
G1 X-12.34 Y-7.5 E18.471410
G1 X12.34 Y-7.499 E18.842800
G1 X12.34 Y-9 E18.865380
G1 X-12.34 Y-9 E19.236770
G1 X-12.34 Y-10.5 E19.259350
G1 X12.34 Y-10.5 E19.630740
G1 X12.34 Y-12 E19.653320
G1 X-12.34 Y-12 E20.024710
G0 F900 X-12.1 Y-12
G0 F900 X12.34 Y12 Z0.600000
G1 F450 X-12.34 Y12 E20.396100
G1 X-12.34 Y10.5 E20.418680
G1 X12.34 Y10.5 E20.790070
G1 X12.34 Y9 E20.812650
G1 X-12.34 Y9 E21.184040
G1 X-12.34 Y7.499 E21.206620
G1 X12.34 Y7.5 E21.578010
G1 X12.34 Y6 E21.600590
G1 X-12.34 Y5.999 E21.971980
G1 X-12.34 Y4.499 E21.994560
G1 X12.34 Y4.5 E22.365950
G1 X12.34 Y3 E22.388530
G1 X-12.34 Y2.999 E22.759920
G1 X-12.34 Y1.499 E22.782500
G1 X12.34 Y1.5 E23.153890
G1 X12.34 Y0.00 E23.176470
G1 X-12.34 Y0.00 E23.547860
G1 X-12.34 Y-1.5 E23.570440
G1 X12.34 Y-1.499 E23.941830
G1 X12.34 Y-2.999 E23.964410
G1 X-12.34 Y-3 E24.335800
G1 X-12.34 Y-4.5 E24.358380
G1 X12.34 Y-4.499 E24.729770
G1 X12.34 Y-5.999 E24.752350
G1 X-12.34 Y-6 E25.123740
G1 X-12.34 Y-7.5 E25.146320
G1 X12.34 Y-7.499 E25.517710
G1 X12.34 Y-9 E25.540290
G1 X-12.34 Y-9 E25.911680
G1 X-12.34 Y-10.5 E25.934260
G1 X12.34 Y-10.5 E26.305650
G1 X12.34 Y-12 E26.328230
G1 X-12.34 Y-12 E26.699620
G0 F900 X-12.1 Y-12
G0 F900 X12.34 Y12 Z0.800000
G1 F450 X-12.34 Y12 E27.071010
G1 X-12.34 Y10.5 E27.093590
G1 X12.34 Y10.5 E27.464980
G1 X12.34 Y9 E27.487560
G1 X-12.34 Y9 E27.858950
G1 X-12.34 Y7.499 E27.881530
G1 X12.34 Y7.5 E28.252920
G1 X12.34 Y6 E28.275500
G1 X-12.34 Y5.999 E28.646890
G1 X-12.34 Y4.499 E28.669470
G1 X12.34 Y4.5 E29.040860
G1 X12.34 Y3 E29.063440
G1 X-12.34 Y2.999 E29.434830
G1 X-12.34 Y1.499 E29.457410
G1 X12.34 Y1.5 E29.828800
G1 X12.34 Y0.00 E29.851380
G1 X-12.34 Y0.00 E30.222770
G1 X-12.34 Y-1.5 E30.245350
G1 X12.34 Y-1.499 E30.616740
G1 X12.34 Y-2.999 E30.639320
G1 X-12.34 Y-3 E31.010710
G1 X-12.34 Y-4.5 E31.033290
G1 X12.34 Y-4.499 E31.404680
G1 X12.34 Y-5.999 E31.427260
G1 X-12.34 Y-6 E31.798650
G1 X-12.34 Y-7.5 E31.821230
G1 X12.34 Y-7.499 E32.192620
G1 X12.34 Y-9 E32.215200
G1 X-12.34 Y-9 E32.586590
G1 X-12.34 Y-10.5 E32.609170
G1 X12.34 Y-10.5 E32.980560
G1 X12.34 Y-12 E33.003140
G1 X-12.34 Y-12 E33.374530
G0 F900 X-12.1 Y-12
;MESH:NONMESH
G0 X-12 Y12.34
;TIME_ELAPSED:153.734791
;LAYER:2
;TYPE:FILL
G0 F1200 X-12 Y12.34 Z1.000000
G1 F600 X-12 Y-12.34 E33.745920
G1 X-10.5 Y-12.34 E33.768500
G1 X-10.5 Y12.34 E34.139890
G1 X-9 Y12.34 E34.162470
G1 X-9 Y-12.34 E34.533860
G1 X-7.5 Y-12.34 E34.556440
G1 X-7.5 Y12.34 E34.927830
G1 X-6 Y12.34 E34.950410
G1 X-6 Y-12.34 E35.321800
G1 X-4.5 Y-12.34 E35.344380
G1 X-4.5 Y12.34 E35.715770
G1 X-3 Y12.34 E35.738350
G1 X-3 Y-12.34 E36.109740
G1 X-1.5 Y-12.34 E36.132320
G1 X-1.5 Y12.34 E36.503710
G1 X0.00 Y12.34 E36.526290
G1 X0.00 Y-12.34 E36.897680
G1 X1.5 Y-12.34 E36.920260
G1 X1.5 Y12.34 E37.291650
G1 X3 Y12.34 E37.314230
G1 X3 Y-12.34 E37.685620
G1 X4.5 Y-12.34 E37.708200
G1 X4.5 Y12.34 E38.079590
G1 X6 Y12.34 E38.102170
G1 X6 Y-12.34 E38.473560
G1 X7.5 Y-12.34 E38.496140
G1 X7.5 Y12.34 E38.867530
G1 X9 Y12.34 E38.890110
G1 X9 Y-12.34 E39.261500
G1 X10.5 Y-12.34 E39.284080
G1 X10.5 Y12.34 E39.655470
G1 X12 Y12.34 E39.678050
G1 X12 Y-12.34 E40.049440
G0 F1200 X12 Y-12.1
G0 F1200 X-12 Y12.34 Z1.200000
G1 F600 X-12 Y-12.34 E40.420830
G1 X-10.5 Y-12.34 E40.443410
G1 X-10.5 Y12.34 E40.814800
G1 X-9 Y12.34 E40.837380
G1 X-9 Y-12.34 E41.208770
G1 X-7.5 Y-12.34 E41.231350
G1 X-7.5 Y12.34 E41.602740
G1 X-6 Y12.34 E41.625320
G1 X-6 Y-12.34 E41.996710
G1 X-4.5 Y-12.34 E42.019290
G1 X-4.5 Y12.34 E42.390680
G1 X-3 Y12.34 E42.413260
G1 X-3 Y-12.34 E42.784650
G1 X-1.5 Y-12.34 E42.807230
G1 X-1.5 Y12.34 E43.178620
G1 X0.00 Y12.34 E43.201200
G1 X0.00 Y-12.34 E43.572590
G1 X1.5 Y-12.34 E43.595170
G1 X1.5 Y12.34 E43.966560
G1 X3 Y12.34 E43.989140
G1 X3 Y-12.34 E44.360530
G1 X4.5 Y-12.34 E44.383110
G1 X4.5 Y12.34 E44.754500
G1 X6 Y12.34 E44.777080
G1 X6 Y-12.34 E45.148470
G1 X7.5 Y-12.34 E45.171050
G1 X7.5 Y12.34 E45.542440
G1 X9 Y12.34 E45.565020
G1 X9 Y-12.34 E45.936410
G1 X10.5 Y-12.34 E45.958990
G1 X10.5 Y12.34 E46.330380
G1 X12 Y12.34 E46.352960
G1 X12 Y-12.34 E46.724350
G0 F1200 X12 Y-12.1
G0 F1200 X-12 Y12.34 Z1.400000
G1 F600 X-12 Y-12.34 E47.095740
G1 X-10.5 Y-12.34 E47.118320
G1 X-10.5 Y12.34 E47.489710
G1 X-9 Y12.34 E47.512290
G1 X-9 Y-12.34 E47.883680
G1 X-7.5 Y-12.34 E47.906260
G1 X-7.5 Y12.34 E48.277650
G1 X-6 Y12.34 E48.300230
G1 X-6 Y-12.34 E48.671620
G1 X-4.5 Y-12.34 E48.694200
G1 X-4.5 Y12.34 E49.065590
G1 X-3 Y12.34 E49.088170
G1 X-3 Y-12.34 E49.459560
G1 X-1.5 Y-12.34 E49.482140
G1 X-1.5 Y12.34 E49.853530
G1 X0.00 Y12.34 E49.876110
G1 X0.00 Y-12.34 E50.247500
G1 X1.5 Y-12.34 E50.270080
G1 X1.5 Y12.34 E50.641470
G1 X3 Y12.34 E50.664050
G1 X3 Y-12.34 E51.035440
G1 X4.5 Y-12.34 E51.058020
G1 X4.5 Y12.34 E51.429410
G1 X6 Y12.34 E51.451990
G1 X6 Y-12.34 E51.823380
G1 X7.5 Y-12.34 E51.845960
G1 X7.5 Y12.34 E52.217350
G1 X9 Y12.34 E52.239930
G1 X9 Y-12.34 E52.611320
G1 X10.5 Y-12.34 E52.633900
G1 X10.5 Y12.34 E53.005290
G1 X12 Y12.34 E53.027870
G1 X12 Y-12.34 E53.399260
G0 F1200 X12 Y-12.1
G0 F1200 X-12 Y12.34 Z1.600000
G1 F600 X-12 Y-12.34 E53.770650
G1 X-10.5 Y-12.34 E53.793230
G1 X-10.5 Y12.34 E54.164620
G1 X-9 Y12.34 E54.187200
G1 X-9 Y-12.34 E54.558590
G1 X-7.5 Y-12.34 E54.581170
G1 X-7.5 Y12.34 E54.952560
G1 X-6 Y12.34 E54.975140
G1 X-6 Y-12.34 E55.346530
G1 X-4.5 Y-12.34 E55.369110
G1 X-4.5 Y12.34 E55.740500
G1 X-3 Y12.34 E55.763080
G1 X-3 Y-12.34 E56.134470
G1 X-1.5 Y-12.34 E56.157050
G1 X-1.5 Y12.34 E56.528440
G1 X0.00 Y12.34 E56.551020
G1 X0.00 Y-12.34 E56.922410
G1 X1.5 Y-12.34 E56.944990
G1 X1.5 Y12.34 E57.316380
G1 X3 Y12.34 E57.338960
G1 X3 Y-12.34 E57.710350
G1 X4.5 Y-12.34 E57.732930
G1 X4.5 Y12.34 E58.104320
G1 X6 Y12.34 E58.126900
G1 X6 Y-12.34 E58.498290
G1 X7.5 Y-12.34 E58.520870
G1 X7.5 Y12.34 E58.892260
G1 X9 Y12.34 E58.914840
G1 X9 Y-12.34 E59.286230
G1 X10.5 Y-12.34 E59.308810
G1 X10.5 Y12.34 E59.680200
G1 X12 Y12.34 E59.702780
G1 X12 Y-12.34 E60.074170
G0 F1200 X12 Y-12.1
;MESH:NONMESH
G0 X12.34 Y12
;TIME_ELAPSED:199.392282
;LAYER:3
;TYPE:FILL
G0 X12.34 Y12 Z1.800000
G1 F600 X-12.34 Y12 E60.445560
G1 X-12.34 Y10.5 E60.468130
G1 X12.34 Y10.5 E60.839530
G1 X12.34 Y9 E60.862100
G1 X-12.34 Y9 E61.233500
G1 X-12.34 Y7.499 E61.256070
G1 X12.34 Y7.5 E61.627470
G1 X12.34 Y6 E61.650040
G1 X-12.34 Y5.999 E62.021440
G1 X-12.34 Y4.499 E62.044010
G1 X12.34 Y4.5 E62.415410
G1 X12.34 Y3 E62.437980
G1 X-12.34 Y2.999 E62.809380
G1 X-12.34 Y1.499 E62.831950
G1 X12.34 Y1.5 E63.203350
G1 X12.34 Y0.00 E63.225920
G1 X-12.34 Y0.00 E63.597320
G1 X-12.34 Y-1.5 E63.619890
G1 X12.34 Y-1.499 E63.991290
G1 X12.34 Y-2.999 E64.013860
G1 X-12.34 Y-3 E64.385260
G1 X-12.34 Y-4.5 E64.407830
G1 X12.34 Y-4.499 E64.779230
G1 X12.34 Y-5.999 E64.801800
G1 X-12.34 Y-6 E65.173200
G1 X-12.34 Y-7.5 E65.195770
G1 X12.34 Y-7.499 E65.567170
G1 X12.34 Y-9 E65.589740
G1 X-12.34 Y-9 E65.961140
G1 X-12.34 Y-10.5 E65.983710
G1 X12.34 Y-10.5 E66.355110
G1 X12.34 Y-12 E66.377680
G1 X-12.34 Y-12 E66.749080
G0 F1200 X-12.1 Y-12
G0 X12.34 Y12 Z2.000000
G1 F600 X-12.34 Y12 E67.120480
G1 X-12.34 Y10.5 E67.143050
G1 X12.34 Y10.5 E67.514450
G1 X12.34 Y9 E67.537020
G1 X-12.34 Y9 E67.908420
G1 X-12.34 Y7.499 E67.930990
G1 X12.34 Y7.5 E68.302390
G1 X12.34 Y6 E68.324960
G1 X-12.34 Y5.999 E68.696360
G1 X-12.34 Y4.499 E68.718930
G1 X12.34 Y4.5 E69.090330
G1 X12.34 Y3 E69.112900
G1 X-12.34 Y2.999 E69.484300
G1 X-12.34 Y1.499 E69.506870
G1 X12.34 Y1.5 E69.878270
G1 X12.34 Y0.00 E69.900840
G1 X-12.34 Y0.00 E70.272240
G1 X-12.34 Y-1.5 E70.294810
G1 X12.34 Y-1.499 E70.666210
G1 X12.34 Y-2.999 E70.688780
G1 X-12.34 Y-3 E71.060180
G1 X-12.34 Y-4.5 E71.082750
G1 X12.34 Y-4.499 E71.454150
G1 X12.34 Y-5.999 E71.476720
G1 X-12.34 Y-6 E71.848120
G1 X-12.34 Y-7.5 E71.870690
G1 X12.34 Y-7.499 E72.242090
G1 X12.34 Y-9 E72.264660
G1 X-12.34 Y-9 E72.636060
G1 X-12.34 Y-10.5 E72.658630
G1 X12.34 Y-10.5 E73.030030
G1 X12.34 Y-12 E73.052600
G1 X-12.34 Y-12 E73.424000
G0 F1200 X-12.1 Y-12
G0 X12.34 Y12 Z2.200000
G1 F600 X-12.34 Y12 E73.795400
G1 X-12.34 Y10.5 E73.817970
G1 X12.34 Y10.5 E74.189370
G1 X12.34 Y9 E74.211940
G1 X-12.34 Y9 E74.583340
G1 X-12.34 Y7.499 E74.605910
G1 X12.34 Y7.5 E74.977310
G1 X12.34 Y6 E74.999880
G1 X-12.34 Y5.999 E75.371280
G1 X-12.34 Y4.499 E75.393850
G1 X12.34 Y4.5 E75.765250
G1 X12.34 Y3 E75.787820
G1 X-12.34 Y2.999 E76.159220
G1 X-12.34 Y1.499 E76.181790
G1 X12.34 Y1.5 E76.553190
G1 X12.34 Y0.00 E76.575760
G1 X-12.34 Y0.00 E76.947160
G1 X-12.34 Y-1.5 E76.969730
G1 X12.34 Y-1.499 E77.341130
G1 X12.34 Y-2.999 E77.363700
G1 X-12.34 Y-3 E77.735100
G1 X-12.34 Y-4.5 E77.757670
G1 X12.34 Y-4.499 E78.129070
G1 X12.34 Y-5.999 E78.151640
G1 X-12.34 Y-6 E78.523040
G1 X-12.34 Y-7.5 E78.545610
G1 X12.34 Y-7.499 E78.917010
G1 X12.34 Y-9 E78.939580
G1 X-12.34 Y-9 E79.310980
G1 X-12.34 Y-10.5 E79.333550
G1 X12.34 Y-10.5 E79.704950
G1 X12.34 Y-12 E79.727520
G1 X-12.34 Y-12 E80.098920
G0 F1200 X-12.1 Y-12
G0 X12.34 Y12 Z2.400000
G1 F600 X-12.34 Y12 E80.470320
G1 X-12.34 Y10.5 E80.492890
G1 X12.34 Y10.5 E80.864290
G1 X12.34 Y9 E80.886860
G1 X-12.34 Y9 E81.258260
G1 X-12.34 Y7.499 E81.280830
G1 X12.34 Y7.5 E81.652230
G1 X12.34 Y6 E81.674800
G1 X-12.34 Y5.999 E82.046200
G1 X-12.34 Y4.499 E82.068770
G1 X12.34 Y4.5 E82.440170
G1 X12.34 Y3 E82.462740
G1 X-12.34 Y2.999 E82.834140
G1 X-12.34 Y1.499 E82.856710
G1 X12.34 Y1.5 E83.228110
G1 X12.34 Y0.00 E83.250680
G1 X-12.34 Y0.00 E83.622080
G1 X-12.34 Y-1.5 E83.644650
G1 X12.34 Y-1.499 E84.016050
G1 X12.34 Y-2.999 E84.038620
G1 X-12.34 Y-3 E84.410020
G1 X-12.34 Y-4.5 E84.432590
G1 X12.34 Y-4.499 E84.803990
G1 X12.34 Y-5.999 E84.826560
G1 X-12.34 Y-6 E85.197960
G1 X-12.34 Y-7.5 E85.220530
G1 X12.34 Y-7.499 E85.591930
G1 X12.34 Y-9 E85.614500
G1 X-12.34 Y-9 E85.985900
G1 X-12.34 Y-10.5 E86.008470
G1 X12.34 Y-10.5 E86.379870
G1 X12.34 Y-12 E86.402440
G1 X-12.34 Y-12 E86.773840
G0 F1200 X-12.1 Y-12
;MESH:NONMESH
G0 X-12 Y12.34
;TIME_ELAPSED:245.062288
;LAYER:4
;TYPE:FILL
G0 X-12 Y12.34 Z2.600000
G1 F600 X-12 Y-12.34 E87.145240
G1 X-10.5 Y-12.34 E87.167810
G1 X-10.5 Y12.34 E87.539210
G1 X-9 Y12.34 E87.561780
G1 X-9 Y-12.34 E87.933180
G1 X-7.5 Y-12.34 E87.955750
G1 X-7.5 Y12.34 E88.327150
G1 X-6 Y12.34 E88.349720
G1 X-6 Y-12.34 E88.721120
G1 X-4.5 Y-12.34 E88.743690
G1 X-4.5 Y12.34 E89.115090
G1 X-3 Y12.34 E89.137660
G1 X-3 Y-12.34 E89.509060
G1 X-1.5 Y-12.34 E89.531630
G1 X-1.5 Y12.34 E89.903030
G1 X0.00 Y12.34 E89.925600
G1 X0.00 Y-12.34 E90.297000
G1 X1.5 Y-12.34 E90.319570
G1 X1.5 Y12.34 E90.690970
G1 X3 Y12.34 E90.713540
G1 X3 Y-12.34 E91.084940
G1 X4.5 Y-12.34 E91.107510
G1 X4.5 Y12.34 E91.478910
G1 X6 Y12.34 E91.501480
G1 X6 Y-12.34 E91.872880
G1 X7.5 Y-12.34 E91.895450
G1 X7.5 Y12.34 E92.266850
G1 X9 Y12.34 E92.289420
G1 X9 Y-12.34 E92.660820
G1 X10.5 Y-12.34 E92.683390
G1 X10.5 Y12.34 E93.054790
G1 X12 Y12.34 E93.077360
G1 X12 Y-12.34 E93.448760
G0 F1200 X12 Y-12.1
G0 X-12 Y12.34 Z2.800000
G1 F600 X-12 Y-12.34 E93.820160
G1 X-10.5 Y-12.34 E93.842730
G1 X-10.5 Y12.34 E94.214130
G1 X-9 Y12.34 E94.236700
G1 X-9 Y-12.34 E94.608100
G1 X-7.5 Y-12.34 E94.630670
G1 X-7.5 Y12.34 E95.002070
G1 X-6 Y12.34 E95.024640
G1 X-6 Y-12.34 E95.396040
G1 X-4.5 Y-12.34 E95.418610
G1 X-4.5 Y12.34 E95.790010
G1 X-3 Y12.34 E95.812580
G1 X-3 Y-12.34 E96.183980
G1 X-1.5 Y-12.34 E96.206550
G1 X-1.5 Y12.34 E96.577950
G1 X0.00 Y12.34 E96.600520
G1 X0.00 Y-12.34 E96.971920
G1 X1.5 Y-12.34 E96.994490
G1 X1.5 Y12.34 E97.365890
G1 X3 Y12.34 E97.388460
G1 X3 Y-12.34 E97.759860
G1 X4.5 Y-12.34 E97.782430
G1 X4.5 Y12.34 E98.153830
G1 X6 Y12.34 E98.176400
G1 X6 Y-12.34 E98.547800
G1 X7.5 Y-12.34 E98.570370
G1 X7.5 Y12.34 E98.941770
G1 X9 Y12.34 E98.964340
G1 X9 Y-12.34 E99.335740
G1 X10.5 Y-12.34 E99.358310
G1 X10.5 Y12.34 E99.729710
G1 X12 Y12.34 E99.752280
G1 X12 Y-12.34 E100.123680
G0 F1200 X12 Y-12.1
G0 X-12 Y12.34 Z3.000000
G1 F600 X-12 Y-12.34 E100.495080
G1 X-10.5 Y-12.34 E100.517650
G1 X-10.5 Y12.34 E100.889050
G1 X-9 Y12.34 E100.911620
G1 X-9 Y-12.34 E101.283020
G1 X-7.5 Y-12.34 E101.305590
G1 X-7.5 Y12.34 E101.676990
G1 X-6 Y12.34 E101.699560
G1 X-6 Y-12.34 E102.070960
G1 X-4.5 Y-12.34 E102.093530
G1 X-4.5 Y12.34 E102.464930
G1 X-3 Y12.34 E102.487500
G1 X-3 Y-12.34 E102.858900
G1 X-1.5 Y-12.34 E102.881470
G1 X-1.5 Y12.34 E103.252870
G1 X0.00 Y12.34 E103.275440
G1 X0.00 Y-12.34 E103.646840
G1 X1.5 Y-12.34 E103.669410
G1 X1.5 Y12.34 E104.040810
G1 X3 Y12.34 E104.063380
G1 X3 Y-12.34 E104.434780
G1 X4.5 Y-12.34 E104.457350
G1 X4.5 Y12.34 E104.828750
G1 X6 Y12.34 E104.851320
G1 X6 Y-12.34 E105.222720
G1 X7.5 Y-12.34 E105.245290
G1 X7.5 Y12.34 E105.616690
G1 X9 Y12.34 E105.639260
G1 X9 Y-12.34 E106.010660
G1 X10.5 Y-12.34 E106.033230
G1 X10.5 Y12.34 E106.404630
G1 X12 Y12.34 E106.427200
G1 X12 Y-12.34 E106.798600
G0 F1200 X12 Y-12.1
G0 X-12 Y12.34 Z3.200000
G1 F600 X-12 Y-12.34 E107.170000
G1 X-10.5 Y-12.34 E107.192570
G1 X-10.5 Y12.34 E107.563970
G1 X-9 Y12.34 E107.586540
G1 X-9 Y-12.34 E107.957940
G1 X-7.5 Y-12.34 E107.980510
G1 X-7.5 Y12.34 E108.351910
G1 X-6 Y12.34 E108.374480
G1 X-6 Y-12.34 E108.745880
