;FLAVOR:Marlin
;TIME:1202
;Filament used: 0.166873m
;Layer height: 0.2
;Generated with Cura_SteamEngine 3.6.0
M104 S200
M105
M109 S200
M82 ;absolute extrusion mode
G21 ;metric values
G90 ;absolute positioning
M82 ;set extruder to absolute mode
M107 ;start with the fan off
G28 ;move XYZ to min endstops
G1 Z15.0 F9000 ;move the platform down 15mm
G1 F9000
;Put printing message on LCD screen
M117 Printing...
G92 E0
;LAYER_COUNT:26
;LAYER:0
M107
;MESH:Box_1_testhybrid.stl
G0 F600 X-12 Y12.34 Z0.2
;TYPE:FILL
G1 F300 X-12 Y-12.34 E0.3714
G1 X-10.5 Y-12.34 E0.39397
G1 X-10.5 Y12.34 E0.76536
G1 X-9 Y12.34 E0.78794
G1 X-9 Y-12.34 E1.15933
G1 X-7.5 Y-12.34 E1.1819
G1 X-7.5 Y12.34 E1.5533
G1 X-6 Y12.34 E1.57587
G1 X-6 Y-12.34 E1.94727
G1 X-4.5 Y-12.34 E1.96984
G1 X-4.5 Y12.34 E2.34124
G1 X-3 Y12.34 E2.36381
G1 X-3 Y-12.34 E2.73521
G1 X-1.5 Y-12.34 E2.75778
G1 X-1.5 Y12.34 E3.12917
G1 X0.00 Y12.34 E3.15175
G1 X0.00 Y-12.34 E3.52314
G1 X1.5 Y-12.34 E3.54571
G1 X1.5 Y12.34 E3.91711
G1 X3 Y12.34 E3.93968
G1 X3 Y-12.34 E4.31108
G1 X4.5 Y-12.34 E4.33365
G1 X4.5 Y12.34 E4.70505
G1 X6 Y12.34 E4.72762
G1 X6 Y-12.34 E5.09902
G1 X7.5 Y-12.34 E5.12159
G1 X7.5 Y12.34 E5.49298
G1 X9 Y12.34 E5.51556
G1 X9 Y-12.34 E5.88695
G1 X10.5 Y-12.34 E5.90952
G1 X10.5 Y12.34 E6.28092
G1 X12 Y12.34 E6.30349
G1 X12 Y-12.34 E6.67489
G0 F600 X12 Y-12.1
;MESH:NONMESH
G0 X12.34 Y12
;TIME_ELAPSED:92.869485
;LAYER:1
M106 S255
;MESH:Box_1_testhybrid.stl
; ********adding intermediate scaffold layer********
