;FLAVOR:Marlin
;TIME:1202
;Filament used: 0.166873m
;Layer height: 0.2
;Generated with Cura_SteamEngine 3.6.0
M104 S200
M105
M109 S200
M82 ;absolute extrusion mode
G21 ;metric values
G90 ;absolute positioning
M82 ;set extruder to absolute mode
M107 ;start with the fan off
G28 ;move XYZ to min endstops
G1 Z15.0 F9000 ;move the platform down 15mm
G1 F9000
;Put printing message on LCD screen
M117 Printing...
G92 E0
;LAYER_COUNT:26
;LAYER:0
M107
;MESH:Box_1_testhybrid.stl
G0 F600 X-12 Y12.34 Z0.2
;TYPE:FILL
G1 F300 X-12 Y-12.34 E0.3714
G1 X-10.5 Y-12.34 E0.39397
G1 X-10.5 Y12.34 E0.76536
G1 X-9 Y12.34 E0.78794
G1 X-9 Y-12.34 E1.15933
G1 X-7.5 Y-12.34 E1.1819
G1 X-7.5 Y12.34 E1.5533
G1 X-6 Y12.34 E1.57587
G1 X-6 Y-12.34 E1.94727
G1 X-4.5 Y-12.34 E1.96984
G1 X-4.5 Y12.34 E2.34124
G1 X-3 Y12.34 E2.36381
G1 X-3 Y-12.34 E2.73521
G1 X-1.5 Y-12.34 E2.75778
G1 X-1.5 Y12.34 E3.12917
G1 X0.00 Y12.34 E3.15175
G1 X0.00 Y-12.34 E3.52314
G1 X1.5 Y-12.34 E3.54571
G1 X1.5 Y12.34 E3.91711
G1 X3 Y12.34 E3.93968
G1 X3 Y-12.34 E4.31108
G1 X4.5 Y-12.34 E4.33365
G1 X4.5 Y12.34 E4.70505
G1 X6 Y12.34 E4.72762
G1 X6 Y-12.34 E5.09902
G1 X7.5 Y-12.34 E5.12159
G1 X7.5 Y12.34 E5.49298
G1 X9 Y12.34 E5.51556
G1 X9 Y-12.34 E5.88695
G1 X10.5 Y-12.34 E5.90952
G1 X10.5 Y12.34 E6.28092
G1 X12 Y12.34 E6.30349
G1 X12 Y-12.34 E6.67489
G0 F600 X12 Y-12.1
;MESH:NONMESH
G0 X12.34 Y12
;TIME_ELAPSED:92.869485
;LAYER:1
M106 S255
;MESH:Box_1_testhybrid.stl
G0 F900 X12.34 Y12 Z0.4
;TYPE:FILL
G1 F450 X-12.34 Y12 E7.04628
G1 X-12.34 Y10.5 E7.06886
G1 X12.34 Y10.5 E7.44025
G1 X12.34 Y9 E7.46282
G1 X-12.34 Y9 E7.83422
G1 X-12.34 Y7.499 E7.85681
G1 X12.34 Y7.5 E8.2282
G1 X12.34 Y6 E8.25078
G1 X-12.34 Y5.999 E8.62217
G1 X-12.34 Y4.499 E8.64474
G1 X12.34 Y4.5 E9.01614
G1 X12.34 Y3 E9.03871
G1 X-12.34 Y2.999 E9.41011
G1 X-12.34 Y1.499 E9.43268
G1 X12.34 Y1.5 E9.80408
G1 X12.34 Y0.00 E9.82665
G1 X-12.34 Y0.00 E10.19805
G1 X-12.34 Y-1.5 E10.22062
G1 X12.34 Y-1.499 E10.59201
G1 X12.34 Y-2.999 E10.61459
G1 X-12.34 Y-3 E10.98598
G1 X-12.34 Y-4.5 E11.00855
G1 X12.34 Y-4.499 E11.37995
G1 X12.34 Y-5.999 E11.40252
G1 X-12.34 Y-6 E11.77392
G1 X-12.34 Y-7.5 E11.79649
G1 X12.34 Y-7.499 E12.16789
G1 X12.34 Y-9 E12.19047
G1 X-12.34 Y-9 E12.56187
G1 X-12.34 Y-10.5 E12.58444
G1 X12.34 Y-10.5 E12.95584
G1 X12.34 Y-12 E12.97841
G1 X-12.34 Y-12 E13.34981
G0 F900 X-12.1 Y-12
;MESH:NONMESH
G0 X-12 Y12.34
;TIME_ELAPSED:153.734791
;LAYER:2
;MESH:Box_1_testhybrid.stl
G0 F1200 X-12 Y12.34 Z0.6
;TYPE:FILL
G1 F600 X-12 Y-12.34 E13.7212
G1 X-10.5 Y-12.34 E13.74378
G1 X-10.5 Y12.34 E14.11517
G1 X-9 Y12.34 E14.13774
G1 X-9 Y-12.34 E14.50914
G1 X-7.5 Y-12.34 E14.53171
G1 X-7.5 Y12.34 E14.90311
G1 X-6 Y12.34 E14.92568
G1 X-6 Y-12.34 E15.29708
G1 X-4.5 Y-12.34 E15.31965
G1 X-4.5 Y12.34 E15.69104
G1 X-3 Y12.34 E15.71362
G1 X-3 Y-12.34 E16.08501
G1 X-1.5 Y-12.34 E16.10758
G1 X-1.5 Y12.34 E16.47898
G1 X0.00 Y12.34 E16.50155
G1 X0.00 Y-12.34 E16.87295
G1 X1.5 Y-12.34 E16.89552
G1 X1.5 Y12.34 E17.26692
G1 X3 Y12.34 E17.28949
G1 X3 Y-12.34 E17.66089
G1 X4.5 Y-12.34 E17.68346
G1 X4.5 Y12.34 E18.05485
G1 X6 Y12.34 E18.07743
G1 X6 Y-12.34 E18.44882
G1 X7.5 Y-12.34 E18.47139
G1 X7.5 Y12.34 E18.84279
G1 X9 Y12.34 E18.86536
G1 X9 Y-12.34 E19.23676
G1 X10.5 Y-12.34 E19.25933
G1 X10.5 Y12.34 E19.63073
G1 X12 Y12.34 E19.6533
G1 X12 Y-12.34 E20.0247
G0 F1200 X12 Y-12.1
;MESH:NONMESH
G0 X12.34 Y12
;TIME_ELAPSED:199.392282
;LAYER:3
;MESH:Box_1_testhybrid.stl
; ********adding intermediate scaffold layer********
