;FLAVOR:Marlin
;TIME:178
;Filament used: 0.0550556m
;Layer height: 1.2
;Generated with Cura_SteamEngine 3.6.0
M104 S200
M105
M109 S200
M82 ;absolute extrusion mode
G21 ;metric values
G90 ;absolute positioning
M82 ;set extruder to absolute mode
M107 ;start with the fan off
G28 ;move XYZ to min endstops
G1 Z15.0 F9000 ;move the platform down 15mm
G1 F9000
;Put printing message on LCD screen
M117 Printing...
G92 E0
;LAYER_COUNT:10
;LAYER:0
M107
;MESH:rectangle_w_hole.STL
G0 F600 X-3.2 Y-2.877 Z0.3
;TYPE:FILL
G1 F150 X-3.2 Y-3.2 E0.00729
G1 X-2.864 Y-3.2 E0.01488
G1 X-3.2 Y-2.877 E0.0254
G0 F600 X-2.477 Y-2.184
G1 F150 X-2.795 Y-1.758 E0.0374
G1 X-3.041 Y-1.286 E0.04941
G1 X-3.208 Y-.782 E0.06139
G1 X-3.292 Y-.258 E0.07337
G1 X-3.291 Y0.274 E0.08538
G1 X-3.204 Y0.798 E0.09737
G1 X-3.035 Y1.301 E0.10935
G1 X-2.786 Y1.771 E0.12136
G1 X-2.467 Y2.196 E0.13335
G1 X-2.082 Y2.563 E0.14536
G1 X-1.645 Y2.864 E0.15734
G1 X-1.163 Y3.091 E0.16936
G1 X-.652 Y3.237 E0.18136
G1 X-.126 Y3.3 E0.19332
G1 X0.406 Y3.278 E0.20534
G1 X0.927 Y3.169 E0.21735
G1 X1.423 Y2.98 E0.22933
G1 X1.883 Y2.712 E0.24135
G1 X2.293 Y2.376 E0.25331
G1 X2.645 Y1.978 E0.26531
G1 X2.928 Y1.526 E0.27735
G1 X3.134 Y1.038 E0.2893
G1 X3.26 Y0.523 E0.30127
G1 X3.303 Y-0.007 E0.31327
G1 X3.259 Y-.538 E0.3253
G1 X3.13 Y-1.054 E0.33731
G1 X2.921 Y-1.541 E0.34927
G1 X2.635 Y-1.991 E0.3613
G1 X2.281 Y-2.388 E0.37331
G1 X1.869 Y-2.721 E0.38527
G1 X1.408 Y-2.987 E0.39728
G1 X0.911 Y-3.173 E0.40926
G1 X0.39 Y-3.279 E0.42126
G1 X-.142 Y-3.299 E0.43328
G1 X-.668 Y-3.233 E0.44525
G1 X-1.177 Y-3.085 E0.45721
G1 X-1.658 Y-2.856 E0.46924
G1 X-2.094 Y-2.553 E0.48122
G1 X-2.477 Y-2.184 E0.49323
G0 F600 X-4.2 Y-4.2
G1 F150 X4.2 Y-4.2 E0.68284
G1 X4.2 Y4.2 E0.87245
G1 X-4.2 Y4.2 E1.06206
G1 X-4.2 Y-4.2 E1.25167
G0 F600 X2.867 Y-3.2
G1 F150 X3.2 Y-3.2 E1.25918
G1 X3.2 Y-2.859 E1.26688
G1 X2.973 Y-3.114 E1.27459
G1 X2.867 Y-3.2 E1.27767
G0 F600 X2.866 Y3.2
G1 F150 X2.989 Y3.099 E1.28126
G1 X3.2 Y2.86 E1.28846
G1 X3.2 Y3.2 E1.29613
G1 X2.866 Y3.2 E1.30367
G0 F600 X-3.2 Y2.879
G1 F150 X-2.864 Y3.2 E1.31416
G1 X-3.2 Y3.2 E1.32175
G1 X-3.2 Y2.879 E1.32899
;MESH:cylinder_for_rect.STL
G0 F600 X-4.98 Y3.32
G0 X-5.665 Y3.32
G0 X-8.86 Y3.617
G0 X-9.542 Y3.662
G0 X-11.854 Y3.32
;TYPE:FILL
G1 F150 X-11.768 Y3.344 E1.33101
G1 X-11.682 Y3.381 E1.33312
G1 X-11.597 Y3.433 E1.33537
G1 X-11.527 Y3.49 E1.33741
G1 X-11.462 Y3.559 E1.33955
G1 X-11.402 Y3.643 E1.34188
G1 X-11.364 Y3.717 E1.34375
G1 X-11.33 Y3.814 E1.34607
G1 X-11.31 Y3.908 E1.34824
G1 X-11.304 Y4 E1.35033
G1 X-11.31 Y4.092 E1.35241
G1 X-11.33 Y4.186 E1.35458
G1 X-11.364 Y4.283 E1.3569
G1 X-11.402 Y4.357 E1.35877
G1 X-11.462 Y4.441 E1.3611
G1 X-11.527 Y4.51 E1.36324
G1 X-11.597 Y4.567 E1.36528
G1 X-11.682 Y4.619 E1.36753
G1 X-11.768 Y4.656 E1.36964
G1 X-11.854 Y4.68 E1.37166
G1 X-11.954 Y4.694 E1.37394
G1 X-12.046 Y4.694 E1.37602
G1 X-12.146 Y4.68 E1.37829
G1 X-12.232 Y4.656 E1.38031
G1 X-12.318 Y4.619 E1.38242
G1 X-12.403 Y4.567 E1.38467
G1 X-12.473 Y4.51 E1.38671
G1 X-12.538 Y4.441 E1.38885
G1 X-12.598 Y4.357 E1.39118
G1 X-12.636 Y4.283 E1.39306
G1 X-12.67 Y4.186 E1.39538
G1 X-12.69 Y4.092 E1.39755
G1 X-12.696 Y4 E1.39963
G1 X-12.69 Y3.908 E1.40171
G1 X-12.67 Y3.814 E1.40388
G1 X-12.636 Y3.717 E1.4062
G1 X-12.598 Y3.643 E1.40808
G1 X-12.538 Y3.559 E1.41041
G1 X-12.473 Y3.49 E1.41255
G1 X-12.403 Y3.433 E1.41458
G1 X-12.318 Y3.381 E1.41683
G1 X-12.232 Y3.344 E1.41895
G1 X-12.146 Y3.32 E1.42096
G1 X-12.046 Y3.306 E1.42324
G1 X-11.954 Y3.306 E1.42532
G1 X-11.854 Y3.32 E1.4276
G0 F600 X-11.65 Y2.338
G1 F150 X-11.436 Y2.398 E1.43261
G1 X-11.215 Y2.494 E1.43805
G1 X-11.02 Y2.613 E1.44321
G1 X-10.844 Y2.756 E1.44833
G1 X-10.683 Y2.929 E1.45366
G1 X-10.547 Y3.12 E1.45896
G1 X-10.443 Y3.322 E1.46408
G1 X-10.365 Y3.542 E1.46935
G1 X-10.317 Y3.771 E1.47463
G1 X-10.302 Y4 E1.47981
G1 X-10.317 Y4.229 E1.48499
G1 X-10.365 Y4.458 E1.49028
G1 X-10.443 Y4.678 E1.49555
G1 X-10.547 Y4.88 E1.50067
G1 X-10.683 Y5.071 E1.50597
G1 X-10.844 Y5.244 E1.5113
G1 X-11.02 Y5.387 E1.51642
G1 X-11.215 Y5.506 E1.52158
G1 X-11.436 Y5.602 E1.52702
G1 X-11.65 Y5.662 E1.53203
G1 X-11.886 Y5.694 E1.53741
G1 X-12.114 Y5.694 E1.54255
G1 X-12.35 Y5.662 E1.54793
G1 X-12.564 Y5.602 E1.55295
G1 X-12.785 Y5.506 E1.55839
G1 X-12.98 Y5.387 E1.56354
G1 X-13.156 Y5.244 E1.56866
G1 X-13.317 Y5.071 E1.574
G1 X-13.453 Y4.88 E1.57929
G1 X-13.557 Y4.678 E1.58442
G1 X-13.635 Y4.458 E1.58969
G1 X-13.683 Y4.229 E1.59497
G1 X-13.698 Y4 E1.60015
G1 X-13.683 Y3.771 E1.60533
G1 X-13.635 Y3.542 E1.61061
G1 X-13.557 Y3.322 E1.61588
G1 X-13.453 Y3.12 E1.62101
G1 X-13.317 Y2.929 E1.6263
G1 X-13.156 Y2.756 E1.63163
G1 X-12.98 Y2.613 E1.63675
G1 X-12.785 Y2.494 E1.64191
G1 X-12.564 Y2.398 E1.64735
G1 X-12.35 Y2.338 E1.65237
G1 X-12.114 Y2.306 E1.65774
G1 X-11.886 Y2.306 E1.66289
G1 X-11.65 Y2.338 E1.66826
;MESH:NONMESH
G0 F600 X-10.307 Y2.187
G0 X-9.544 Y2.001
G0 X-5.665 Y2.187
G0 X-4.98 Y2.187
G0 X-3.2 Y-2.877
;TIME_ELAPSED:34.599368
;LAYER:1
M106 S255
;MESH:rectangle_w_hole.STL
; ********adding intermediate scaffold layer********
