;FLAVOR:Marlin
;TIME:674
;Filament used: 0.177387m
;Layer height: 0.2
;Generated with Cura_SteamEngine 3.6.0
M104 S200
M105
M109 S200
M82 ;absolute extrusion mode
G21 ;metric values
G90 ;absolute positioning
M82 ;set extruder to absolute mode
M107 ;start with the fan off
G28 ;move XYZ to min endstops
G1 Z15.0 F9000 ;move the platform down 15mm
G1 F9000
;Put printing message on LCD screen
M117 Printing...
G92 E0
;LAYER_COUNT:41
;LAYER:0
M107
G0 F600 X-1.37 Y8.879 Z0.1
;TYPE:SKIRT
G1 F450 X-4.611 Y8.981 E0.0366
G1 X-4.734 Y8.983 E0.03799
G1 X-14.988 Y8.991 E0.15372
G1 X-15.552 Y8.951 E0.1601
G1 X-16.105 Y8.833 E0.16648
G1 X-16.635 Y8.638 E0.17285
G1 X-17.133 Y8.369 E0.17924
G1 X-17.588 Y8.034 E0.18562
G1 X-17.991 Y7.637 E0.192
G1 X-18.334 Y7.188 E0.19838
G1 X-18.61 Y6.695 E0.20476
G1 X-18.814 Y6.167 E0.21114
G1 X-18.942 Y5.617 E0.21752
G1 X-18.991 Y4.991 E0.22461
G1 X-18.991 Y-4.991 E0.33727
G1 X-18.951 Y-5.555 E0.34365
G1 X-18.832 Y-6.108 E0.35003
G1 X-18.636 Y-6.638 E0.35641
G1 X-18.368 Y-7.135 E0.36278
G1 X-18.032 Y-7.59 E0.36917
G1 X-17.635 Y-7.993 E0.37555
G1 X-17.185 Y-8.335 E0.38193
G1 X-16.692 Y-8.611 E0.38831
G1 X-16.164 Y-8.815 E0.39469
G1 X-15.614 Y-8.942 E0.40107
G1 X-14.963 Y-8.991 E0.40843
G1 X1.371 Y-8.879 E0.59279
G1 X4.611 Y-8.981 E0.62937
G1 X4.734 Y-8.983 E0.63076
G1 X14.988 Y-8.99 E0.74649
G1 X15.552 Y-8.95 E0.75287
G1 X16.105 Y-8.832 E0.75926
G1 X16.635 Y-8.636 E0.76563
G1 X17.133 Y-8.368 E0.77202
G1 X17.588 Y-8.032 E0.7784
G1 X17.991 Y-7.636 E0.78478
G1 X18.334 Y-7.187 E0.79115
G1 X18.61 Y-6.693 E0.79754
G1 X18.814 Y-6.166 E0.80392
G1 X18.942 Y-5.615 E0.8103
G1 X18.991 Y-4.99 E0.81738
G1 X18.991 Y4.991 E0.93003
G1 X18.951 Y5.555 E0.93641
G1 X18.832 Y6.108 E0.94279
G1 X18.636 Y6.638 E0.94917
G1 X18.368 Y7.135 E0.95554
G1 X18.032 Y7.59 E0.96193
G1 X17.635 Y7.993 E0.96831
G1 X17.185 Y8.335 E0.97469
G1 X16.692 Y8.611 E0.98107
G1 X16.164 Y8.815 E0.98746
G1 X15.614 Y8.942 E0.99383
G1 X14.963 Y8.991 E1.0012
G1 X-1.37 Y8.879 E1.18554
G0 F600 X-1.38 Y8.478
G1 F450 X-4.623 Y8.581 E1.22216
G1 X-4.734 Y8.583 E1.22341
G1 X-14.988 Y8.591 E1.33914
G1 X-15.523 Y8.551 E1.3452
G1 X-16.046 Y8.433 E1.35125
G1 X-16.546 Y8.238 E1.35731
G1 X-17.011 Y7.971 E1.36336
G1 X-17.431 Y7.638 E1.36941
G1 X-17.797 Y7.246 E1.37546
G1 X-18.101 Y6.804 E1.38152
G1 X-18.336 Y6.322 E1.38757
G1 X-18.497 Y5.81 E1.39362
G1 X-18.579 Y5.281 E1.39967
G1 X-18.591 Y4.991 E1.40294
G1 X-18.591 Y-4.991 E1.5156
G1 X-18.551 Y-5.526 E1.52166
G1 X-18.432 Y-6.049 E1.52771
G1 X-18.237 Y-6.548 E1.53376
G1 X-17.969 Y-7.013 E1.53982
G1 X-17.636 Y-7.433 E1.54586
G1 X-17.244 Y-7.799 E1.55192
G1 X-16.802 Y-8.102 E1.55797
G1 X-16.319 Y-8.337 E1.56403
G1 X-15.808 Y-8.497 E1.57007
G1 X-15.278 Y-8.58 E1.57613
G1 X-14.966 Y-8.591 E1.57965
G1 X1.381 Y-8.478 E1.76415
G1 X4.623 Y-8.581 E1.80076
G1 X4.735 Y-8.583 E1.80202
G1 X14.989 Y-8.59 E1.91775
G1 X15.523 Y-8.55 E1.9238
G1 X16.046 Y-8.432 E1.92985
G1 X16.546 Y-8.237 E1.93591
G1 X17.011 Y-7.97 E1.94196
G1 X17.431 Y-7.637 E1.94801
G1 X17.797 Y-7.245 E1.95406
G1 X18.101 Y-6.803 E1.96012
G1 X18.336 Y-6.321 E1.96617
G1 X18.497 Y-5.809 E1.97223
G1 X18.579 Y-5.279 E1.97828
G1 X18.591 Y-4.99 E1.98154
G1 X18.591 Y4.991 E2.09419
G1 X18.551 Y5.526 E2.10025
G1 X18.432 Y6.049 E2.1063
G1 X18.237 Y6.548 E2.11235
G1 X17.969 Y7.013 E2.1184
G1 X17.636 Y7.433 E2.12445
G1 X17.244 Y7.799 E2.13051
G1 X16.802 Y8.102 E2.13655
G1 X16.319 Y8.337 E2.14262
G1 X15.808 Y8.497 E2.14866
G1 X15.278 Y8.58 E2.15472
G1 X14.966 Y8.591 E2.15824
G1 X-1.38 Y8.478 E2.34273
G0 F600 X-1.39 Y8.078
G1 F450 X-4.636 Y8.181 E2.37938
G1 X-4.735 Y8.183 E2.3805
G1 X-14.989 Y8.191 E2.49623
G1 X-15.493 Y8.151 E2.50194
G1 X-15.984 Y8.033 E2.50764
G1 X-16.451 Y7.839 E2.51334
G1 X-16.881 Y7.573 E2.51905
G1 X-17.264 Y7.243 E2.52476
G1 X-17.59 Y6.857 E2.53046
G1 X-17.852 Y6.424 E2.53617
G1 X-18.042 Y5.956 E2.54187
G1 X-18.156 Y5.463 E2.54758
G1 X-18.191 Y4.991 E2.55292
G1 X-18.191 Y-4.991 E2.66558
G1 X-18.151 Y-5.495 E2.67129
G1 X-18.032 Y-5.986 E2.67699
G1 X-17.838 Y-6.453 E2.6827
G1 X-17.572 Y-6.883 E2.68841
G1 X-17.242 Y-7.266 E2.69411
G1 X-16.855 Y-7.592 E2.69982
G1 X-16.422 Y-7.853 E2.70553
G1 X-15.954 Y-8.043 E2.71123
G1 X-15.461 Y-8.156 E2.71694
G1 X-14.969 Y-8.191 E2.72251
G1 X1.391 Y-8.078 E2.90715
G1 X4.636 Y-8.181 E2.9438
G1 X4.735 Y-8.183 E2.94492
G1 X14.989 Y-8.19 E3.06065
G1 X15.493 Y-8.15 E3.06635
G1 X15.984 Y-8.032 E3.07205
G1 X16.451 Y-7.838 E3.07776
G1 X16.881 Y-7.572 E3.08346
G1 X17.264 Y-7.242 E3.08917
G1 X17.591 Y-6.856 E3.09488
G1 X17.852 Y-6.423 E3.10059
G1 X18.042 Y-5.955 E3.10629
G1 X18.156 Y-5.462 E3.112
G1 X18.191 Y-4.99 E3.11734
G1 X18.191 Y4.991 E3.22999
G1 X18.151 Y5.495 E3.23569
G1 X18.032 Y5.986 E3.2414
G1 X17.838 Y6.453 E3.2471
G1 X17.572 Y6.883 E3.25281
G1 X17.242 Y7.266 E3.25852
G1 X16.855 Y7.592 E3.26423
G1 X16.422 Y7.853 E3.26993
G1 X15.954 Y8.043 E3.27563
G1 X15.461 Y8.156 E3.28134
G1 X14.969 Y8.191 E3.28691
G1 X-1.39 Y8.078 E3.47155
;MESH:rigid.STL
G0 F600 X-4.335 Y4.986
G0 X-5.014 Y4.986
G0 X-14 Y4.84
;TYPE:FILL
G1 F450 X-14 Y-4.84 E3.5808
G1 X-13 Y-4.84 E3.59209
G1 X-13 Y4.84 E3.70134
G1 X-12 Y4.84 E3.71262
G1 X-12 Y-4.84 E3.82188
G1 X-11 Y-4.84 E3.83316
G1 X-11 Y4.84 E3.94241
G1 X-10 Y4.84 E3.9537
G1 X-10 Y-4.84 E4.06295
G1 X-9 Y-4.84 E4.07424
G1 X-9 Y4.84 E4.18349
G1 X-8 Y4.84 E4.19478
G1 X-8 Y-4.84 E4.30403
G1 X-7 Y-4.84 E4.31531
G1 X-7 Y4.84 E4.42457
G1 X-6 Y4.84 E4.43585
G1 X-6 Y-4.84 E4.5451
G0 F600 X-6 Y-4.6
G0 X-5.02 Y4.84
G0 X-4.335 Y4.84
G0 X4.335 Y4.84
G0 X5.02 Y4.84
G0 X6 Y4.84
G1 F450 X6 Y-4.84 E4.65436
G1 X7 Y-4.84 E4.66564
G1 X7 Y4.84 E4.77489
G1 X8 Y4.84 E4.78618
G1 X8 Y-4.84 E4.89543
G1 X9 Y-4.84 E4.90672
G1 X9 Y4.84 E5.01597
G1 X10 Y4.84 E5.02726
G1 X10 Y-4.84 E5.13651
G1 X11 Y-4.84 E5.14779
G1 X11 Y4.84 E5.25705
G1 X12 Y4.84 E5.26833
G1 X12 Y-4.84 E5.37758
G1 X13 Y-4.84 E5.38887
G1 X13 Y4.84 E5.49812
G1 X14 Y4.84 E5.50941
G1 X14 Y-4.84 E5.61866
G0 F600 X14 Y-4.6
;MESH:NONMESH
G0 X5.02 Y3.999
G0 X4.335 Y3.999
G0 X-4.335 Y3.999
G0 X-5.02 Y3.999
G0 X-5.16 Y3.999
;TIME_ELAPSED:73.111768
;LAYER:1
M106 S255
;MESH:rigid.STL
G0 F900 X-5.16 Y3.999 Z0.3
;TYPE:FILL
G1 F675 X-14.84 Y3.999 E5.83716
G1 X-14.84 Y2.999 E5.85974
G1 X-5.16 Y2.999 E6.07824
G1 X-5.16 Y1.999 E6.10081
G1 X-14.84 Y1.999 E6.31932
G1 X-14.84 Y0.999 E6.34189
G1 X-5.16 Y0.999 E6.56039
G1 X-5.16 Y0.00 E6.58294
G1 X-14.84 Y0.00 E6.80145
G1 X-14.84 Y-1 E6.82402
G1 X-5.16 Y-1 E7.04252
G1 X-5.16 Y-2 E7.06509
G1 X-14.84 Y-2 E7.2836
G1 X-14.84 Y-3 E7.30617
G1 X-5.16 Y-3 E7.52467
G1 X-5.16 Y-4 E7.54725
G1 X-14.84 Y-4 E7.76575
G0 F900 X-14.6 Y-4
G0 X-5.02 Y-3.999
G0 X-4.335 Y-3.999
G0 X4.335 Y-3.999
G0 X5.02 Y-3.999
G0 X5.16 Y-3.999
G1 F675 X14.84 Y-3.999 E7.98425
G1 X14.84 Y-2.999 E8.00683
G1 X5.16 Y-2.999 E8.22533
G1 X5.16 Y-1.999 E8.2479
G1 X14.84 Y-1.999 E8.46641
G1 X14.84 Y-.999 E8.48898
G1 X5.16 Y-.999 E8.70748
G1 X5.16 Y0.00 E8.73003
G1 X14.84 Y0.00 E8.94853
G1 X14.84 Y1 E8.97111
G1 X5.16 Y1 E9.18961
G1 X5.16 Y2 E9.21218
G1 X14.84 Y2 E9.43069
G1 X14.84 Y3 E9.45326
G1 X5.16 Y3 E9.67176
G1 X5.16 Y4 E9.69434
G1 X14.84 Y4 E9.91284
G0 F900 X14.6 Y4
;MESH:NONMESH
G0 X5.02 Y-4.84
G0 X4.335 Y-4.84
G0 X-4.335 Y-4.84
G0 X-5.02 Y-4.84
G0 X-6 Y-4.84
;TIME_ELAPSED:93.057633
;LAYER:2
;MESH:rigid.STL
G0 F1200 X-6 Y-4.84 Z0.5
;TYPE:FILL
G1 F900 X-6 Y4.84 E10.13134
G1 X-7 Y4.84 E10.15392
G1 X-7 Y-4.84 E10.37242
G1 X-8 Y-4.84 E10.39499
G1 X-8 Y4.84 E10.61349
G1 X-9 Y4.84 E10.63607
G1 X-9 Y-4.84 E10.85457
G1 X-10 Y-4.84 E10.87714
G1 X-10 Y4.84 E11.09565
G1 X-11 Y4.84 E11.11822
G1 X-11 Y-4.84 E11.33672
G1 X-12 Y-4.84 E11.3593
G1 X-12 Y4.84 E11.5778
G1 X-13 Y4.84 E11.60037
G1 X-13 Y-4.84 E11.81888
G1 X-14 Y-4.84 E11.84145
G1 X-14 Y4.84 E12.05995
G0 F1200 X-14 Y4.6
G0 X-5.02 Y4.84
G0 X-4.335 Y4.84
G0 X4.335 Y4.84
G0 X5.02 Y4.84
G0 X6 Y4.84
G1 F900 X6 Y-4.84 E12.27845
G1 X7 Y-4.84 E12.30103
G1 X7 Y4.84 E12.51953
G1 X8 Y4.84 E12.5421
G1 X8 Y-4.84 E12.76061
G1 X9 Y-4.84 E12.78318
G1 X9 Y4.84 E13.00168
G1 X10 Y4.84 E13.02426
G1 X10 Y-4.84 E13.24276
G1 X11 Y-4.84 E13.26533
G1 X11 Y4.84 E13.48384
G1 X12 Y4.84 E13.50641
G1 X12 Y-4.84 E13.72491
G1 X13 Y-4.84 E13.74748
G1 X13 Y4.84 E13.96599
G1 X14 Y4.84 E13.98856
G1 X14 Y-4.84 E14.20706
G0 F1200 X14 Y-4.6
;MESH:NONMESH
G0 X5.02 Y3.999
G0 X4.335 Y3.999
G0 X-4.335 Y3.999
G0 X-5.02 Y3.999
G0 X-5.16 Y3.999
;TIME_ELAPSED:107.978730
;LAYER:3
;MESH:rigid.STL
G0 X-5.16 Y3.999 Z0.7
;TYPE:FILL
G1 F900 X-14.84 Y3.999 E14.42557
G1 X-14.84 Y2.999 E14.44814
G1 X-5.16 Y2.999 E14.66664
G1 X-5.16 Y1.999 E14.68922
G1 X-14.84 Y1.999 E14.90772
G1 X-14.84 Y0.999 E14.93029
G1 X-5.16 Y0.999 E15.1488
G1 X-5.16 Y0.00 E15.17135
G1 X-14.84 Y0.00 E15.38985
G1 X-14.84 Y-1 E15.41242
G1 X-5.16 Y-1 E15.63092
G1 X-5.16 Y-2 E15.6535
G1 X-14.84 Y-2 E15.872
G1 X-14.84 Y-3 E15.89457
G1 X-5.16 Y-3 E16.11308
G1 X-5.16 Y-4 E16.13565
G1 X-14.84 Y-4 E16.35415
G0 F1200 X-14.6 Y-4
G0 X-5.02 Y-3.999
G0 X-4.335 Y-3.999
G0 X4.335 Y-3.999
G0 X5.02 Y-3.999
G0 X5.16 Y-3.999
G1 F900 X14.84 Y-3.999 E16.57266
G1 X14.84 Y-2.999 E16.59523
G1 X5.16 Y-2.999 E16.81373
G1 X5.16 Y-1.999 E16.83631
G1 X14.84 Y-1.999 E17.05481
G1 X14.84 Y-.999 E17.07738
G1 X5.16 Y-.999 E17.29588
G1 X5.16 Y0.00 E17.31843
G1 X14.84 Y0.00 E17.53694
G1 X14.84 Y1 E17.55951
G1 X5.16 Y1 E17.77801
G1 X5.16 Y2 E17.80059
G1 X14.84 Y2 E18.01909
G1 X14.84 Y3 E18.04166
G1 X5.16 Y3 E18.26017
G1 X5.16 Y4 E18.28274
G1 X14.84 Y4 E18.50124
G0 F1200 X14.6 Y4
;MESH:NONMESH
G0 X5.02 Y-4.84
G0 X4.335 Y-4.84
G0 X-4.335 Y-4.84
G0 X-5.02 Y-4.84
G0 X-6 Y-4.84
;TIME_ELAPSED:122.958871
;LAYER:4
;MESH:rigid.STL
G0 X-6 Y-4.84 Z0.9
;TYPE:FILL
G1 F900 X-6 Y4.84 E18.71975
G1 X-7 Y4.84 E18.74232
G1 X-7 Y-4.84 E18.96082
G1 X-8 Y-4.84 E18.98339
G1 X-8 Y4.84 E19.2019
G1 X-9 Y4.84 E19.22447
G1 X-9 Y-4.84 E19.44297
G1 X-10 Y-4.84 E19.46555
G1 X-10 Y4.84 E19.68405
G1 X-11 Y4.84 E19.70662
G1 X-11 Y-4.84 E19.92513
G1 X-12 Y-4.84 E19.9477
G1 X-12 Y4.84 E20.1662
G1 X-13 Y4.84 E20.18878
G1 X-13 Y-4.84 E20.40728
G1 X-14 Y-4.84 E20.42985
G1 X-14 Y4.84 E20.64835
G0 F1200 X-14 Y4.6
G0 X-5.02 Y4.84
G0 X-4.335 Y4.84
G0 X4.335 Y4.84
G0 X5.02 Y4.84
G0 X6 Y4.84
G1 F900 X6 Y-4.84 E20.86686
G1 X7 Y-4.84 E20.88943
G1 X7 Y4.84 E21.10793
G1 X8 Y4.84 E21.13051
G1 X8 Y-4.84 E21.34901
G1 X9 Y-4.84 E21.37158
G1 X9 Y4.84 E21.59009
G1 X10 Y4.84 E21.61266
G1 X10 Y-4.84 E21.83116
G1 X11 Y-4.84 E21.85374
G1 X11 Y4.84 E22.07224
G1 X12 Y4.84 E22.09481
G1 X12 Y-4.84 E22.31331
G1 X13 Y-4.84 E22.33589
G1 X13 Y4.84 E22.55439
G1 X14 Y4.84 E22.57696
G1 X14 Y-4.84 E22.79547
G0 F1200 X14 Y-4.6
;MESH:NONMESH
G0 X5.02 Y3.999
G0 X4.335 Y3.999
G0 X-4.335 Y3.999
G0 X-5.02 Y3.999
G0 X-5.16 Y3.999
;TIME_ELAPSED:137.879968
;LAYER:5
;MESH:rigid.STL
G0 X-5.16 Y3.999 Z1.1
;TYPE:FILL
G1 F900 X-14.84 Y3.999 E23.01397
G1 X-14.84 Y2.999 E23.03654
G1 X-5.16 Y2.999 E23.25505
G1 X-5.16 Y1.999 E23.27762
G1 X-14.84 Y1.999 E23.49612
G1 X-14.84 Y0.999 E23.5187
G1 X-5.16 Y0.999 E23.7372
G1 X-5.16 Y0.00 E23.75975
G1 X-14.84 Y0.00 E23.97825
G1 X-14.84 Y-1 E24.00082
G1 X-5.16 Y-1 E24.21933
G1 X-5.16 Y-2 E24.2419
G1 X-14.84 Y-2 E24.4604
G1 X-14.84 Y-3 E24.48298
G1 X-5.16 Y-3 E24.70148
G1 X-5.16 Y-4 E24.72405
G1 X-14.84 Y-4 E24.94256
G0 F1200 X-14.6 Y-4
G0 X-5.02 Y-3.999
G0 X-4.335 Y-3.999
G0 X4.335 Y-3.999
G0 X5.02 Y-3.999
G0 X5.16 Y-3.999
G1 F900 X14.84 Y-3.999 E25.16106
G1 X14.84 Y-2.999 E25.18363
G1 X5.16 Y-2.999 E25.40214
G1 X5.16 Y-1.999 E25.42471
G1 X14.84 Y-1.999 E25.64321
G1 X14.84 Y-.999 E25.66578
G1 X5.16 Y-.999 E25.88429
G1 X5.16 Y0.00 E25.90684
G1 X14.84 Y0.00 E26.12534
G1 X14.84 Y1 E26.14791
G1 X5.16 Y1 E26.36642
G1 X5.16 Y2 E26.38899
G1 X14.84 Y2 E26.60749
G1 X14.84 Y3 E26.63007
G1 X5.16 Y3 E26.84857
G1 X5.16 Y4 E26.87114
G1 X14.84 Y4 E27.08965
G0 F1200 X14.6 Y4
;MESH:NONMESH
G0 X5.02 Y-4.84
G0 X4.335 Y-4.84
G0 X-4.335 Y-4.84
G0 X-5.02 Y-4.84
G0 X-6 Y-4.84
;TIME_ELAPSED:152.860109
;LAYER:6
;MESH:rigid.STL
G0 X-6 Y-4.84 Z1.3
;TYPE:FILL
G1 F900 X-6 Y4.84 E27.30815
G1 X-7 Y4.84 E27.33072
G1 X-7 Y-4.84 E27.54923
G1 X-8 Y-4.84 E27.5718
G1 X-8 Y4.84 E27.7903
G1 X-9 Y4.84 E27.81287
G1 X-9 Y-4.84 E28.03138
G1 X-10 Y-4.84 E28.05395
G1 X-10 Y4.84 E28.27245
G1 X-11 Y4.84 E28.29503
G1 X-11 Y-4.84 E28.51353
G1 X-12 Y-4.84 E28.5361
G1 X-12 Y4.84 E28.75461
G1 X-13 Y4.84 E28.77718
G1 X-13 Y-4.84 E28.99568
G1 X-14 Y-4.84 E29.01825
G1 X-14 Y4.84 E29.23676
G0 F1200 X-14 Y4.6
G0 X-5.02 Y4.84
G0 X-4.335 Y4.84
G0 X4.335 Y4.84
G0 X5.02 Y4.84
G0 X6 Y4.84
G1 F900 X6 Y-4.84 E29.45526
G1 X7 Y-4.84 E29.47783
G1 X7 Y4.84 E29.69634
G1 X8 Y4.84 E29.71891
G1 X8 Y-4.84 E29.93741
G1 X9 Y-4.84 E29.95999
G1 X9 Y4.84 E30.17849
G1 X10 Y4.84 E30.20106
G1 X10 Y-4.84 E30.41957
G1 X11 Y-4.84 E30.44214
G1 X11 Y4.84 E30.66064
G1 X12 Y4.84 E30.68321
G1 X12 Y-4.84 E30.90172
G1 X13 Y-4.84 E30.92429
G1 X13 Y4.84 E31.14279
G1 X14 Y4.84 E31.16537
G1 X14 Y-4.84 E31.38387
G0 F1200 X14 Y-4.6
;MESH:NONMESH
G0 X5.02 Y3.999
G0 X4.335 Y3.999
G0 X-4.335 Y3.999
G0 X-5.02 Y3.999
G0 X-5.16 Y3.999
;TIME_ELAPSED:167.781205
;LAYER:7
;MESH:rigid.STL
G0 X-5.16 Y3.999 Z1.5
;TYPE:FILL
G1 F900 X-14.84 Y3.999 E31.60237
G1 X-14.84 Y2.999 E31.62495
G1 X-5.16 Y2.999 E31.84345
G1 X-5.16 Y1.999 E31.86602
G1 X-14.84 Y1.999 E32.08453
G1 X-14.84 Y0.999 E32.1071
G1 X-5.16 Y0.999 E32.3256
G1 X-5.16 Y0.00 E32.34815
G1 X-14.84 Y0.00 E32.56666
G1 X-14.84 Y-1 E32.58923
G1 X-5.16 Y-1 E32.80773
G1 X-5.16 Y-2 E32.8303
G1 X-14.84 Y-2 E33.04881
G1 X-14.84 Y-3 E33.07138
G1 X-5.16 Y-3 E33.28988
G1 X-5.16 Y-4 E33.31246
G1 X-14.84 Y-4 E33.53096
G0 F1200 X-14.6 Y-4
G0 X-5.02 Y-3.999
G0 X-4.335 Y-3.999
G0 X4.335 Y-3.999
G0 X5.02 Y-3.999
G0 X5.16 Y-3.999
G1 F900 X14.84 Y-3.999 E33.74946
G1 X14.84 Y-2.999 E33.77204
G1 X5.16 Y-2.999 E33.99054
G1 X5.16 Y-1.999 E34.01311
G1 X14.84 Y-1.999 E34.23162
G1 X14.84 Y-.999 E34.25419
G1 X5.16 Y-.999 E34.47269
G1 X5.16 Y0.00 E34.49524
G1 X14.84 Y0.00 E34.71375
G1 X14.84 Y1 E34.73632
G1 X5.16 Y1 E34.95482
G1 X5.16 Y2 E34.97739
G1 X14.84 Y2 E35.1959
G1 X14.84 Y3 E35.21847
G1 X5.16 Y3 E35.43697
G1 X5.16 Y4 E35.45955
G1 X14.84 Y4 E35.67805
G0 F1200 X14.6 Y4
;MESH:NONMESH
G0 X5.02 Y-4.84
G0 X4.335 Y-4.84
G0 X-4.335 Y-4.84
G0 X-5.02 Y-4.84
G0 X-6 Y-4.84
;TIME_ELAPSED:182.761346
;LAYER:8
;MESH:rigid.STL
G0 X-6 Y-4.84 Z1.7
;TYPE:FILL
G1 F900 X-6 Y4.84 E35.89655
G1 X-7 Y4.84 E35.91913
G1 X-7 Y-4.84 E36.13763
G1 X-8 Y-4.84 E36.1602
G1 X-8 Y4.84 E36.37871
G1 X-9 Y4.84 E36.40128
G1 X-9 Y-4.84 E36.61978
G1 X-10 Y-4.84 E36.64235
G1 X-10 Y4.84 E36.86086
G1 X-11 Y4.84 E36.88343
G1 X-11 Y-4.84 E37.10193
G1 X-12 Y-4.84 E37.12451
G1 X-12 Y4.84 E37.34301
G1 X-13 Y4.84 E37.36558
G1 X-13 Y-4.84 E37.58409
G1 X-14 Y-4.84 E37.60666
G1 X-14 Y4.84 E37.82516
G0 F1200 X-14 Y4.6
G0 X-5.02 Y4.84
G0 X-4.335 Y4.84
G0 X4.335 Y4.84
G0 X5.02 Y4.84
G0 X6 Y4.84
G1 F900 X6 Y-4.84 E38.04367
G1 X7 Y-4.84 E38.06624
G1 X7 Y4.84 E38.28474
G1 X8 Y4.84 E38.30731
G1 X8 Y-4.84 E38.52582
G1 X9 Y-4.84 E38.54839
G1 X9 Y4.84 E38.76689
G1 X10 Y4.84 E38.78947
G1 X10 Y-4.84 E39.00797
G1 X11 Y-4.84 E39.03054
G1 X11 Y4.84 E39.24905
G1 X12 Y4.84 E39.27162
G1 X12 Y-4.84 E39.49012
G1 X13 Y-4.84 E39.51269
G1 X13 Y4.84 E39.7312
G1 X14 Y4.84 E39.75377
G1 X14 Y-4.84 E39.97227
G0 F1200 X14 Y-4.6
;MESH:NONMESH
G0 X5.02 Y3.999
G0 X4.335 Y3.999
G0 X-4.335 Y3.999
G0 X-5.02 Y3.999
G0 X-5.16 Y3.999
;TIME_ELAPSED:197.682443
;LAYER:9
;MESH:rigid.STL
G0 X-5.16 Y3.999 Z1.9
;TYPE:FILL
G1 F900 X-14.84 Y3.999 E40.19078
G1 X-14.84 Y2.999 E40.21335
G1 X-5.16 Y2.999 E40.43185
G1 X-5.16 Y1.999 E40.45443
G1 X-14.84 Y1.999 E40.67293
G1 X-14.84 Y0.999 E40.6955
G1 X-5.16 Y0.999 E40.91401
G1 X-5.16 Y0.00 E40.93656
G1 X-14.84 Y0.00 E41.15506
G1 X-14.84 Y-1 E41.17763
G1 X-5.16 Y-1 E41.39614
G1 X-5.16 Y-2 E41.41871
G1 X-14.84 Y-2 E41.63721
G1 X-14.84 Y-3 E41.65978
G1 X-5.16 Y-3 E41.87829
G1 X-5.16 Y-4 E41.90086
G1 X-14.84 Y-4 E42.11936
G0 F1200 X-14.6 Y-4
G0 X-5.02 Y-3.999
G0 X-4.335 Y-3.999
G0 X4.335 Y-3.999
G0 X5.02 Y-3.999
G0 X5.16 Y-3.999
G1 F900 X14.84 Y-3.999 E42.33787
G1 X14.84 Y-2.999 E42.36044
G1 X5.16 Y-2.999 E42.57894
G1 X5.16 Y-1.999 E42.60152
G1 X14.84 Y-1.999 E42.82002
G1 X14.84 Y-.999 E42.84259
G1 X5.16 Y-.999 E43.0611
G1 X5.16 Y0.00 E43.08365
G1 X14.84 Y0.00 E43.30215
G1 X14.84 Y1 E43.32472
G1 X5.16 Y1 E43.54322
G1 X5.16 Y2 E43.5658
G1 X14.84 Y2 E43.7843
G1 X14.84 Y3 E43.80687
G1 X5.16 Y3 E44.02538
G1 X5.16 Y4 E44.04795
G1 X14.84 Y4 E44.26645
G0 F1200 X14.6 Y4
;MESH:NONMESH
G0 X5.02 Y-4.84
G0 X4.335 Y-4.84
G0 X-4.335 Y-4.84
G0 X-5.02 Y-4.84
G0 X-6 Y-4.84
;TIME_ELAPSED:212.662584
;LAYER:10
;MESH:rigid.STL
G0 X-6 Y-4.84 Z2.1
;TYPE:FILL
G1 F900 X-6 Y4.84 E44.48496
G1 X-7 Y4.84 E44.50753
G1 X-7 Y-4.84 E44.72603
G1 X-8 Y-4.84 E44.74861
G1 X-8 Y4.84 E44.96711
G1 X-9 Y4.84 E44.98968
G1 X-9 Y-4.84 E45.20818
G1 X-10 Y-4.84 E45.23076
G1 X-10 Y4.84 E45.44926
G1 X-11 Y4.84 E45.47183
G1 X-11 Y-4.84 E45.69034
G1 X-12 Y-4.84 E45.71291
G1 X-12 Y4.84 E45.93141
G1 X-13 Y4.84 E45.95399
G1 X-13 Y-4.84 E46.17249
G1 X-14 Y-4.84 E46.19506
G1 X-14 Y4.84 E46.41357
G0 F1200 X-14 Y4.6
G0 X-5.02 Y4.84
G0 X-4.335 Y4.84
G0 X4.335 Y4.84
G0 X5.02 Y4.84
G0 X6 Y4.84
G1 F900 X6 Y-4.84 E46.63207
G1 X7 Y-4.84 E46.65464
G1 X7 Y4.84 E46.87314
G1 X8 Y4.84 E46.89572
G1 X8 Y-4.84 E47.11422
G1 X9 Y-4.84 E47.13679
G1 X9 Y4.84 E47.3553
G1 X10 Y4.84 E47.37787
G1 X10 Y-4.84 E47.59637
G1 X11 Y-4.84 E47.61895
G1 X11 Y4.84 E47.83745
G1 X12 Y4.84 E47.86002
G1 X12 Y-4.84 E48.07853
G1 X13 Y-4.84 E48.1011
G1 X13 Y4.84 E48.3196
G1 X14 Y4.84 E48.34217
G1 X14 Y-4.84 E48.56068
G0 F1200 X14 Y-4.6
;MESH:NONMESH
G0 X5.02 Y3.999
G0 X4.335 Y3.999
G0 X-4.335 Y3.999
G0 X-5.02 Y3.999
G0 X-5.16 Y3.999
;TIME_ELAPSED:227.583680
;LAYER:11
;MESH:rigid.STL
G0 X-5.16 Y3.999 Z2.3
;TYPE:FILL
G1 F900 X-14.84 Y3.999 E48.77918
G1 X-14.84 Y2.999 E48.80175
G1 X-5.16 Y2.999 E49.02026
G1 X-5.16 Y1.999 E49.04283
G1 X-14.84 Y1.999 E49.26133
G1 X-14.84 Y0.999 E49.28391
G1 X-5.16 Y0.999 E49.50241
G1 X-5.16 Y0.00 E49.52496
G1 X-14.84 Y0.00 E49.74346
G1 X-14.84 Y-1 E49.76604
G1 X-5.16 Y-1 E49.98454
G1 X-5.16 Y-2 E50.00711
G1 X-14.84 Y-2 E50.22561
G1 X-14.84 Y-3 E50.24819
G1 X-5.16 Y-3 E50.46669
G1 X-5.16 Y-4 E50.48926
G1 X-14.84 Y-4 E50.70777
G0 F1200 X-14.6 Y-4
G0 X-5.02 Y-3.999
G0 X-4.335 Y-3.999
G0 X4.335 Y-3.999
G0 X5.02 Y-3.999
G0 X5.16 Y-3.999
G1 F900 X14.84 Y-3.999 E50.92627
G1 X14.84 Y-2.999 E50.94884
G1 X5.16 Y-2.999 E51.16735
G1 X5.16 Y-1.999 E51.18992
G1 X14.84 Y-1.999 E51.40842
G1 X14.84 Y-.999 E51.431
G1 X5.16 Y-.999 E51.6495
G1 X5.16 Y0.00 E51.67205
G1 X14.84 Y0.00 E51.89055
G1 X14.84 Y1 E51.91312
G1 X5.16 Y1 E52.13163
G1 X5.16 Y2 E52.1542
G1 X14.84 Y2 E52.3727
G1 X14.84 Y3 E52.39528
G1 X5.16 Y3 E52.61378
G1 X5.16 Y4 E52.63635
G1 X14.84 Y4 E52.85486
G0 F1200 X14.6 Y4
;MESH:NONMESH
G0 X5.02 Y-4.84
G0 X4.335 Y-4.84
G0 X-4.335 Y-4.84
G0 X-5.02 Y-4.84
G0 X-6 Y-4.84
;TIME_ELAPSED:242.563821
;LAYER:12
;MESH:rigid.STL
G0 X-6 Y-4.84 Z2.5
;TYPE:FILL
G1 F900 X-6 Y4.84 E53.07336
G1 X-7 Y4.84 E53.09593
G1 X-7 Y-4.84 E53.31444
G1 X-8 Y-4.84 E53.33701
G1 X-8 Y4.84 E53.55551
G1 X-9 Y4.84 E53.57808
G1 X-9 Y-4.84 E53.79659
G1 X-10 Y-4.84 E53.81916
G1 X-10 Y4.84 E54.03766
G1 X-11 Y4.84 E54.06024
G1 X-11 Y-4.84 E54.27874
G1 X-12 Y-4.84 E54.30131
G1 X-12 Y4.84 E54.51982
G1 X-13 Y4.84 E54.54239
G1 X-13 Y-4.84 E54.76089
G1 X-14 Y-4.84 E54.78347
G1 X-14 Y4.84 E55.00197
G0 F1200 X-14 Y4.6
G0 X-5.02 Y4.84
G0 X-4.335 Y4.84
G0 X4.335 Y4.84
G0 X5.02 Y4.84
G0 X6 Y4.84
G1 F900 X6 Y-4.84 E55.22047
G1 X7 Y-4.84 E55.24304
G1 X7 Y4.84 E55.46155
G1 X8 Y4.84 E55.48412
G1 X8 Y-4.84 E55.70262
G1 X9 Y-4.84 E55.7252
G1 X9 Y4.84 E55.9437
G1 X10 Y4.84 E55.96627
G1 X10 Y-4.84 E56.18478
G1 X11 Y-4.84 E56.20735
G1 X11 Y4.84 E56.42585
G1 X12 Y4.84 E56.44843
G1 X12 Y-4.84 E56.66693
G1 X13 Y-4.84 E56.6895
G1 X13 Y4.84 E56.908
G1 X14 Y4.84 E56.93058
G1 X14 Y-4.84 E57.14908
G0 F1200 X14 Y-4.6
;MESH:NONMESH
G0 X5.02 Y3.999
G0 X4.335 Y3.999
G0 X-4.335 Y3.999
G0 X-5.02 Y3.999
G0 X-5.16 Y3.999
;TIME_ELAPSED:257.484918
;LAYER:13
;MESH:rigid.STL
G0 X-5.16 Y3.999 Z2.7
;TYPE:FILL
G1 F900 X-14.84 Y3.999 E57.36758
G1 X-14.84 Y2.999 E57.39016
G1 X-5.16 Y2.999 E57.60866
G1 X-5.16 Y1.999 E57.63123
G1 X-14.84 Y1.999 E57.84974
G1 X-14.84 Y0.999 E57.87231
G1 X-5.16 Y0.999 E58.09081
G1 X-5.16 Y0.00 E58.11336
G1 X-14.84 Y0.00 E58.33187
G1 X-14.84 Y-1 E58.35444
G1 X-5.16 Y-1 E58.57294
G1 X-5.16 Y-2 E58.59551
G1 X-14.84 Y-2 E58.81402
G1 X-14.84 Y-3 E58.83659
G1 X-5.16 Y-3 E59.05509
G1 X-5.16 Y-4 E59.07767
G1 X-14.84 Y-4 E59.29617
G0 F1200 X-14.6 Y-4
G0 X-5.02 Y-3.999
G0 X-4.335 Y-3.999
G0 X4.335 Y-3.999
G0 X5.02 Y-3.999
G0 X5.16 Y-3.999
G1 F900 X14.84 Y-3.999 E59.51467
G1 X14.84 Y-2.999 E59.53725
G1 X5.16 Y-2.999 E59.75575
G1 X5.16 Y-1.999 E59.77832
G1 X14.84 Y-1.999 E59.99683
G1 X14.84 Y-.999 E60.0194
G1 X5.16 Y-.999 E60.2379
G1 X5.16 Y0.00 E60.26045
G1 X14.84 Y0.00 E60.47896
G1 X14.84 Y1 E60.50153
G1 X5.16 Y1 E60.72003
G1 X5.16 Y2 E60.7426
G1 X14.84 Y2 E60.96111
G1 X14.84 Y3 E60.98368
G1 X5.16 Y3 E61.20218
G1 X5.16 Y4 E61.22476
G1 X14.84 Y4 E61.44326
G0 F1200 X14.6 Y4
;MESH:NONMESH
G0 X5.02 Y-4.84
G0 X4.335 Y-4.84
G0 X-4.335 Y-4.84
G0 X-5.02 Y-4.84
G0 X-6 Y-4.84
;TIME_ELAPSED:272.465059
;LAYER:14
;MESH:rigid.STL
G0 X-6 Y-4.84 Z2.9
;TYPE:FILL
G1 F900 X-6 Y4.84 E61.66176
G1 X-7 Y4.84 E61.68434
G1 X-7 Y-4.84 E61.90284
G1 X-8 Y-4.84 E61.92541
G1 X-8 Y4.84 E62.14392
G1 X-9 Y4.84 E62.16649
G1 X-9 Y-4.84 E62.38499
G1 X-10 Y-4.84 E62.40756
G1 X-10 Y4.84 E62.62607
G1 X-11 Y4.84 E62.64864
G1 X-11 Y-4.84 E62.86714
G1 X-12 Y-4.84 E62.88972
G1 X-12 Y4.84 E63.10822
G1 X-13 Y4.84 E63.13079
G1 X-13 Y-4.84 E63.3493
G1 X-14 Y-4.84 E63.37187
G1 X-14 Y4.84 E63.59037
G0 F1200 X-14 Y4.6
G0 X-5.02 Y4.84
G0 X-4.335 Y4.84
G0 X4.335 Y4.84
G0 X5.02 Y4.84
G0 X6 Y4.84
G1 F900 X6 Y-4.84 E63.80888
G1 X7 Y-4.84 E63.83145
G1 X7 Y4.84 E64.04995
G1 X8 Y4.84 E64.07252
G1 X8 Y-4.84 E64.29103
G1 X9 Y-4.84 E64.3136
G1 X9 Y4.84 E64.5321
G1 X10 Y4.84 E64.55468
G1 X10 Y-4.84 E64.77318
G1 X11 Y-4.84 E64.79575
G1 X11 Y4.84 E65.01426
G1 X12 Y4.84 E65.03683
G1 X12 Y-4.84 E65.25533
G1 X13 Y-4.84 E65.2779
G1 X13 Y4.84 E65.49641
G1 X14 Y4.84 E65.51898
G1 X14 Y-4.84 E65.73748
G0 F1200 X14 Y-4.6
;MESH:NONMESH
G0 X5.02 Y3.999
G0 X4.335 Y3.999
G0 X-4.335 Y3.999
G0 X-5.02 Y3.999
G0 X-5.16 Y3.999
;TIME_ELAPSED:287.386156
;LAYER:15
;MESH:rigid.STL
G0 X-5.16 Y3.999 Z3.1
;TYPE:FILL
G1 F900 X-14.84 Y3.999 E65.95599
G1 X-14.84 Y2.999 E65.97856
G1 X-5.16 Y2.999 E66.19706
G1 X-5.16 Y1.999 E66.21964
G1 X-14.84 Y1.999 E66.43814
G1 X-14.84 Y0.999 E66.46071
G1 X-5.16 Y0.999 E66.67922
G1 X-5.16 Y0.00 E66.70177
G1 X-14.84 Y0.00 E66.92027
G1 X-14.84 Y-1 E66.94284
G1 X-5.16 Y-1 E67.16135
G1 X-5.16 Y-2 E67.18392
G1 X-14.84 Y-2 E67.40242
G1 X-14.84 Y-3 E67.42499
G1 X-5.16 Y-3 E67.6435
G1 X-5.16 Y-4 E67.66607
G1 X-14.84 Y-4 E67.88457
G0 F1200 X-14.6 Y-4
G0 X-5.02 Y-3.999
G0 X-4.335 Y-3.999
G0 X4.335 Y-3.999
G0 X5.02 Y-3.999
G0 X5.16 Y-3.999
G1 F900 X14.84 Y-3.999 E68.10308
G1 X14.84 Y-2.999 E68.12565
G1 X5.16 Y-2.999 E68.34415
G1 X5.16 Y-1.999 E68.36673
G1 X14.84 Y-1.999 E68.58523
G1 X14.84 Y-.999 E68.6078
G1 X5.16 Y-.999 E68.82631
G1 X5.16 Y0.00 E68.84886
G1 X14.84 Y0.00 E69.06736
G1 X14.84 Y1 E69.08993
G1 X5.16 Y1 E69.30844
G1 X5.16 Y2 E69.33101
G1 X14.84 Y2 E69.54951
G1 X14.84 Y3 E69.57208
G1 X5.16 Y3 E69.79059
G1 X5.16 Y4 E69.81316
G1 X14.84 Y4 E70.03166
G0 F1200 X14.6 Y4
;MESH:NONMESH
G0 X5.02 Y-4.84
G0 X4.335 Y-4.84
G0 X-4.335 Y-4.84
G0 X-5.02 Y-4.84
G0 X-6 Y-4.84
;TIME_ELAPSED:302.366297
;LAYER:16
;MESH:rigid.STL
G0 X-6 Y-4.84 Z3.3
;TYPE:FILL
G1 F900 X-6 Y4.84 E70.25017
G1 X-7 Y4.84 E70.27274
G1 X-7 Y-4.84 E70.49124
G1 X-8 Y-4.84 E70.51382
G1 X-8 Y4.84 E70.73232
G1 X-9 Y4.84 E70.75489
G1 X-9 Y-4.84 E70.9734
G1 X-10 Y-4.84 E70.99597
G1 X-10 Y4.84 E71.21447
G1 X-11 Y4.84 E71.23704
G1 X-11 Y-4.84 E71.45555
G1 X-12 Y-4.84 E71.47812
G1 X-12 Y4.84 E71.69662
G1 X-13 Y4.84 E71.7192
G1 X-13 Y-4.84 E71.9377
G1 X-14 Y-4.84 E71.96027
G1 X-14 Y4.84 E72.17878
G0 F1200 X-14 Y4.6
G0 X-5.02 Y4.84
G0 X-4.335 Y4.84
G0 X4.335 Y4.84
G0 X5.02 Y4.84
G0 X6 Y4.84
G1 F900 X6 Y-4.84 E72.39728
G1 X7 Y-4.84 E72.41985
G1 X7 Y4.84 E72.63836
G1 X8 Y4.84 E72.66093
G1 X8 Y-4.84 E72.87943
G1 X9 Y-4.84 E72.902
G1 X9 Y4.84 E73.12051
G1 X10 Y4.84 E73.14308
G1 X10 Y-4.84 E73.36158
G1 X11 Y-4.84 E73.38416
G1 X11 Y4.84 E73.60266
G1 X12 Y4.84 E73.62523
G1 X12 Y-4.84 E73.84374
G1 X13 Y-4.84 E73.86631
G1 X13 Y4.84 E74.08481
G1 X14 Y4.84 E74.10738
G1 X14 Y-4.84 E74.32589
G0 F1200 X14 Y-4.6
;MESH:NONMESH
G0 X5.02 Y3.999
G0 X4.335 Y3.999
G0 X-4.335 Y3.999
G0 X-5.02 Y3.999
G0 X-5.16 Y3.999
;TIME_ELAPSED:317.287393
;LAYER:17
;MESH:rigid.STL
G0 X-5.16 Y3.999 Z3.5
;TYPE:FILL
G1 F900 X-14.84 Y3.999 E74.54439
G1 X-14.84 Y2.999 E74.56696
G1 X-5.16 Y2.999 E74.78547
G1 X-5.16 Y1.999 E74.80804
G1 X-14.84 Y1.999 E75.02654
G1 X-14.84 Y0.999 E75.04912
G1 X-5.16 Y0.999 E75.26762
G1 X-5.16 Y0.00 E75.29017
G1 X-14.84 Y0.00 E75.50867
G1 X-14.84 Y-1 E75.53125
G1 X-5.16 Y-1 E75.74975
G1 X-5.16 Y-2 E75.77232
G1 X-14.84 Y-2 E75.99083
G1 X-14.84 Y-3 E76.0134
G1 X-5.16 Y-3 E76.2319
G1 X-5.16 Y-4 E76.25447
G1 X-14.84 Y-4 E76.47298
G0 F1200 X-14.6 Y-4
G0 X-5.02 Y-3.999
G0 X-4.335 Y-3.999
G0 X4.335 Y-3.999
G0 X5.02 Y-3.999
G0 X5.16 Y-3.999
G1 F900 X14.84 Y-3.999 E76.69148
G1 X14.84 Y-2.999 E76.71405
G1 X5.16 Y-2.999 E76.93256
G1 X5.16 Y-1.999 E76.95513
G1 X14.84 Y-1.999 E77.17363
G1 X14.84 Y-.999 E77.19621
G1 X5.16 Y-.999 E77.41471
G1 X5.16 Y0.00 E77.43726
G1 X14.84 Y0.00 E77.65576
G1 X14.84 Y1 E77.67834
G1 X5.16 Y1 E77.89684
G1 X5.16 Y2 E77.91941
G1 X14.84 Y2 E78.13791
G1 X14.84 Y3 E78.16049
G1 X5.16 Y3 E78.37899
G1 X5.16 Y4 E78.40156
G1 X14.84 Y4 E78.62007
G0 F1200 X14.6 Y4
;MESH:NONMESH
G0 X5.02 Y-4.84
G0 X4.335 Y-4.84
G0 X-4.335 Y-4.84
G0 X-5.02 Y-4.84
G0 X-6 Y-4.84
;TIME_ELAPSED:332.267534
;LAYER:18
;MESH:rigid.STL
G0 X-6 Y-4.84 Z3.7
;TYPE:FILL
G1 F900 X-6 Y4.84 E78.83857
G1 X-7 Y4.84 E78.86114
G1 X-7 Y-4.84 E79.07965
G1 X-8 Y-4.84 E79.10222
G1 X-8 Y4.84 E79.32072
G1 X-9 Y4.84 E79.3433
G1 X-9 Y-4.84 E79.5618
G1 X-10 Y-4.84 E79.58437
G1 X-10 Y4.84 E79.80287
G1 X-11 Y4.84 E79.82545
G1 X-11 Y-4.84 E80.04395
G1 X-12 Y-4.84 E80.06652
G1 X-12 Y4.84 E80.28503
G1 X-13 Y4.84 E80.3076
G1 X-13 Y-4.84 E80.5261
G1 X-14 Y-4.84 E80.54868
G1 X-14 Y4.84 E80.76718
G0 F1200 X-14 Y4.6
G0 X-5.02 Y4.84
G0 X-4.335 Y4.84
G0 X4.335 Y4.84
G0 X5.02 Y4.84
G0 X6 Y4.84
G1 F900 X6 Y-4.84 E80.98568
G1 X7 Y-4.84 E81.00826
G1 X7 Y4.84 E81.22676
G1 X8 Y4.84 E81.24933
G1 X8 Y-4.84 E81.46783
G1 X9 Y-4.84 E81.49041
G1 X9 Y4.84 E81.70891
G1 X10 Y4.84 E81.73148
G1 X10 Y-4.84 E81.94999
G1 X11 Y-4.84 E81.97256
G1 X11 Y4.84 E82.19106
G1 X12 Y4.84 E82.21364
G1 X12 Y-4.84 E82.43214
G1 X13 Y-4.84 E82.45471
G1 X13 Y4.84 E82.67322
G1 X14 Y4.84 E82.69579
G1 X14 Y-4.84 E82.91429
G0 F1200 X14 Y-4.6
;MESH:NONMESH
G0 X5.02 Y3.999
G0 X4.335 Y3.999
G0 X-4.335 Y3.999
G0 X-5.02 Y3.999
G0 X-5.16 Y3.999
;TIME_ELAPSED:347.188631
;LAYER:19
;MESH:rigid.STL
G0 X-5.16 Y3.999 Z3.9
;TYPE:FILL
G1 F900 X-14.84 Y3.999 E83.13279
G1 X-14.84 Y2.999 E83.15537
G1 X-5.16 Y2.999 E83.37387
G1 X-5.16 Y1.999 E83.39644
G1 X-14.84 Y1.999 E83.61495
G1 X-14.84 Y0.999 E83.63752
G1 X-5.16 Y0.999 E83.85602
G1 X-5.16 Y0.00 E83.87857
G1 X-14.84 Y0.00 E84.09708
G1 X-14.84 Y-1 E84.11965
G1 X-5.16 Y-1 E84.33815
G1 X-5.16 Y-2 E84.36073
G1 X-14.84 Y-2 E84.57923
G1 X-14.84 Y-3 E84.6018
G1 X-5.16 Y-3 E84.8203
G1 X-5.16 Y-4 E84.84288
G1 X-14.84 Y-4 E85.06138
G0 F1200 X-14.6 Y-4
G0 X-5.02 Y-3.999
G0 X-4.335 Y-3.999
G0 X4.335 Y-3.999
G0 X5.02 Y-3.999
G0 X5.16 Y-3.999
G1 F900 X14.84 Y-3.999 E85.27988
G1 X14.84 Y-2.999 E85.30246
G1 X5.16 Y-2.999 E85.52096
G1 X5.16 Y-1.999 E85.54353
G1 X14.84 Y-1.999 E85.76204
G1 X14.84 Y-.999 E85.78461
G1 X5.16 Y-.999 E86.00311
G1 X5.16 Y0.00 E86.02566
G1 X14.84 Y0.00 E86.24417
G1 X14.84 Y1 E86.26674
G1 X5.16 Y1 E86.48524
G1 X5.16 Y2 E86.50782
G1 X14.84 Y2 E86.72632
G1 X14.84 Y3 E86.74889
G1 X5.16 Y3 E86.96739
G1 X5.16 Y4 E86.98997
G1 X14.84 Y4 E87.20847
G0 F1200 X14.6 Y4
;MESH:NONMESH
G0 X5.02 Y-4.84
G0 X4.335 Y-4.84
G0 X-4.335 Y-4.84
G0 X-5.02 Y-4.84
G0 X-6 Y-4.84
;TIME_ELAPSED:362.168772
;LAYER:20
;MESH:rigid.STL
G0 X-6 Y-4.84 Z4.1
;TYPE:FILL
G1 F900 X-6 Y4.84 E87.42697
G1 X-7 Y4.84 E87.44955
G1 X-7 Y-4.84 E87.66805
G1 X-8 Y-4.84 E87.69062
G1 X-8 Y4.84 E87.90913
G1 X-9 Y4.84 E87.9317
G1 X-9 Y-4.84 E88.1502
G1 X-10 Y-4.84 E88.17277
G1 X-10 Y4.84 E88.39128
G1 X-11 Y4.84 E88.41385
G1 X-11 Y-4.84 E88.63235
G1 X-12 Y-4.84 E88.65493
G1 X-12 Y4.84 E88.87343
G1 X-13 Y4.84 E88.896
G1 X-13 Y-4.84 E89.11451
G1 X-14 Y-4.84 E89.13708
G1 X-14 Y4.84 E89.35558
G0 F1200 X-14 Y4.6
G0 X-5.02 Y4.84
G0 X-4.335 Y4.84
G0 X4.335 Y4.84
G0 X5.02 Y4.84
G0 X6 Y4.84
G1 F900 X6 Y-4.84 E89.57409
G1 X7 Y-4.84 E89.59666
G1 X7 Y4.84 E89.81516
G1 X8 Y4.84 E89.83773
G1 X8 Y-4.84 E90.05624
G1 X9 Y-4.84 E90.07881
G1 X9 Y4.84 E90.29731
G1 X10 Y4.84 E90.31989
G1 X10 Y-4.84 E90.53839
G1 X11 Y-4.84 E90.56096
G1 X11 Y4.84 E90.77947
G1 X12 Y4.84 E90.80204
G1 X12 Y-4.84 E91.02054
G1 X13 Y-4.84 E91.04312
G1 X13 Y4.84 E91.26162
G1 X14 Y4.84 E91.28419
G1 X14 Y-4.84 E91.50269
G0 F1200 X14 Y-4.6
;MESH:NONMESH
G0 X5.02 Y3.999
G0 X4.335 Y3.999
G0 X-4.335 Y3.999
G0 X-5.02 Y3.999
G0 X-5.16 Y3.999
;TIME_ELAPSED:377.089869
;LAYER:21
;MESH:rigid.STL
G0 X-5.16 Y3.999 Z4.3
;TYPE:FILL
G1 F900 X-14.84 Y3.999 E91.7212
G1 X-14.84 Y2.999 E91.74377
G1 X-5.16 Y2.999 E91.96227
G1 X-5.16 Y1.999 E91.98485
G1 X-14.84 Y1.999 E92.20335
G1 X-14.84 Y0.999 E92.22592
G1 X-5.16 Y0.999 E92.44443
G1 X-5.16 Y0.00 E92.46698
G1 X-14.84 Y0.00 E92.68548
G1 X-14.84 Y-1 E92.70805
G1 X-5.16 Y-1 E92.92656
G1 X-5.16 Y-2 E92.94913
G1 X-14.84 Y-2 E93.16763
G1 X-14.84 Y-3 E93.19021
G1 X-5.16 Y-3 E93.40871
G1 X-5.16 Y-4 E93.43128
G1 X-14.84 Y-4 E93.64978
G0 F1200 X-14.6 Y-4
G0 X-5.02 Y-3.999
G0 X-4.335 Y-3.999
G0 X4.335 Y-3.999
G0 X5.02 Y-3.999
G0 X5.16 Y-3.999
G1 F900 X14.84 Y-3.999 E93.86829
G1 X14.84 Y-2.999 E93.89086
G1 X5.16 Y-2.999 E94.10936
G1 X5.16 Y-1.999 E94.13194
G1 X14.84 Y-1.999 E94.35044
G1 X14.84 Y-.999 E94.37301
G1 X5.16 Y-.999 E94.59152
G1 X5.16 Y0.00 E94.61407
G1 X14.84 Y0.00 E94.83257
G1 X14.84 Y1 E94.85514
G1 X5.16 Y1 E95.07365
G1 X5.16 Y2 E95.09622
G1 X14.84 Y2 E95.31472
G1 X14.84 Y3 E95.33729
G1 X5.16 Y3 E95.5558
G1 X5.16 Y4 E95.57837
G1 X14.84 Y4 E95.79687
G0 F1200 X14.6 Y4
;MESH:NONMESH
G0 X5.02 Y-4.84
G0 X4.335 Y-4.84
G0 X-4.335 Y-4.84
G0 X-5.02 Y-4.84
G0 X-6 Y-4.84
;TIME_ELAPSED:392.070009
;LAYER:22
;MESH:rigid.STL
G0 X-6 Y-4.84 Z4.5
;TYPE:FILL
G1 F900 X-6 Y4.84 E96.01538
G1 X-7 Y4.84 E96.03795
G1 X-7 Y-4.84 E96.25645
G1 X-8 Y-4.84 E96.27903
G1 X-8 Y4.84 E96.49753
G1 X-9 Y4.84 E96.5201
G1 X-9 Y-4.84 E96.73861
G1 X-10 Y-4.84 E96.76118
G1 X-10 Y4.84 E96.97968
G1 X-11 Y4.84 E97.00225
G1 X-11 Y-4.84 E97.22076
G1 X-12 Y-4.84 E97.24333
G1 X-12 Y4.84 E97.46183
G1 X-13 Y4.84 E97.48441
G1 X-13 Y-4.84 E97.70291
G1 X-14 Y-4.84 E97.72548
G1 X-14 Y4.84 E97.94399
G0 F1200 X-14 Y4.6
G0 X-5.02 Y4.84
G0 X-4.335 Y4.84
G0 X4.335 Y4.84
G0 X5.02 Y4.84
G0 X6 Y4.84
G1 F900 X6 Y-4.84 E98.16249
G1 X7 Y-4.84 E98.18506
G1 X7 Y4.84 E98.40357
G1 X8 Y4.84 E98.42614
G1 X8 Y-4.84 E98.64464
G1 X9 Y-4.84 E98.66721
G1 X9 Y4.84 E98.88572
G1 X10 Y4.84 E98.90829
G1 X10 Y-4.84 E99.12679
G1 X11 Y-4.84 E99.14937
G1 X11 Y4.84 E99.36787
G1 X12 Y4.84 E99.39044
G1 X12 Y-4.84 E99.60895
G1 X13 Y-4.84 E99.63152
G1 X13 Y4.84 E99.85002
G1 X14 Y4.84 E99.8726
G1 X14 Y-4.84 E100.0911
G0 F1200 X14 Y-4.6
;MESH:NONMESH
G0 X5.02 Y3.999
G0 X4.335 Y3.999
G0 X-4.335 Y3.999
G0 X-5.02 Y3.999
G0 X-5.16 Y3.999
;TIME_ELAPSED:406.991106
;LAYER:23
;MESH:rigid.STL
G0 X-5.16 Y3.999 Z4.7
;TYPE:FILL
G1 F900 X-14.84 Y3.999 E100.3096
G1 X-14.84 Y2.999 E100.33217
G1 X-5.16 Y2.999 E100.55068
G1 X-5.16 Y1.999 E100.57325
G1 X-14.84 Y1.999 E100.79175
G1 X-14.84 Y0.999 E100.81433
G1 X-5.16 Y0.999 E101.03283
G1 X-5.16 Y0.00 E101.05538
G1 X-14.84 Y0.00 E101.27388
G1 X-14.84 Y-1 E101.29646
G1 X-5.16 Y-1 E101.51496
G1 X-5.16 Y-2 E101.53753
G1 X-14.84 Y-2 E101.75604
G1 X-14.84 Y-3 E101.77861
G1 X-5.16 Y-3 E101.99711
G1 X-5.16 Y-4 E102.01968
G1 X-14.84 Y-4 E102.23819
G0 F1200 X-14.6 Y-4
G0 X-5.02 Y-3.999
G0 X-4.335 Y-3.999
G0 X4.335 Y-3.999
G0 X5.02 Y-3.999
G0 X5.16 Y-3.999
G1 F900 X14.84 Y-3.999 E102.45669
G1 X14.84 Y-2.999 E102.47926
G1 X5.16 Y-2.999 E102.69777
G1 X5.16 Y-1.999 E102.72034
G1 X14.84 Y-1.999 E102.93884
G1 X14.84 Y-.999 E102.96142
G1 X5.16 Y-.999 E103.17992
G1 X5.16 Y0.00 E103.20247
G1 X14.84 Y0.00 E103.42097
G1 X14.84 Y1 E103.44355
G1 X5.16 Y1 E103.66205
G1 X5.16 Y2 E103.68462
G1 X14.84 Y2 E103.90313
G1 X14.84 Y3 E103.9257
G1 X5.16 Y3 E104.1442
G1 X5.16 Y4 E104.16677
G1 X14.84 Y4 E104.38528
G0 F1200 X14.6 Y4
;MESH:NONMESH
G0 X5.02 Y-4.84
G0 X4.335 Y-4.84
G0 X-4.335 Y-4.84
G0 X-5.02 Y-4.84
G0 X-6 Y-4.84
;TIME_ELAPSED:421.971247
;LAYER:24
;MESH:rigid.STL
G0 X-6 Y-4.84 Z4.9
;TYPE:FILL
G1 F900 X-6 Y4.84 E104.60378
G1 X-7 Y4.84 E104.62635
G1 X-7 Y-4.84 E104.84486
G1 X-8 Y-4.84 E104.86743
G1 X-8 Y4.84 E105.08593
G1 X-9 Y4.84 E105.10851
G1 X-9 Y-4.84 E105.32701
G1 X-10 Y-4.84 E105.34958
G1 X-10 Y4.84 E105.56809
G1 X-11 Y4.84 E105.59066
G1 X-11 Y-4.84 E105.80916
G1 X-12 Y-4.84 E105.83173
G1 X-12 Y4.84 E106.05024
G1 X-13 Y4.84 E106.07281
G1 X-13 Y-4.84 E106.29131
G1 X-14 Y-4.84 E106.31389
G1 X-14 Y4.84 E106.53239
G0 F1200 X-14 Y4.6
G0 X-5.02 Y4.84
G0 X-4.335 Y4.84
G0 X4.335 Y4.84
G0 X5.02 Y4.84
G0 X6 Y4.84
G1 F900 X6 Y-4.84 E106.75089
G1 X7 Y-4.84 E106.77347
G1 X7 Y4.84 E106.99197
G1 X8 Y4.84 E107.01454
G1 X8 Y-4.84 E107.23305
G1 X9 Y-4.84 E107.25562
G1 X9 Y4.84 E107.47412
G1 X10 Y4.84 E107.49669
G1 X10 Y-4.84 E107.7152
G1 X11 Y-4.84 E107.73777
G1 X11 Y4.84 E107.95627
G1 X12 Y4.84 E107.97885
G1 X12 Y-4.84 E108.19735
G1 X13 Y-4.84 E108.21992
G1 X13 Y4.84 E108.43843
G1 X14 Y4.84 E108.461
G1 X14 Y-4.84 E108.6795
G0 F1200 X14 Y-4.6
;MESH:NONMESH
G0 X5.02 Y3.999
G0 X4.335 Y3.999
G0 X-4.335 Y3.999
G0 X-5.02 Y3.999
G0 X-5.16 Y3.999
;TIME_ELAPSED:436.892344
;LAYER:25
;MESH:rigid.STL
G0 X-5.16 Y3.999 Z5.1
;TYPE:FILL
G1 F900 X-14.84 Y3.999 E108.89801
G1 X-14.84 Y2.999 E108.92058
G1 X-5.16 Y2.999 E109.13908
G1 X-5.16 Y1.999 E109.16165
G1 X-14.84 Y1.999 E109.38016
G1 X-14.84 Y0.999 E109.40273
G1 X-5.16 Y0.999 E109.62123
G1 X-5.16 Y0.00 E109.64378
G1 X-14.84 Y0.00 E109.86229
G1 X-14.84 Y-1 E109.88486
G1 X-5.16 Y-1 E110.10336
G1 X-5.16 Y-2 E110.12594
G1 X-14.84 Y-2 E110.34444
G1 X-14.84 Y-3 E110.36701
G1 X-5.16 Y-3 E110.58552
G1 X-5.16 Y-4 E110.60809
G1 X-14.84 Y-4 E110.82659
G0 F1200 X-14.6 Y-4
G0 X-5.02 Y-3.999
G0 X-4.335 Y-3.999
G0 X4.335 Y-3.999
G0 X5.02 Y-3.999
G0 X5.16 Y-3.999
G1 F900 X14.84 Y-3.999 E111.04509
G1 X14.84 Y-2.999 E111.06767
G1 X5.16 Y-2.999 E111.28617
G1 X5.16 Y-1.999 E111.30874
G1 X14.84 Y-1.999 E111.52725
G1 X14.84 Y-.999 E111.54982
G1 X5.16 Y-.999 E111.76832
G1 X5.16 Y0.00 E111.79087
G1 X14.84 Y0.00 E112.00938
G1 X14.84 Y1 E112.03195
G1 X5.16 Y1 E112.25045
G1 X5.16 Y2 E112.27303
G1 X14.84 Y2 E112.49153
G1 X14.84 Y3 E112.5141
G1 X5.16 Y3 E112.73261
G1 X5.16 Y4 E112.75518
G1 X14.84 Y4 E112.97368
G0 F1200 X14.6 Y4
;MESH:NONMESH
G0 X5.02 Y-4.84
G0 X4.335 Y-4.84
G0 X-4.335 Y-4.84
G0 X-5.02 Y-4.84
G0 X-6 Y-4.84
;TIME_ELAPSED:451.872485
;LAYER:26
;MESH:rigid.STL
G0 X-6 Y-4.84 Z5.3
;TYPE:FILL
G1 F900 X-6 Y4.84 E113.19218
G1 X-7 Y4.84 E113.21476
G1 X-7 Y-4.84 E113.43326
G1 X-8 Y-4.84 E113.45583
G1 X-8 Y4.84 E113.67434
G1 X-9 Y4.84 E113.69691
G1 X-9 Y-4.84 E113.91541
G1 X-10 Y-4.84 E113.93799
G1 X-10 Y4.84 E114.15649
G1 X-11 Y4.84 E114.17906
G1 X-11 Y-4.84 E114.39757
G1 X-12 Y-4.84 E114.42014
G1 X-12 Y4.84 E114.63864
G1 X-13 Y4.84 E114.66121
G1 X-13 Y-4.84 E114.87972
G1 X-14 Y-4.84 E114.90229
G1 X-14 Y4.84 E115.12079
G0 F1200 X-14 Y4.6
G0 X-5.02 Y4.84
G0 X-4.335 Y4.84
G0 X4.335 Y4.84
G0 X5.02 Y4.84
G0 X6 Y4.84
G1 F900 X6 Y-4.84 E115.3393
G1 X7 Y-4.84 E115.36187
G1 X7 Y4.84 E115.58037
G1 X8 Y4.84 E115.60295
G1 X8 Y-4.84 E115.82145
G1 X9 Y-4.84 E115.84402
G1 X9 Y4.84 E116.06253
G1 X10 Y4.84 E116.0851
G1 X10 Y-4.84 E116.3036
G1 X11 Y-4.84 E116.32617
G1 X11 Y4.84 E116.54468
G1 X12 Y4.84 E116.56725
G1 X12 Y-4.84 E116.78575
G1 X13 Y-4.84 E116.80833
G1 X13 Y4.84 E117.02683
G1 X14 Y4.84 E117.0494
G1 X14 Y-4.84 E117.26791
G0 F1200 X14 Y-4.6
;MESH:NONMESH
G0 X5.02 Y3.999
G0 X4.335 Y3.999
G0 X-4.335 Y3.999
G0 X-5.02 Y3.999
G0 X-5.16 Y3.999
;TIME_ELAPSED:466.793581
;LAYER:27
;MESH:rigid.STL
G0 X-5.16 Y3.999 Z5.5
;TYPE:FILL
G1 F900 X-14.84 Y3.999 E117.48641
G1 X-14.84 Y2.999 E117.50898
G1 X-5.16 Y2.999 E117.72749
G1 X-5.16 Y1.999 E117.75006
G1 X-14.84 Y1.999 E117.96856
G1 X-14.84 Y0.999 E117.99113
G1 X-5.16 Y0.999 E118.20964
G1 X-5.16 Y0.00 E118.23219
G1 X-14.84 Y0.00 E118.45069
G1 X-14.84 Y-1 E118.47326
G1 X-5.16 Y-1 E118.69177
G1 X-5.16 Y-2 E118.71434
G1 X-14.84 Y-2 E118.93284
G1 X-14.84 Y-3 E118.95542
G1 X-5.16 Y-3 E119.17392
G1 X-5.16 Y-4 E119.19649
G1 X-14.84 Y-4 E119.415
G0 F1200 X-14.6 Y-4
G0 X-5.02 Y-3.999
G0 X-4.335 Y-3.999
G0 X4.335 Y-3.999
G0 X5.02 Y-3.999
G0 X5.16 Y-3.999
G1 F900 X14.84 Y-3.999 E119.6335
G1 X14.84 Y-2.999 E119.65607
G1 X5.16 Y-2.999 E119.87457
G1 X5.16 Y-1.999 E119.89715
G1 X14.84 Y-1.999 E120.11565
G1 X14.84 Y-.999 E120.13822
G1 X5.16 Y-.999 E120.35673
G1 X5.16 Y0.00 E120.37928
G1 X14.84 Y0.00 E120.59778
G1 X14.84 Y1 E120.62035
G1 X5.16 Y1 E120.83886
G1 X5.16 Y2 E120.86143
G1 X14.84 Y2 E121.07993
G1 X14.84 Y3 E121.10251
G1 X5.16 Y3 E121.32101
G1 X5.16 Y4 E121.34358
G1 X14.84 Y4 E121.56208
G0 F1200 X14.6 Y4
;MESH:NONMESH
G0 X5.02 Y-4.84
G0 X4.335 Y-4.84
G0 X-4.335 Y-4.84
G0 X-5.02 Y-4.84
G0 X-6 Y-4.84
;TIME_ELAPSED:481.773722
;LAYER:28
;MESH:rigid.STL
G0 X-6 Y-4.84 Z5.7
;TYPE:FILL
G1 F900 X-6 Y4.84 E121.78059
G1 X-7 Y4.84 E121.80316
G1 X-7 Y-4.84 E122.02166
G1 X-8 Y-4.84 E122.04424
G1 X-8 Y4.84 E122.26274
G1 X-9 Y4.84 E122.28531
G1 X-9 Y-4.84 E122.50382
G1 X-10 Y-4.84 E122.52639
G1 X-10 Y4.84 E122.74489
G1 X-11 Y4.84 E122.76747
G1 X-11 Y-4.84 E122.98597
G1 X-12 Y-4.84 E123.00854
G1 X-12 Y4.84 E123.22704
G1 X-13 Y4.84 E123.24962
G1 X-13 Y-4.84 E123.46812
G1 X-14 Y-4.84 E123.49069
G1 X-14 Y4.84 E123.7092
G0 F1200 X-14 Y4.6
G0 X-5.02 Y4.84
G0 X-4.335 Y4.84
G0 X4.335 Y4.84
G0 X5.02 Y4.84
G0 X6 Y4.84
G1 F900 X6 Y-4.84 E123.9277
G1 X7 Y-4.84 E123.95027
G1 X7 Y4.84 E124.16878
G1 X8 Y4.84 E124.19135
G1 X8 Y-4.84 E124.40985
G1 X9 Y-4.84 E124.43243
G1 X9 Y4.84 E124.65093
G1 X10 Y4.84 E124.6735
G1 X10 Y-4.84 E124.892
G1 X11 Y-4.84 E124.91458
G1 X11 Y4.84 E125.13308
G1 X12 Y4.84 E125.15565
G1 X12 Y-4.84 E125.37416
G1 X13 Y-4.84 E125.39673
G1 X13 Y4.84 E125.61523
G1 X14 Y4.84 E125.63781
G1 X14 Y-4.84 E125.85631
G0 F1200 X14 Y-4.6
;MESH:NONMESH
G0 X5.02 Y3.999
G0 X4.335 Y3.999
G0 X-4.335 Y3.999
G0 X-5.02 Y3.999
G0 X-5.16 Y3.999
;TIME_ELAPSED:496.694819
;LAYER:29
;MESH:rigid.STL
G0 X-5.16 Y3.999 Z5.9
;TYPE:FILL
G1 F900 X-14.84 Y3.999 E126.07481
G1 X-14.84 Y2.999 E126.09739
G1 X-5.16 Y2.999 E126.31589
G1 X-5.16 Y1.999 E126.33846
G1 X-14.84 Y1.999 E126.55696
G1 X-14.84 Y0.999 E126.57954
G1 X-5.16 Y0.999 E126.79804
G1 X-5.16 Y0.00 E126.82059
G1 X-14.84 Y0.00 E127.03909
G1 X-14.84 Y-1 E127.06167
G1 X-5.16 Y-1 E127.28017
G1 X-5.16 Y-2 E127.30274
G1 X-14.84 Y-2 E127.52125
G1 X-14.84 Y-3 E127.54382
G1 X-5.16 Y-3 E127.76232
G1 X-5.16 Y-4 E127.7849
G1 X-14.84 Y-4 E128.0034
G0 F1200 X-14.6 Y-4
G0 X-5.02 Y-3.999
G0 X-4.335 Y-3.999
G0 X4.335 Y-3.999
G0 X5.02 Y-3.999
G0 X5.16 Y-3.999
G1 F900 X14.84 Y-3.999 E128.2219
G1 X14.84 Y-2.999 E128.24447
G1 X5.16 Y-2.999 E128.46298
G1 X5.16 Y-1.999 E128.48555
G1 X14.84 Y-1.999 E128.70405
G1 X14.84 Y-.999 E128.72663
G1 X5.16 Y-.999 E128.94513
G1 X5.16 Y0.00 E128.96768
G1 X14.84 Y0.00 E129.18618
G1 X14.84 Y1 E129.20876
G1 X5.16 Y1 E129.42726
G1 X5.16 Y2 E129.44983
G1 X14.84 Y2 E129.66834
G1 X14.84 Y3 E129.69091
G1 X5.16 Y3 E129.90941
G1 X5.16 Y4 E129.93198
G1 X14.84 Y4 E130.15049
G0 F1200 X14.6 Y4
;MESH:NONMESH
G0 X5.02 Y-4.84
G0 X4.335 Y-4.84
G0 X-4.335 Y-4.84
G0 X-5.02 Y-4.84
G0 X-6 Y-4.84
;TIME_ELAPSED:511.674960
;LAYER:30
;MESH:rigid.STL
G0 X-6 Y-4.84 Z6.1
;TYPE:FILL
G1 F900 X-6 Y4.84 E130.36899
G1 X-7 Y4.84 E130.39156
G1 X-7 Y-4.84 E130.61007
G1 X-8 Y-4.84 E130.63264
G1 X-8 Y4.84 E130.85114
G1 X-9 Y4.84 E130.87372
G1 X-9 Y-4.84 E131.09222
G1 X-10 Y-4.84 E131.11479
G1 X-10 Y4.84 E131.3333
G1 X-11 Y4.84 E131.35587
G1 X-11 Y-4.84 E131.57437
G1 X-12 Y-4.84 E131.59694
G1 X-12 Y4.84 E131.81545
G1 X-13 Y4.84 E131.83802
G1 X-13 Y-4.84 E132.05652
G1 X-14 Y-4.84 E132.0791
G1 X-14 Y4.84 E132.2976
G0 F1200 X-14 Y4.6
G0 X-5.02 Y4.84
G0 X-4.335 Y4.84
G0 X4.335 Y4.84
G0 X5.02 Y4.84
G0 X6 Y4.84
G1 F900 X6 Y-4.84 E132.5161
G1 X7 Y-4.84 E132.53868
G1 X7 Y4.84 E132.75718
G1 X8 Y4.84 E132.77975
G1 X8 Y-4.84 E132.99826
G1 X9 Y-4.84 E133.02083
G1 X9 Y4.84 E133.23933
G1 X10 Y4.84 E133.2619
G1 X10 Y-4.84 E133.48041
G1 X11 Y-4.84 E133.50298
G1 X11 Y4.84 E133.72148
G1 X12 Y4.84 E133.74406
G1 X12 Y-4.84 E133.96256
G1 X13 Y-4.84 E133.98513
G1 X13 Y4.84 E134.20364
G1 X14 Y4.84 E134.22621
G1 X14 Y-4.84 E134.44471
G0 F1200 X14 Y-4.6
;MESH:NONMESH
G0 X5.02 Y3.999
G0 X4.335 Y3.999
G0 X-4.335 Y3.999
G0 X-5.02 Y3.999
G0 X-5.16 Y3.999
;TIME_ELAPSED:526.596057
;LAYER:31
;MESH:rigid.STL
G0 X-5.16 Y3.999 Z6.3
;TYPE:FILL
G1 F900 X-14.84 Y3.999 E134.66322
G1 X-14.84 Y2.999 E134.68579
G1 X-5.16 Y2.999 E134.90429
G1 X-5.16 Y1.999 E134.92686
G1 X-14.84 Y1.999 E135.14537
G1 X-14.84 Y0.999 E135.16794
G1 X-5.16 Y0.999 E135.38644
G1 X-5.16 Y0.00 E135.40899
G1 X-14.84 Y0.00 E135.6275
G1 X-14.84 Y-1 E135.65007
G1 X-5.16 Y-1 E135.86857
G1 X-5.16 Y-2 E135.89115
G1 X-14.84 Y-2 E136.10965
G1 X-14.84 Y-3 E136.13222
G1 X-5.16 Y-3 E136.35073
G1 X-5.16 Y-4 E136.3733
G1 X-14.84 Y-4 E136.5918
G0 F1200 X-14.6 Y-4
G0 X-5.02 Y-3.999
G0 X-4.335 Y-3.999
G0 X4.335 Y-3.999
G0 X5.02 Y-3.999
G0 X5.16 Y-3.999
G1 F900 X14.84 Y-3.999 E136.81031
G1 X14.84 Y-2.999 E136.83288
G1 X5.16 Y-2.999 E137.05138
G1 X5.16 Y-1.999 E137.07395
G1 X14.84 Y-1.999 E137.29246
G1 X14.84 Y-.999 E137.31503
G1 X5.16 Y-.999 E137.53353
G1 X5.16 Y0.00 E137.55608
G1 X14.84 Y0.00 E137.77459
G1 X14.84 Y1 E137.79716
G1 X5.16 Y1 E138.01566
G1 X5.16 Y2 E138.03824
G1 X14.84 Y2 E138.25674
G1 X14.84 Y3 E138.27931
G1 X5.16 Y3 E138.49782
G1 X5.16 Y4 E138.52039
G1 X14.84 Y4 E138.73889
G0 F1200 X14.6 Y4
;MESH:NONMESH
G0 X5.02 Y-4.84
G0 X4.335 Y-4.84
G0 X-4.335 Y-4.84
G0 X-5.02 Y-4.84
G0 X-6 Y-4.84
;TIME_ELAPSED:541.576198
;LAYER:32
;MESH:rigid.STL
G0 X-6 Y-4.84 Z6.5
;TYPE:FILL
G1 F900 X-6 Y4.84 E138.9574
G1 X-7 Y4.84 E138.97997
G1 X-7 Y-4.84 E139.19847
G1 X-8 Y-4.84 E139.22104
G1 X-8 Y4.84 E139.43955
G1 X-9 Y4.84 E139.46212
G1 X-9 Y-4.84 E139.68062
G1 X-10 Y-4.84 E139.7032
G1 X-10 Y4.84 E139.9217
G1 X-11 Y4.84 E139.94427
G1 X-11 Y-4.84 E140.16278
G1 X-12 Y-4.84 E140.18535
G1 X-12 Y4.84 E140.40385
G1 X-13 Y4.84 E140.42642
G1 X-13 Y-4.84 E140.64493
G1 X-14 Y-4.84 E140.6675
G1 X-14 Y4.84 E140.886
G0 F1200 X-14 Y4.6
G0 X-5.02 Y4.84
G0 X-4.335 Y4.84
G0 X4.335 Y4.84
G0 X5.02 Y4.84
G0 X6 Y4.84
G1 F900 X6 Y-4.84 E141.10451
G1 X7 Y-4.84 E141.12708
G1 X7 Y4.84 E141.34558
G1 X8 Y4.84 E141.36816
G1 X8 Y-4.84 E141.58666
G1 X9 Y-4.84 E141.60923
G1 X9 Y4.84 E141.82774
G1 X10 Y4.84 E141.85031
G1 X10 Y-4.84 E142.06881
G1 X11 Y-4.84 E142.09138
G1 X11 Y4.84 E142.30989
G1 X12 Y4.84 E142.33246
G1 X12 Y-4.84 E142.55096
G1 X13 Y-4.84 E142.57354
G1 X13 Y4.84 E142.79204
G1 X14 Y4.84 E142.81461
G1 X14 Y-4.84 E143.03312
G0 F1200 X14 Y-4.6
;MESH:NONMESH
G0 X5.02 Y3.999
G0 X4.335 Y3.999
G0 X-4.335 Y3.999
G0 X-5.02 Y3.999
G0 X-5.16 Y3.999
;TIME_ELAPSED:556.497294
;LAYER:33
;MESH:rigid.STL
G0 X-5.16 Y3.999 Z6.7
;TYPE:FILL
G1 F900 X-14.84 Y3.999 E143.25162
G1 X-14.84 Y2.999 E143.27419
G1 X-5.16 Y2.999 E143.4927
G1 X-5.16 Y1.999 E143.51527
G1 X-14.84 Y1.999 E143.73377
G1 X-14.84 Y0.999 E143.75634
G1 X-5.16 Y0.999 E143.97485
G1 X-5.16 Y0.00 E143.9974
G1 X-14.84 Y0.00 E144.2159
G1 X-14.84 Y-1 E144.23847
G1 X-5.16 Y-1 E144.45698
G1 X-5.16 Y-2 E144.47955
G1 X-14.84 Y-2 E144.69805
G1 X-14.84 Y-3 E144.72063
G1 X-5.16 Y-3 E144.93913
G1 X-5.16 Y-4 E144.9617
G1 X-14.84 Y-4 E145.18021
G0 F1200 X-14.6 Y-4
G0 X-5.02 Y-3.999
G0 X-4.335 Y-3.999
G0 X4.335 Y-3.999
G0 X5.02 Y-3.999
G0 X5.16 Y-3.999
G1 F900 X14.84 Y-3.999 E145.39871
G1 X14.84 Y-2.999 E145.42128
G1 X5.16 Y-2.999 E145.63979
G1 X5.16 Y-1.999 E145.66236
G1 X14.84 Y-1.999 E145.88086
G1 X14.84 Y-.999 E145.90343
G1 X5.16 Y-.999 E146.12194
G1 X5.16 Y0.00 E146.14449
G1 X14.84 Y0.00 E146.36299
G1 X14.84 Y1 E146.38556
G1 X5.16 Y1 E146.60407
G1 X5.16 Y2 E146.62664
G1 X14.84 Y2 E146.84514
G1 X14.84 Y3 E146.86772
G1 X5.16 Y3 E147.08622
G1 X5.16 Y4 E147.10879
G1 X14.84 Y4 E147.3273
G0 F1200 X14.6 Y4
;MESH:NONMESH
G0 X5.02 Y-4.84
G0 X4.335 Y-4.84
G0 X-4.335 Y-4.84
G0 X-5.02 Y-4.84
G0 X-6 Y-4.84
;TIME_ELAPSED:571.477435
;LAYER:34
;MESH:rigid.STL
G0 X-6 Y-4.84 Z6.9
;TYPE:FILL
G1 F900 X-6 Y4.84 E147.5458
G1 X-7 Y4.84 E147.56837
G1 X-7 Y-4.84 E147.78687
G1 X-8 Y-4.84 E147.80945
G1 X-8 Y4.84 E148.02795
G1 X-9 Y4.84 E148.05052
G1 X-9 Y-4.84 E148.26903
G1 X-10 Y-4.84 E148.2916
G1 X-10 Y4.84 E148.5101
G1 X-11 Y4.84 E148.53268
G1 X-11 Y-4.84 E148.75118
G1 X-12 Y-4.84 E148.77375
G1 X-12 Y4.84 E148.99226
G1 X-13 Y4.84 E149.01483
G1 X-13 Y-4.84 E149.23333
G1 X-14 Y-4.84 E149.2559
G1 X-14 Y4.84 E149.47441
G0 F1200 X-14 Y4.6
G0 X-5.02 Y4.84
G0 X-4.335 Y4.84
G0 X4.335 Y4.84
G0 X5.02 Y4.84
G0 X6 Y4.84
G1 F900 X6 Y-4.84 E149.69291
G1 X7 Y-4.84 E149.71548
G1 X7 Y4.84 E149.93399
G1 X8 Y4.84 E149.95656
G1 X8 Y-4.84 E150.17506
G1 X9 Y-4.84 E150.19764
G1 X9 Y4.84 E150.41614
G1 X10 Y4.84 E150.43871
G1 X10 Y-4.84 E150.65722
G1 X11 Y-4.84 E150.67979
G1 X11 Y4.84 E150.89829
G1 X12 Y4.84 E150.92086
G1 X12 Y-4.84 E151.13937
G1 X13 Y-4.84 E151.16194
G1 X13 Y4.84 E151.38044
G1 X14 Y4.84 E151.40302
G1 X14 Y-4.84 E151.62152
G0 F1200 X14 Y-4.6
;MESH:NONMESH
G0 X5.02 Y3.999
G0 X4.335 Y3.999
G0 X-4.335 Y3.999
G0 X-5.02 Y3.999
G0 X-5.16 Y3.999
;TIME_ELAPSED:586.398532
;LAYER:35
;MESH:rigid.STL
G0 X-5.16 Y3.999 Z7.1
;TYPE:FILL
G1 F900 X-14.84 Y3.999 E151.84002
G1 X-14.84 Y2.999 E151.8626
G1 X-5.16 Y2.999 E152.0811
G1 X-5.16 Y1.999 E152.10367
G1 X-14.84 Y1.999 E152.32218
G1 X-14.84 Y0.999 E152.34475
G1 X-5.16 Y0.999 E152.56325
G1 X-5.16 Y0.00 E152.5858
G1 X-14.84 Y0.00 E152.8043
G1 X-14.84 Y-1 E152.82688
G1 X-5.16 Y-1 E153.04538
G1 X-5.16 Y-2 E153.06795
G1 X-14.84 Y-2 E153.28646
G1 X-14.84 Y-3 E153.30903
G1 X-5.16 Y-3 E153.52753
G1 X-5.16 Y-4 E153.55011
G1 X-14.84 Y-4 E153.76861
G0 F1200 X-14.6 Y-4
G0 X-5.02 Y-3.999
G0 X-4.335 Y-3.999
G0 X4.335 Y-3.999
G0 X5.02 Y-3.999
G0 X5.16 Y-3.999
G1 F900 X14.84 Y-3.999 E153.98711
G1 X14.84 Y-2.999 E154.00969
G1 X5.16 Y-2.999 E154.22819
G1 X5.16 Y-1.999 E154.25076
G1 X14.84 Y-1.999 E154.46926
G1 X14.84 Y-.999 E154.49184
G1 X5.16 Y-.999 E154.71034
G1 X5.16 Y0.00 E154.73289
G1 X14.84 Y0.00 E154.95139
G1 X14.84 Y1 E154.97397
G1 X5.16 Y1 E155.19247
G1 X5.16 Y2 E155.21504
G1 X14.84 Y2 E155.43355
G1 X14.84 Y3 E155.45612
G1 X5.16 Y3 E155.67462
G1 X5.16 Y4 E155.6972
G1 X14.84 Y4 E155.9157
G0 F1200 X14.6 Y4
;MESH:NONMESH
G0 X5.02 Y-4.84
G0 X4.335 Y-4.84
G0 X-4.335 Y-4.84
G0 X-5.02 Y-4.84
G0 X-6 Y-4.84
;TIME_ELAPSED:601.378673
;LAYER:36
;MESH:rigid.STL
G0 X-6 Y-4.84 Z7.3
;TYPE:FILL
G1 F900 X-6 Y4.84 E156.1342
G1 X-7 Y4.84 E156.15677
G1 X-7 Y-4.84 E156.37528
G1 X-8 Y-4.84 E156.39785
G1 X-8 Y4.84 E156.61635
G1 X-9 Y4.84 E156.63893
G1 X-9 Y-4.84 E156.85743
G1 X-10 Y-4.84 E156.88
G1 X-10 Y4.84 E157.09851
G1 X-11 Y4.84 E157.12108
G1 X-11 Y-4.84 E157.33958
G1 X-12 Y-4.84 E157.36216
G1 X-12 Y4.84 E157.58066
G1 X-13 Y4.84 E157.60323
G1 X-13 Y-4.84 E157.82173
G1 X-14 Y-4.84 E157.84431
G1 X-14 Y4.84 E158.06281
G0 F1200 X-14 Y4.6
G0 X-5.02 Y4.84
G0 X-4.335 Y4.84
G0 X4.335 Y4.84
G0 X5.02 Y4.84
G0 X6 Y4.84
G1 F900 X6 Y-4.84 E158.28131
G1 X7 Y-4.84 E158.30389
G1 X7 Y4.84 E158.52239
G1 X8 Y4.84 E158.54496
G1 X8 Y-4.84 E158.76347
G1 X9 Y-4.84 E158.78604
G1 X9 Y4.84 E159.00454
G1 X10 Y4.84 E159.02712
G1 X10 Y-4.84 E159.24562
G1 X11 Y-4.84 E159.26819
G1 X11 Y4.84 E159.48669
G1 X12 Y4.84 E159.50927
G1 X12 Y-4.84 E159.72777
G1 X13 Y-4.84 E159.75034
G1 X13 Y4.84 E159.96885
G1 X14 Y4.84 E159.99142
G1 X14 Y-4.84 E160.20992
G0 F1200 X14 Y-4.6
;MESH:NONMESH
G0 X5.02 Y3.999
G0 X4.335 Y3.999
G0 X-4.335 Y3.999
G0 X-5.02 Y3.999
G0 X-5.16 Y3.999
;TIME_ELAPSED:616.299769
;LAYER:37
;MESH:rigid.STL
G0 X-5.16 Y3.999 Z7.5
;TYPE:FILL
G1 F900 X-14.84 Y3.999 E160.42843
G1 X-14.84 Y2.999 E160.451
G1 X-5.16 Y2.999 E160.6695
G1 X-5.16 Y1.999 E160.69208
G1 X-14.84 Y1.999 E160.91058
G1 X-14.84 Y0.999 E160.93315
G1 X-5.16 Y0.999 E161.15165
G1 X-5.16 Y0.00 E161.1742
G1 X-14.84 Y0.00 E161.39271
G1 X-14.84 Y-1 E161.41528
G1 X-5.16 Y-1 E161.63378
G1 X-5.16 Y-2 E161.65636
G1 X-14.84 Y-2 E161.87486
G1 X-14.84 Y-3 E161.89743
G1 X-5.16 Y-3 E162.11594
G1 X-5.16 Y-4 E162.13851
G1 X-14.84 Y-4 E162.35701
G0 F1200 X-14.6 Y-4
G0 X-5.02 Y-3.999
G0 X-4.335 Y-3.999
G0 X4.335 Y-3.999
G0 X5.02 Y-3.999
G0 X5.16 Y-3.999
G1 F900 X14.84 Y-3.999 E162.57552
G1 X14.84 Y-2.999 E162.59809
G1 X5.16 Y-2.999 E162.81659
G1 X5.16 Y-1.999 E162.83916
G1 X14.84 Y-1.999 E163.05767
G1 X14.84 Y-.999 E163.08024
G1 X5.16 Y-.999 E163.29874
G1 X5.16 Y0.00 E163.32129
G1 X14.84 Y0.00 E163.5398
G1 X14.84 Y1 E163.56237
G1 X5.16 Y1 E163.78087
G1 X5.16 Y2 E163.80345
G1 X14.84 Y2 E164.02195
G1 X14.84 Y3 E164.04452
G1 X5.16 Y3 E164.26303
G1 X5.16 Y4 E164.2856
G1 X14.84 Y4 E164.5041
G0 F1200 X14.6 Y4
;MESH:NONMESH
G0 X5.02 Y-4.84
G0 X4.335 Y-4.84
G0 X-4.335 Y-4.84
G0 X-5.02 Y-4.84
G0 X-6 Y-4.84
;TIME_ELAPSED:631.279910
;LAYER:38
;MESH:rigid.STL
G0 X-6 Y-4.84 Z7.7
;TYPE:FILL
G1 F900 X-6 Y4.84 E164.72261
G1 X-7 Y4.84 E164.74518
G1 X-7 Y-4.84 E164.96368
G1 X-8 Y-4.84 E164.98625
G1 X-8 Y4.84 E165.20476
G1 X-9 Y4.84 E165.22733
G1 X-9 Y-4.84 E165.44583
G1 X-10 Y-4.84 E165.46841
G1 X-10 Y4.84 E165.68691
G1 X-11 Y4.84 E165.70948
G1 X-11 Y-4.84 E165.92799
G1 X-12 Y-4.84 E165.95056
G1 X-12 Y4.84 E166.16906
G1 X-13 Y4.84 E166.19163
G1 X-13 Y-4.84 E166.41014
G1 X-14 Y-4.84 E166.43271
G1 X-14 Y4.84 E166.65121
G0 F1200 X-14 Y4.6
G0 X-5.02 Y4.84
G0 X-4.335 Y4.84
G0 X4.335 Y4.84
G0 X5.02 Y4.84
G0 X6 Y4.84
G1 F900 X6 Y-4.84 E166.86972
G1 X7 Y-4.84 E166.89229
G1 X7 Y4.84 E167.11079
G1 X8 Y4.84 E167.13337
G1 X8 Y-4.84 E167.35187
G1 X9 Y-4.84 E167.37444
G1 X9 Y4.84 E167.59295
G1 X10 Y4.84 E167.61552
G1 X10 Y-4.84 E167.83402
G1 X11 Y-4.84 E167.85659
G1 X11 Y4.84 E168.0751
G1 X12 Y4.84 E168.09767
G1 X12 Y-4.84 E168.31617
G1 X13 Y-4.84 E168.33875
G1 X13 Y4.84 E168.55725
G1 X14 Y4.84 E168.57982
G1 X14 Y-4.84 E168.79833
G0 F1200 X14 Y-4.6
;MESH:NONMESH
G0 X5.02 Y3.999
G0 X4.335 Y3.999
G0 X-4.335 Y3.999
G0 X-5.02 Y3.999
G0 X-5.16 Y3.999
;TIME_ELAPSED:646.201007
;LAYER:39
;MESH:rigid.STL
G0 X-5.16 Y3.999 Z7.9
;TYPE:FILL
G1 F900 X-14.84 Y3.999 E169.01683
G1 X-14.84 Y2.999 E169.0394
G1 X-5.16 Y2.999 E169.25791
G1 X-5.16 Y1.999 E169.28048
G1 X-14.84 Y1.999 E169.49898
G1 X-14.84 Y0.999 E169.52155
G1 X-5.16 Y0.999 E169.74006
G1 X-5.16 Y0.00 E169.76261
G1 X-14.84 Y0.00 E169.98111
G1 X-14.84 Y-1 E170.00368
G1 X-5.16 Y-1 E170.22219
G1 X-5.16 Y-2 E170.24476
G1 X-14.84 Y-2 E170.46326
G1 X-14.84 Y-3 E170.48584
G1 X-5.16 Y-3 E170.70434
G1 X-5.16 Y-4 E170.72691
G1 X-14.84 Y-4 E170.94542
G0 F1200 X-14.6 Y-4
G0 X-5.02 Y-3.999
G0 X-4.335 Y-3.999
G0 X4.335 Y-3.999
G0 X5.02 Y-3.999
G0 X5.16 Y-3.999
G1 F900 X14.84 Y-3.999 E171.16392
G1 X14.84 Y-2.999 E171.18649
G1 X5.16 Y-2.999 E171.405
G1 X5.16 Y-1.999 E171.42757
G1 X14.84 Y-1.999 E171.64607
G1 X14.84 Y-.999 E171.66864
G1 X5.16 Y-.999 E171.88715
G1 X5.16 Y0.00 E171.9097
G1 X14.84 Y0.00 E172.1282
G1 X14.84 Y1 E172.15077
G1 X5.16 Y1 E172.36928
G1 X5.16 Y2 E172.39185
G1 X14.84 Y2 E172.61035
G1 X14.84 Y3 E172.63293
G1 X5.16 Y3 E172.85143
G1 X5.16 Y4 E172.874
G1 X14.84 Y4 E173.09251
G0 F1200 X14.6 Y4
;MESH:NONMESH
G0 X5.02 Y-4.84
G0 X4.335 Y-4.84
G0 X-4.335 Y-4.84
G0 X-5.02 Y-4.84
G0 X-6 Y-4.84
;TIME_ELAPSED:661.181148
;LAYER:40
;MESH:rigid.STL
G0 X-6 Y-4.84 Z8.1
;TYPE:FILL
G1 F900 X-6 Y4.84 E173.31101
G1 X-7 Y4.84 E173.33358
G1 X-7 Y-4.84 E173.55209
G1 X-8 Y-4.84 E173.57466
G1 X-8 Y4.84 E173.79316
G1 X-9 Y4.84 E173.81573
G1 X-9 Y-4.84 E174.03424
G1 X-10 Y-4.84 E174.05681
G1 X-10 Y4.84 E174.27531
G1 X-11 Y4.84 E174.29789
G1 X-11 Y-4.84 E174.51639
G1 X-12 Y-4.84 E174.53896
G1 X-12 Y4.84 E174.75747
G1 X-13 Y4.84 E174.78004
G1 X-13 Y-4.84 E174.99854
G1 X-14 Y-4.84 E175.02111
G1 X-14 Y4.84 E175.23962
G0 F1200 X-14 Y4.6
G0 X-5.02 Y4.84
G0 X-4.335 Y4.84
G0 X4.335 Y4.84
G0 X5.02 Y4.84
G0 X6 Y4.84
G1 F900 X6 Y-4.84 E175.45812
G1 X7 Y-4.84 E175.48069
G1 X7 Y4.84 E175.6992
G1 X8 Y4.84 E175.72177
G1 X8 Y-4.84 E175.94027
G1 X9 Y-4.84 E175.96285
G1 X9 Y4.84 E176.18135
G1 X10 Y4.84 E176.20392
G1 X10 Y-4.84 E176.42243
G1 X11 Y-4.84 E176.445
G1 X11 Y4.84 E176.6635
G1 X12 Y4.84 E176.68607
G1 X12 Y-4.84 E176.90458
G1 X13 Y-4.84 E176.92715
G1 X13 Y4.84 E177.14565
G1 X14 Y4.84 E177.16823
G1 X14 Y-4.84 E177.38673
G0 F1200 X14 Y-4.6
;TIME_ELAPSED:674.971587
M140 S0
M107
M104 S0 ;extruder heater off
M140 S0 ;heated bed heater off (if you have it)
G91 ;relative positioning
G1 E-1 F300  ;retract the filament a bit before lifting the nozzle, to release some of the pressure
G1 Z+0.5 E-5 X-20 Y-20 F9000 ;move Z up a bit and retract filament even more
G28 X0 Y0 ;move X/Y to min endstops, so the head is out of the way
M84 ;steppers off
G90 ;absolute positioning
M82 ;absolute extrusion mode
M104 S0
;End of Gcode
;SETTING_3 {"extruder_quality": ["[general]\\nversion = 4\\nname = Jiannan - PLA
;SETTING_3 \\ndefinition = fdmprinter\\n\\n[metadata]\\nposition = 0\\nsetting_v
;SETTING_3 ersion = 5\\ntype = quality_changes\\nquality_type = verydraft\\n\\n[
;SETTING_3 values]\\nbrim_width = 0\\ninfill_angles = [0,90]\\ninfill_line_dista
;SETTING_3 nce = =0 if infill_sparse_density == 0 else (infill_line_width * 100)
;SETTING_3  / infill_sparse_density * (2 if infill_pattern == 'grid' else (3 if 
;SETTING_3 infill_pattern == 'triangles' or infill_pattern == 'trihexagon' or in
;SETTING_3 fill_pattern == 'cubic' or infill_pattern == 'cubicsubdiv' else (2 if
;SETTING_3  infill_pattern == 'tetrahedral' or infill_pattern == 'quarter_cubic'
;SETTING_3  else (1 if infill_pattern == 'cross' or infill_pattern == 'cross_3d'
;SETTING_3  else 1))))\\ninfill_pattern = zigzag\\ninfill_sparse_density = 40\\n
;SETTING_3 material_flow = 180\\nretraction_enable = False\\nskirt_line_count = 
;SETTING_3 2\\nspeed_print = 15\\nspeed_travel = 20\\ntop_bottom_thickness = 0.0
;SETTING_3 \\nwall_thickness = 0.0\\n\\n"], "global_quality": "[general]\\nversi
;SETTING_3 on = 4\\nname = Jiannan - PLA\\ndefinition = fdmprinter\\n\\n[metadat
;SETTING_3 a]\\nsetting_version = 5\\ntype = quality_changes\\nquality_type = ve
;SETTING_3 rydraft\\n\\n[values]\\nadhesion_type = skirt\\nlayer_height = 0.2\\n
;SETTING_3 layer_height_0 = 0.1\\nmaterial_bed_temperature = 0\\nsupport_enable 
;SETTING_3 = False\\n\\n"}
