;FLAVOR:Marlin
;TIME:462
;Filament used: 0.0916307m
;Layer height: 0.2
;Generated with Cura_SteamEngine 3.6.0
M104 S200
M105
M109 S200
M82 ;absolute extrusion mode
G21 ;metric values
G90 ;absolute positioning
M82 ;set extruder to absolute mode
M107 ;start with the fan off
G28 ;move XYZ to min endstops
G1 Z15.0 F9000 ;move the platform down 15mm
G1 F9000
;Put printing message on LCD screen
M117 Printing...
G92 E0
G1 F1500 E-6.5
;LAYER_COUNT:50
;LAYER:0
M107
G0 F600 X4.991 Y-9.39 Z0.3
;TYPE:SKIRT
G1 F1500 E0
G1 F450 X5.583 Y-9.35 E0.01339
G1 X6.164 Y-9.231 E0.02678
G1 X6.723 Y-9.035 E0.04015
G1 X7.252 Y-8.765 E0.05356
G1 X7.739 Y-8.427 E0.06694
G1 X8.176 Y-8.026 E0.08033
G1 X8.555 Y-7.57 E0.09371
G1 X8.87 Y-7.068 E0.10709
G1 X9.114 Y-6.527 E0.12049
G1 X9.283 Y-5.959 E0.13386
G1 X9.374 Y-5.373 E0.14725
G1 X9.391 Y-4.99 E0.1559
G1 X9.391 Y4.991 E0.3812
G1 X9.351 Y5.583 E0.39459
G1 X9.232 Y6.163 E0.40796
G1 X9.036 Y6.723 E0.42135
G1 X8.766 Y7.251 E0.43474
G1 X8.428 Y7.738 E0.44812
G1 X8.027 Y8.175 E0.46151
G1 X7.572 Y8.555 E0.47489
G1 X7.069 Y8.869 E0.48827
G1 X6.529 Y9.114 E0.50166
G1 X5.96 Y9.283 E0.51506
G1 X5.375 Y9.374 E0.52842
G1 X4.991 Y9.391 E0.5371
G1 X-4.991 Y9.391 E0.76242
G1 X-5.583 Y9.351 E0.77581
G1 X-6.163 Y9.232 E0.78917
G1 X-6.723 Y9.036 E0.80257
G1 X-7.251 Y8.766 E0.81595
G1 X-7.738 Y8.428 E0.82933
G1 X-8.175 Y8.027 E0.84272
G1 X-8.555 Y7.572 E0.8561
G1 X-8.869 Y7.069 E0.86949
G1 X-9.114 Y6.529 E0.88287
G1 X-9.283 Y5.96 E0.89627
G1 X-9.374 Y5.375 E0.90964
G1 X-9.391 Y4.991 E0.91831
G1 X-9.391 Y-4.991 E1.14363
G1 X-9.351 Y-5.583 E1.15703
G1 X-9.232 Y-6.163 E1.17039
G1 X-9.036 Y-6.723 E1.18378
G1 X-8.766 Y-7.251 E1.19717
G1 X-8.428 Y-7.738 E1.21055
G1 X-8.027 Y-8.175 E1.22394
G1 X-7.572 Y-8.555 E1.23732
G1 X-7.069 Y-8.869 E1.2507
G1 X-6.529 Y-9.114 E1.26409
G1 X-5.96 Y-9.283 E1.27749
G1 X-5.375 Y-9.374 E1.29085
G1 X-4.991 Y-9.391 E1.29953
G1 X4.991 Y-9.39 E1.52485
G0 F600 X4.991 Y-8.99
G1 F450 X5.555 Y-8.95 E1.53761
G1 X6.108 Y-8.831 E1.55038
G1 X6.638 Y-8.635 E1.56314
G1 X7.136 Y-8.366 E1.57591
G1 X7.59 Y-8.03 E1.58866
G1 X7.993 Y-7.634 E1.60141
G1 X8.336 Y-7.184 E1.61419
G1 X8.612 Y-6.69 E1.62696
G1 X8.815 Y-6.163 E1.63971
G1 X8.942 Y-5.612 E1.65247
G1 X8.991 Y-4.99 E1.66656
G1 X8.991 Y4.991 E1.89185
G1 X8.951 Y5.555 E1.90462
G1 X8.832 Y6.108 E1.91738
G1 X8.636 Y6.638 E1.93014
G1 X8.368 Y7.135 E1.94289
G1 X8.032 Y7.59 E1.95565
G1 X7.635 Y7.993 E1.96842
G1 X7.185 Y8.335 E1.98118
G1 X6.692 Y8.611 E1.99393
G1 X6.164 Y8.815 E2.00671
G1 X5.614 Y8.942 E2.01945
G1 X4.991 Y8.991 E2.03356
G1 X-4.991 Y8.991 E2.25888
G1 X-5.555 Y8.951 E2.27164
G1 X-6.108 Y8.832 E2.28441
G1 X-6.638 Y8.636 E2.29717
G1 X-7.135 Y8.368 E2.30991
G1 X-7.59 Y8.032 E2.32268
G1 X-7.993 Y7.635 E2.33545
G1 X-8.335 Y7.185 E2.34821
G1 X-8.611 Y6.692 E2.36096
G1 X-8.815 Y6.164 E2.37374
G1 X-8.942 Y5.614 E2.38648
G1 X-8.991 Y4.991 E2.40059
G1 X-8.991 Y-4.991 E2.62591
G1 X-8.951 Y-5.555 E2.63867
G1 X-8.832 Y-6.108 E2.65144
G1 X-8.636 Y-6.638 E2.66419
G1 X-8.368 Y-7.135 E2.67694
G1 X-8.032 Y-7.59 E2.68971
G1 X-7.635 Y-7.993 E2.70248
G1 X-7.185 Y-8.335 E2.71523
G1 X-6.692 Y-8.611 E2.72799
G1 X-6.164 Y-8.815 E2.74076
G1 X-5.614 Y-8.942 E2.75351
G1 X-4.991 Y-8.991 E2.76761
G1 X4.991 Y-8.99 E2.99293
G0 F600 X4.991 Y-8.59
G1 F450 X5.526 Y-8.55 E3.00504
G1 X6.049 Y-8.431 E3.01715
G1 X6.548 Y-8.236 E3.02924
G1 X7.013 Y-7.968 E3.04136
G1 X7.433 Y-7.635 E3.05346
G1 X7.799 Y-7.243 E3.06556
G1 X8.103 Y-6.8 E3.07769
G1 X8.337 Y-6.318 E3.08978
G1 X8.497 Y-5.806 E3.10189
G1 X8.58 Y-5.276 E3.114
G1 X8.591 Y-4.99 E3.12046
G1 X8.591 Y4.991 E3.34576
G1 X8.551 Y5.526 E3.35787
G1 X8.432 Y6.049 E3.36998
G1 X8.237 Y6.548 E3.38207
G1 X7.969 Y7.013 E3.39419
G1 X7.636 Y7.433 E3.40628
G1 X7.244 Y7.799 E3.41839
G1 X6.802 Y8.102 E3.43049
G1 X6.319 Y8.337 E3.44261
G1 X5.808 Y8.497 E3.4547
G1 X5.278 Y8.58 E3.46681
G1 X4.991 Y8.591 E3.47329
G1 X-4.991 Y8.591 E3.69861
G1 X-5.526 Y8.551 E3.71072
G1 X-6.049 Y8.432 E3.72283
G1 X-6.548 Y8.237 E3.73492
G1 X-7.013 Y7.969 E3.74704
G1 X-7.433 Y7.636 E3.75914
G1 X-7.799 Y7.244 E3.77124
G1 X-8.102 Y6.802 E3.78334
G1 X-8.337 Y6.319 E3.79546
G1 X-8.497 Y5.808 E3.80755
G1 X-8.58 Y5.278 E3.81966
G1 X-8.591 Y4.991 E3.82614
G1 X-8.591 Y-4.991 E4.05146
G1 X-8.551 Y-5.526 E4.06357
G1 X-8.432 Y-6.049 E4.07568
G1 X-8.237 Y-6.548 E4.08777
G1 X-7.969 Y-7.013 E4.09989
G1 X-7.636 Y-7.433 E4.11199
G1 X-7.244 Y-7.799 E4.12409
G1 X-6.802 Y-8.102 E4.13619
G1 X-6.319 Y-8.337 E4.14831
G1 X-5.808 Y-8.497 E4.1604
G1 X-5.278 Y-8.58 E4.17251
G1 X-4.991 Y-8.591 E4.17899
G1 X4.991 Y-8.59 E4.40431
G0 F600 X4.991 Y-8.19
G1 F450 X5.495 Y-8.15 E4.41572
G1 X5.987 Y-8.031 E4.42715
G1 X6.453 Y-7.836 E4.43855
G1 X6.883 Y-7.571 E4.44995
G1 X7.266 Y-7.24 E4.46138
G1 X7.592 Y-6.854 E4.47279
G1 X7.853 Y-6.421 E4.4842
G1 X8.043 Y-5.952 E4.49562
G1 X8.156 Y-5.46 E4.50702
G1 X8.191 Y-4.99 E4.51765
G1 X8.191 Y4.991 E4.74295
G1 X8.151 Y5.495 E4.75436
G1 X8.032 Y5.986 E4.76577
G1 X7.838 Y6.453 E4.77718
G1 X7.572 Y6.883 E4.7886
G1 X7.242 Y7.266 E4.80001
G1 X6.855 Y7.592 E4.81143
G1 X6.422 Y7.853 E4.82284
G1 X5.954 Y8.043 E4.83424
G1 X5.461 Y8.156 E4.84566
G1 X4.991 Y8.191 E4.8563
G1 X-4.991 Y8.191 E5.08162
G1 X-5.495 Y8.151 E5.09303
G1 X-5.986 Y8.032 E5.10444
G1 X-6.453 Y7.838 E5.11585
G1 X-6.883 Y7.572 E5.12726
G1 X-7.266 Y7.242 E5.13868
G1 X-7.592 Y6.855 E5.1501
G1 X-7.853 Y6.422 E5.16151
G1 X-8.043 Y5.954 E5.17291
G1 X-8.156 Y5.461 E5.18433
G1 X-8.191 Y4.991 E5.19497
G1 X-8.191 Y-4.991 E5.42029
G1 X-8.151 Y-5.495 E5.4317
G1 X-8.032 Y-5.986 E5.4431
G1 X-7.838 Y-6.453 E5.45452
G1 X-7.572 Y-6.883 E5.46593
G1 X-7.242 Y-7.266 E5.47734
G1 X-6.855 Y-7.592 E5.48877
G1 X-6.422 Y-7.853 E5.50018
G1 X-5.954 Y-8.043 E5.51158
G1 X-5.461 Y-8.156 E5.523
G1 X-4.991 Y-8.191 E5.53363
G1 X4.991 Y-8.19 E5.75896
G1 F1500 E-0.74104
;MESH:rectangle_w_hole.STL
;another scaffold layer***************
G0 F600 X4.991 Y-5.665
G0 X4.991 Y-4.98
G0 X4.8 Y-4.84
;TYPE:FILL
G1 F1500 E5.75896
G1 F450 X4.8 Y4.84 E5.97746
G1 X4 Y4.84 E5.99552
G1 X4 Y-4.84 E6.21402
G1 X3.2 Y-4.84 E6.23208
G1 X3.2 Y4.84 E6.45058
G1 X2.4 Y4.84 E6.46864
G1 X2.4 Y1.13 E6.55238
G1 X2.358 Y1.231 E6.55485
G1 X2.135 Y1.588 E6.56436
G1 X1.843 Y1.916 E6.57427
G1 X1.6 Y2.117 E6.58139
G1 X1.6 Y4.84 E6.64285
G1 X0.8 Y4.84 E6.66091
G1 X0.8 Y2.532 E6.71301
G1 X0.747 Y2.553 E6.71429
G1 X0.328 Y2.64 E6.72395
G1 X0.00 Y2.653 E6.73136
G1 X0.00 Y4.84 E6.78073
G1 X-.8 Y4.84 E6.79879
G1 X-.8 Y2.53 E6.85093
G1 X-.934 Y2.492 E6.85407
G1 X-1.327 Y2.306 E6.86389
G1 X-1.6 Y2.119 E6.87136
G1 X-1.6 Y4.84 E6.93278
G1 X-2.4 Y4.84 E6.95084
G1 X-2.4 Y1.133 E7.03451
G0 F600 X-4.8 Y4.84
G1 F450 X-4.8 Y-4.84 E7.25302
G1 X-4 Y-4.84 E7.27108
G1 X-4 Y4.84 E7.48958
G1 X-3.2 Y4.84 E7.50764
G1 X-3.2 Y-4.84 E7.72614
G1 X-2.4 Y-4.84 E7.7442
G1 X-2.4 Y-1.134 E7.82785
G1 X-2.254 Y-1.415 E7.835
G1 X-1.995 Y-1.758 E7.8447
G1 X-1.685 Y-2.059 E7.85446
G1 X-1.6 Y-2.118 E7.85679
G1 X-1.6 Y-4.84 E7.91823
G1 X-.8 Y-4.84 E7.93629
G1 X-.8 Y-2.528 E7.98848
G1 X-.538 Y-2.604 E7.99464
G1 X-.118 Y-2.657 E8.00419
G1 X0.00 Y-2.653 E8.00686
G1 X0.00 Y-4.84 E8.05623
G1 X0.8 Y-4.84 E8.07428
G1 X0.8 Y-2.533 E8.12636
G0 F600 X0.967 Y-2.47
G1 F450 X1.321 Y-2.299 E8.1401
G1 X1.553 Y-2.154 E8.14967
G1 X1.6 Y-3.478 E8.19598
G1 X2 Y-4.84 E8.24561
G1 X2.4 Y-2.986 E8.31192
G0 F600 X2.622 Y-1.225
;MESH:NONMESH
G0 X1.083 Y-2.297
G0 X0.299 Y-2.521
G0 X-.16 Y-2.503
G0 X-1.125 Y-2.4
;TIME_ELAPSED:58.861011
;LAYER:1
M106 S255
;MESH:rectangle_w_hole.STL
;another scaffold layer***************
G0 F900 X-1.125 Y-2.4 Z0.5
;TYPE:FILL
G1 F675 X-4.84 Y-2.4 E8.36782
G1 X-4.84 Y-1.6 E8.37986
G1 X-2.112 Y-1.6 E8.42091
G1 X-2.258 Y-1.402 E8.42462
G1 X-2.452 Y-1.029 E8.43094
G1 X-2.527 Y-.8 E8.43457
G1 X-4.84 Y-.8 E8.46938
G1 X-4.84 Y0.00 E8.48142
G1 X-2.65 Y0.00 E8.51437
G1 X-2.649 Y0.232 E8.51786
G1 X-2.578 Y0.652 E8.52427
G1 X-2.527 Y0.799 E8.52661
G1 X-4.84 Y0.799 E8.56142
G1 X-4.84 Y1.599 E8.57346
G1 X-2.111 Y1.599 E8.61453
G1 X-1.976 Y1.776 E8.61788
G1 X-1.668 Y2.07 E8.62429
G1 X-1.311 Y2.311 E8.63077
G1 X-1.122 Y2.4 E8.63391
G1 X-4.84 Y2.399 E8.68986
G1 X-4.84 Y3.199 E8.7019
G1 X4.84 Y3.2 E8.84757
G1 X4.84 Y4 E8.85961
G1 X-4.84 Y3.999 E9.00528
G1 X-4.84 Y4.8 E9.01733
G1 X4.84 Y4.8 E9.163
G0 F900 X1.145 Y2.4
G1 F675 X4.84 Y2.4 E9.2186
G1 X4.84 Y1.6 E9.23064
G1 X2.122 Y1.6 E9.27154
G1 X2.135 Y1.584 E9.27185
G1 X2.365 Y1.215 E9.2784
G1 X2.526 Y0.831 E9.28466
G1 X2.534 Y0.8 E9.28514
G1 X4.84 Y0.8 E9.31985
G1 X4.84 Y0.00 E9.33189
G1 X2.66 Y0.00 E9.36469
G1 X2.661 Y-0.017 E9.36495
G1 X2.623 Y-.441 E9.37135
G1 X2.531 Y-.799 E9.37692
G1 X4.84 Y-.799 E9.41166
G1 X4.84 Y-1.599 E9.4237
G1 X2.122 Y-1.599 E9.4646
G1 X2.115 Y-1.611 E9.46481
G1 X1.827 Y-1.932 E9.4713
G1 X1.497 Y-2.197 E9.47767
G1 X1.141 Y-2.4 E9.48384
G1 X4.84 Y-2.399 E9.5395
G1 X4.84 Y-3.199 E9.55154
G1 X-4.84 Y-3.2 E9.69721
G1 X-4.84 Y-4 E9.70925
G1 X4.84 Y-3.999 E9.85492
G1 X4.84 Y-4.8 E9.86697
G1 X-4.84 Y-4.8 E10.01264
G0 F900 X-4.6 Y-4.6
;MESH:NONMESH
G0 X1.073 Y-2.301
G0 X1.618 Y-1.93
G0 X2.4 Y-1.128
;TIME_ELAPSED:69.831263
;LAYER:2
;MESH:rectangle_w_hole.STL
;another scaffold layer***************
G0 F1200 X2.4 Y-1.128 Z0.7
;TYPE:FILL
G1 F900 X2.4 Y-4.84 E10.0685
G1 X1.6 Y-4.84 E10.08054
G1 X1.6 Y-2.114 E10.12156
G1 X1.491 Y-2.201 E10.12366
G1 X1.116 Y-2.413 E10.13014
G1 X0.8 Y-2.53 E10.13521
G1 X0.8 Y-4.84 E10.16997
G1 X0.00 Y-4.84 E10.18201
G1 X0.00 Y-2.651 E10.21495
G0 F1200 X-0.067 Y-2.653
G1 F900 X-.344 Y-2.627 E10.21995
G1 X-.676 Y-2.563 E10.22603
G1 X-.8 Y-3.683 E10.24627
G1 X-1.2 Y-4.84 E10.26826
G1 X-1.6 Y-3.477 E10.29377
G1 X-1.851 Y-1.896 E10.32253
G1 X-2.33 Y-1.263 E10.33679
G1 X-2.4 Y-2.983 E10.36771
G1 X-2.8 Y-4.84 E10.40183
G0 F1200 X-3.2 Y-4.84
G1 F900 X-3.2 Y4.84 E10.5475
G1 X-4 Y4.84 E10.55954
G1 X-4 Y-4.84 E10.70521
G1 X-4.8 Y-4.84 E10.71725
G1 X-4.8 Y4.84 E10.86292
G0 F1200 X-2.4 Y1.132
G1 F900 X-2.4 Y4.84 E10.91872
G1 X-1.6 Y4.84 E10.93076
G1 X-1.6 Y2.117 E10.97173
G1 X-1.304 Y2.318 E10.97712
G1 X-.922 Y2.495 E10.98345
G1 X-.8 Y2.529 E10.98536
G1 X-.8 Y4.84 E11.02014
G1 X0.00 Y4.84 E11.03218
G1 X0.00 Y2.653 E11.06509
G1 X0.35 Y2.636 E11.07036
G1 X0.766 Y2.546 E11.07676
G1 X0.8 Y2.532 E11.07732
G1 X0.8 Y4.84 E11.11205
G1 X1.6 Y4.84 E11.12409
G1 X1.6 Y2.116 E11.16508
G1 X1.858 Y1.901 E11.17013
G1 X2.144 Y1.573 E11.17668
G1 X2.365 Y1.216 E11.183
G1 X2.4 Y1.131 E11.18438
G1 X2.4 Y4.84 E11.2402
G1 X3.2 Y4.84 E11.25224
G1 X3.2 Y-4.84 E11.39791
G1 X4 Y-4.84 E11.40995
G1 X4 Y4.84 E11.55561
G1 X4.8 Y4.84 E11.56765
G1 X4.8 Y-4.84 E11.71332
G0 F1200 X4.6 Y-4.6
;MESH:NONMESH
G0 X-1.127 Y-2.4
;TIME_ELAPSED:77.883817
;LAYER:3
;MESH:rectangle_w_hole.STL
;another scaffold layer***************
G0 X-1.127 Y-2.4 Z0.9
;TYPE:FILL
G1 F900 X-4.84 Y-2.4 E11.7692
G1 X-4.84 Y-1.6 E11.78124
G1 X-2.114 Y-1.6 E11.82226
G1 X-2.25 Y-1.42 E11.82565
G1 X-2.448 Y-1.044 E11.83205
G1 X-2.529 Y-.8 E11.83592
G1 X-4.84 Y-.8 E11.87069
G1 X-4.84 Y0.00 E11.88273
G1 X-2.652 Y0.00 E11.91566
G1 X-2.652 Y0.215 E11.91889
G1 X-2.584 Y0.632 E11.92525
G1 X-2.528 Y0.799 E11.9279
G1 X-4.84 Y0.799 E11.96269
G1 X-4.84 Y1.599 E11.97473
G1 X-2.114 Y1.599 E12.01576
G1 X-1.991 Y1.762 E12.01883
G1 X-1.684 Y2.059 E12.02526
G0 F1200 X-1.505 Y2.181
G1 F900 X-1.226 Y2.352 E12.03511
G0 F1200 X-1.126 Y2.4
G1 F900 X-4.84 Y2.399 E12.09099
G1 X-4.84 Y3.199 E12.10303
G1 X4.84 Y3.2 E12.2487
G1 X4.84 Y4 E12.26074
G1 X-4.84 Y3.999 E12.40641
G1 X-4.84 Y4.8 E12.41846
G1 X4.84 Y4.8 E12.56413
G0 F1200 X1.147 Y2.4
G1 F900 X4.84 Y2.4 E12.61971
G1 X4.84 Y1.6 E12.63175
G1 X2.124 Y1.6 E12.67262
G1 X2.357 Y1.235 E12.67913
G1 X2.523 Y0.843 E12.68554
G1 X2.534 Y0.8 E12.68621
G1 X4.84 Y0.8 E12.72091
G1 X4.84 Y0.00 E12.73295
G1 X2.662 Y0.00 E12.76572
G1 X2.626 Y-.424 E12.77213
G1 X2.533 Y-.799 E12.77794
G1 X4.84 Y-.799 E12.81266
G1 X4.84 Y-1.599 E12.8247
G1 X2.124 Y-1.599 E12.86557
G1 X1.839 Y-1.922 E12.87205
G1 X1.511 Y-2.189 E12.87842
G1 X1.146 Y-2.4 E12.88476
G1 X4.84 Y-2.399 E12.94035
G1 X4.84 Y-3.199 E12.95239
G1 X-4.84 Y-3.2 E13.09806
G1 X-4.84 Y-4 E13.1101
G1 X4.84 Y-3.999 E13.25576
G1 X4.84 Y-4.8 E13.26782
G1 X-4.84 Y-4.8 E13.41349
G0 F1200 X-4.6 Y-4.6
;MESH:NONMESH
G0 X1.089 Y-2.295
G0 X1.631 Y-1.92
G0 X2.4 Y-1.135
;TIME_ELAPSED:86.127072
;LAYER:4
;MESH:rectangle_w_hole.STL
;another scaffold layer***************
G0 X2.4 Y-1.135 Z1.1
;TYPE:FILL
G1 F900 X2.4 Y-4.84 E13.46924
G1 X1.6 Y-4.84 E13.48128
G1 X1.6 Y-2.118 E13.52224
G1 X1.512 Y-2.189 E13.52394
G1 X1.142 Y-2.403 E13.53038
G1 X0.8 Y-2.533 E13.53588
G1 X0.8 Y-4.84 E13.5706
G1 X0.00 Y-4.84 E13.58264
G1 X0.00 Y-2.654 E13.61553
G1 X-.106 Y-2.657 E13.61713
G1 X-.537 Y-2.605 E13.62366
G1 X-.8 Y-2.529 E13.62778
G1 X-.8 Y-4.84 E13.66256
G1 X-1.6 Y-4.84 E13.6746
G1 X-1.6 Y-2.117 E13.71557
G1 X-1.685 Y-2.059 E13.71712
G1 X-1.991 Y-1.763 E13.72353
G1 X-2.25 Y-1.421 E13.72998
G1 X-2.4 Y-1.136 E13.73483
G1 X-2.4 Y-4.84 E13.79057
G1 X-3.2 Y-4.84 E13.80261
G1 X-3.2 Y4.84 E13.94828
G1 X-4 Y4.84 E13.96032
G1 X-4 Y-4.84 E14.10599
G1 X-4.8 Y-4.84 E14.11803
G1 X-4.8 Y4.84 E14.26369
G0 F1200 X-2.4 Y1.137
G1 F900 X-2.4 Y4.84 E14.31942
G1 X-1.6 Y4.84 E14.33146
G1 X-1.6 Y2.118 E14.37242
G1 X-1.328 Y2.304 E14.37738
G1 X-.94 Y2.49 E14.38385
G1 X-.8 Y2.53 E14.38604
G1 X-.8 Y4.84 E14.42081
G1 X0.00 Y4.84 E14.43284
G1 X0.00 Y2.653 E14.46576
G1 X0.321 Y2.641 E14.47059
G1 X0.741 Y2.555 E14.47704
G1 X0.8 Y2.532 E14.47799
G1 X0.8 Y4.84 E14.51273
G1 X1.6 Y4.84 E14.52476
G1 X1.6 Y2.117 E14.56574
G1 X1.84 Y1.922 E14.57039
G1 X2.128 Y1.596 E14.57694
G1 X2.357 Y1.236 E14.58336
G1 X2.4 Y1.134 E14.58503
G1 X2.4 Y4.84 E14.6408
G1 X3.2 Y4.84 E14.65284
G1 X3.2 Y-4.84 E14.7985
G1 X4 Y-4.84 E14.81054
G1 X4 Y4.84 E14.95621
G1 X4.8 Y4.84 E14.96825
G1 X4.8 Y-4.84 E15.11392
G0 F1200 X4.6 Y-4.6
;MESH:NONMESH
G0 X-1.127 Y-2.4
;TIME_ELAPSED:94.288199
;LAYER:5
;MESH:rectangle_w_hole.STL
;another scaffold layer***************
G0 X-1.127 Y-2.4 Z1.3
;TYPE:FILL
G1 F900 X-4.84 Y-2.4 E15.16979
G1 X-4.84 Y-1.6 E15.18183
G1 X-2.114 Y-1.6 E15.22286
G1 X-2.25 Y-1.42 E15.22625
G1 X-2.448 Y-1.044 E15.23265
G1 X-2.529 Y-.8 E15.23651
G1 X-4.84 Y-.8 E15.27129
G1 X-4.84 Y0.00 E15.28333
G1 X-2.652 Y0.00 E15.31626
G1 X-2.652 Y0.215 E15.31949
G1 X-2.584 Y0.632 E15.32585
G1 X-2.528 Y0.799 E15.3285
G1 X-4.84 Y0.799 E15.36329
G1 X-4.84 Y1.599 E15.37533
G1 X-2.114 Y1.599 E15.41635
G1 X-1.991 Y1.762 E15.41943
G1 X-1.684 Y2.059 E15.42585
G0 F1200 X-1.505 Y2.181
G1 F900 X-1.226 Y2.352 E15.4357
G0 F1200 X-1.126 Y2.4
G1 F900 X-4.84 Y2.399 E15.49159
G1 X-4.84 Y3.199 E15.50363
G1 X4.84 Y3.2 E15.6493
G1 X4.84 Y4 E15.66134
G1 X-4.84 Y3.999 E15.80701
G1 X-4.84 Y4.8 E15.81906
G1 X4.84 Y4.8 E15.96473
G0 F1200 X1.147 Y2.4
G1 F900 X4.84 Y2.4 E16.0203
G1 X4.84 Y1.6 E16.03234
G1 X2.124 Y1.6 E16.07321
G1 X2.357 Y1.235 E16.07973
G1 X2.523 Y0.843 E16.08614
G1 X2.534 Y0.8 E16.08681
G1 X4.84 Y0.8 E16.12151
G1 X4.84 Y0.00 E16.13355
G1 X2.662 Y0.00 E16.16632
G1 X2.626 Y-.424 E16.17272
G1 X2.533 Y-.799 E16.17854
G1 X4.84 Y-.799 E16.21326
G1 X4.84 Y-1.599 E16.22529
G1 X2.124 Y-1.599 E16.26617
G1 X1.839 Y-1.922 E16.27265
G1 X1.511 Y-2.189 E16.27901
G1 X1.146 Y-2.4 E16.28536
G1 X4.84 Y-2.399 E16.34095
G1 X4.84 Y-3.199 E16.35298
G1 X-4.84 Y-3.2 E16.49865
G1 X-4.84 Y-4 E16.51069
G1 X4.84 Y-3.999 E16.65636
G1 X4.84 Y-4.8 E16.66842
G1 X-4.84 Y-4.8 E16.81408
G0 F1200 X-4.6 Y-4.6
;MESH:NONMESH
G0 X1.089 Y-2.295
G0 X1.631 Y-1.92
G0 X2.4 Y-1.135
;TIME_ELAPSED:102.531454
;LAYER:6
;MESH:rectangle_w_hole.STL
;another scaffold layer***************
G0 X2.4 Y-1.135 Z1.5
;TYPE:FILL
G1 F900 X2.4 Y-4.84 E16.86984
G1 X1.6 Y-4.84 E16.88188
G1 X1.6 Y-2.118 E16.92284
G1 X1.512 Y-2.189 E16.92454
G1 X1.142 Y-2.403 E16.93097
G1 X0.8 Y-2.533 E16.93648
G1 X0.8 Y-4.84 E16.9712
G1 X0.00 Y-4.84 E16.98323
G1 X0.00 Y-2.654 E17.01613
G1 X-.106 Y-2.657 E17.01773
G1 X-.537 Y-2.605 E17.02426
G1 X-.8 Y-2.529 E17.02838
G1 X-.8 Y-4.84 E17.06316
G1 X-1.6 Y-4.84 E17.07519
G1 X-1.6 Y-2.117 E17.11617
G1 X-1.685 Y-2.059 E17.11772
G1 X-1.991 Y-1.763 E17.12413
G1 X-2.25 Y-1.421 E17.13058
G1 X-2.4 Y-1.136 E17.13543
G1 X-2.4 Y-4.84 E17.19117
G1 X-3.2 Y-4.84 E17.20321
G1 X-3.2 Y4.84 E17.34888
G1 X-4 Y4.84 E17.36091
G1 X-4 Y-4.84 E17.50658
G1 X-4.8 Y-4.84 E17.51862
