;FLAVOR:Marlin
;TIME:32
;Filament used: 0.0320419m
;Layer height: 0.8
;Generated with Cura_SteamEngine 3.6.0
M104 S200
M105
M109 S200
M82 ;absolute extrusion mode
G21 ;metric values
G90 ;absolute positioning
M82 ;set extruder to absolute mode
M107 ;start with the fan off
G28 ;move XYZ to min endstops
G1 Z15.0 F9000 ;move the platform down 15mm
G1 F9000
;Put printing message on LCD screen
M117 Printing...
G92 E0
G1 F1500 E-6.5
;LAYER_COUNT:5
;LAYER:0
M107
;MESH:Box_1_testhybrid.stl
G0 F2100 X-6 Y6.09 Z0.1
;TYPE:FILL
G1 F1500 E0
G1 F1350 X-6 Y-6.09 E0.09165
G1 X-5 Y-6.09 E0.09917
G1 X-5 Y6.09 E0.19081
G1 X-4 Y6.09 E0.19834
G1 X-4 Y-6.09 E0.28998
G1 X-3 Y-6.09 E0.29751
G1 X-3 Y6.09 E0.38915
G1 X-2 Y6.09 E0.39668
G1 X-2 Y-6.09 E0.48832
G1 X-1 Y-6.09 E0.49585
G1 X-1 Y6.09 E0.58749
G1 X0.00 Y6.09 E0.59502
G1 X0.00 Y-6.09 E0.68666
G1 X1 Y-6.09 E0.69418
G1 X1 Y6.09 E0.78583
G1 X2 Y6.09 E0.79335
G1 X2 Y-6.09 E0.885
G1 X3 Y-6.09 E0.89252
G1 X3 Y6.09 E0.98417
G1 X4 Y6.09 E0.99169
G1 X4 Y-6.09 E1.08334
G1 X5 Y-6.09 E1.09086
G1 X5 Y6.09 E1.18251
G1 X6 Y6.09 E1.19003
G1 X6 Y-6.09 E1.28168
G0 F2100 X5.85 Y-5.85
;MESH:NONMESH
G0 X6.09 Y6
;TIME_ELAPSED:16.271115
;LAYER:1
;TYPE:FILL
G0 F3150 X6.09 Y6 Z0.200000
G1 F2025 X-6.09 Y6 E2.014840
G1 X-6.09 Y5 E2.075030
G1 X6.09 Y5 E2.808190
G1 X6.09 Y4 E2.868380
G1 X-6.09 Y3.999 E3.601540
G1 X-6.09 Y2.999 E3.661730
G1 X6.09 Y3 E4.394890
G1 X6.09 Y2 E4.455080
G1 X-6.09 Y1.999 E5.188240
G1 X-6.09 Y0.999 E5.248430
G1 X6.09 Y1 E5.981590
G1 X6.09 Y0.00 E6.041780
G1 X-6.09 Y0.00 E6.774940
G1 X-6.09 Y-1 E6.835130
G1 X6.09 Y-.999 E7.568290
G1 X6.09 Y-1.999 E7.628480
G1 X-6.09 Y-2 E8.361640
G1 X-6.09 Y-3 E8.421830
G1 X6.09 Y-2.999 E9.154990
G1 X6.09 Y-3.999 E9.215180
G1 X-6.09 Y-4 E9.948340
G1 X-6.09 Y-5 E10.008530
G1 X6.09 Y-5 E10.741690
G1 X6.09 Y-6 E10.801880
G1 X-6.09 Y-6 E11.535040
G0 F3150 X-5.85 Y-5.85
G0 F3150 X6.09 Y6 Z0.400000
G1 F2025 X-6.09 Y6 E12.268200
G1 X-6.09 Y5 E12.328390
G1 X6.09 Y5 E13.061550
G1 X6.09 Y4 E13.121740
G1 X-6.09 Y3.999 E13.854900
G1 X-6.09 Y2.999 E13.915090
G1 X6.09 Y3 E14.648250
G1 X6.09 Y2 E14.708440
G1 X-6.09 Y1.999 E15.441600
G1 X-6.09 Y0.999 E15.501790
G1 X6.09 Y1 E16.234950
G1 X6.09 Y0.00 E16.295140
G1 X-6.09 Y0.00 E17.028300
G1 X-6.09 Y-1 E17.088490
G1 X6.09 Y-.999 E17.821650
G1 X6.09 Y-1.999 E17.881840
G1 X-6.09 Y-2 E18.615000
G1 X-6.09 Y-3 E18.675190
G1 X6.09 Y-2.999 E19.408350
G1 X6.09 Y-3.999 E19.468540
G1 X-6.09 Y-4 E20.201700
G1 X-6.09 Y-5 E20.261890
G1 X6.09 Y-5 E20.995050
G1 X6.09 Y-6 E21.055240
G1 X-6.09 Y-6 E21.788400
G0 F3150 X-5.85 Y-5.85
G0 F3150 X6.09 Y6 Z0.600000
G1 F2025 X-6.09 Y6 E22.521560
G1 X-6.09 Y5 E22.581750
G1 X6.09 Y5 E23.314910
G1 X6.09 Y4 E23.375100
G1 X-6.09 Y3.999 E24.108260
G1 X-6.09 Y2.999 E24.168450
G1 X6.09 Y3 E24.901610
G1 X6.09 Y2 E24.961800
G1 X-6.09 Y1.999 E25.694960
G1 X-6.09 Y0.999 E25.755150
G1 X6.09 Y1 E26.488310
G1 X6.09 Y0.00 E26.548500
G1 X-6.09 Y0.00 E27.281660
G1 X-6.09 Y-1 E27.341850
G1 X6.09 Y-.999 E28.075010
G1 X6.09 Y-1.999 E28.135200
G1 X-6.09 Y-2 E28.868360
G1 X-6.09 Y-3 E28.928550
G1 X6.09 Y-2.999 E29.661710
G1 X6.09 Y-3.999 E29.721900
G1 X-6.09 Y-4 E30.455060
G1 X-6.09 Y-5 E30.515250
G1 X6.09 Y-5 E31.248410
G1 X6.09 Y-6 E31.308600
G1 X-6.09 Y-6 E32.041760
G0 F3150 X-5.85 Y-5.85
;******* Adding Gel layer below *******
M400
G0 X-43.760000  Y-18.750000
M400
G0 X-55.940000  Y-18.750000
M400
M400
G0 X-43.760000  Y-19.750000
M400
G0 X-55.940000  Y-19.750000
M400
M400
G0 X-43.760000  Y-20.250500
M400
G0 X-55.940000  Y-20.250500
M400
M400
G0 X-43.760000  Y-20.751000
M400
G0 X-55.940000  Y-20.751000
M400
M400
G0 X-43.760000  Y-21.250500
M400
G0 X-55.940000  Y-21.250500
M400
M400
G0 X-43.760000  Y-21.750000
M400
G0 X-55.940000  Y-21.750000
M400
M400
G0 X-43.760000  Y-22.250500
M400
G0 X-55.940000  Y-22.250500
M400
M400
G0 X-43.760000  Y-22.751000
M400
G0 X-55.940000  Y-22.751000
M400
M400
G0 X-43.760000  Y-23.250500
M400
G0 X-55.940000  Y-23.250500
M400
M400
G0 X-43.760000  Y-23.750000
M400
G0 X-55.940000  Y-23.750000
M400
M400
G0 X-43.760000  Y-24.750000
M400
G0 X-55.940000  Y-24.750000
M400
M400
G0 X-43.760000  Y-25.249500
M400
G0 X-55.940000  Y-25.249500
M400
M400
G0 X-43.760000  Y-25.749000
M400
G0 X-55.940000  Y-25.749000
M400
M400
G0 X-43.760000  Y-26.249500
M400
G0 X-55.940000  Y-26.249500
M400
M400
G0 X-43.760000  Y-26.750000
M400
G0 X-55.940000  Y-26.750000
M400
M400
G0 X-43.760000  Y-27.249500
M400
G0 X-55.940000  Y-27.249500
M400
M400
G0 X-43.760000  Y-27.749000
M400
G0 X-55.940000  Y-27.749000
M400
M400
G0 X-43.760000  Y-28.249500
M400
G0 X-55.940000  Y-28.249500
M400
M400
G0 X-43.760000  Y-28.750000
M400
G0 X-55.940000  Y-28.750000
M400
M400
G0 X-43.760000  Y-29.750000
M400
G0 X-55.940000  Y-29.750000
M400
M400
G0 X-43.760000  Y-30.175000
M400
G0 X-55.940000  Y-30.175000
;Gel layer added*****************
M400
;MESH:NONMESH
G0 X-6 Y6.09
;TIME_ELAPSED:21.827160
;LAYER:2
;TYPE:FILL
G0 F4200 X-6 Y6.09 Z0.800000
G1 F2118.1 X-6 Y-6.09 E32.774920
G1 X-5 Y-6.09 E32.835120
G1 X-5 Y6.09 E33.568280
G1 X-4 Y6.09 E33.628480
G1 X-4 Y-6.09 E34.361640
G1 X-3 Y-6.09 E34.421840
G1 X-3 Y6.09 E35.155000
G1 X-2 Y6.09 E35.215200
G1 X-2 Y-6.09 E35.948360
G1 X-1 Y-6.09 E36.008560
G1 X-1 Y6.09 E36.741720
G1 X0.00 Y6.09 E36.801920
G1 X0.00 Y-6.09 E37.535080
G1 X1 Y-6.09 E37.595280
G1 X1 Y6.09 E38.328440
G1 X2 Y6.09 E38.388640
G1 X2 Y-6.09 E39.121800
G1 X3 Y-6.09 E39.182000
G1 X3 Y6.09 E39.915160
G1 X4 Y6.09 E39.975360
G1 X4 Y-6.09 E40.708520
G1 X5 Y-6.09 E40.768720
G1 X5 Y6.09 E41.501880
G1 X6 Y6.09 E41.562080
G1 X6 Y-6.09 E42.295240
G0 F4200 X5.85 Y-5.85
G0 F4200 X-6 Y6.09 Z1.000000
G1 F2118.1 X-6 Y-6.09 E43.028400
G1 X-5 Y-6.09 E43.088600
G1 X-5 Y6.09 E43.821760
G1 X-4 Y6.09 E43.881960
G1 X-4 Y-6.09 E44.615120
G1 X-3 Y-6.09 E44.675320
G1 X-3 Y6.09 E45.408480
G1 X-2 Y6.09 E45.468680
G1 X-2 Y-6.09 E46.201840
G1 X-1 Y-6.09 E46.262040
G1 X-1 Y6.09 E46.995200
G1 X0.00 Y6.09 E47.055400
G1 X0.00 Y-6.09 E47.788560
G1 X1 Y-6.09 E47.848760
G1 X1 Y6.09 E48.581920
G1 X2 Y6.09 E48.642120
G1 X2 Y-6.09 E49.375280
G1 X3 Y-6.09 E49.435480
G1 X3 Y6.09 E50.168640
G1 X4 Y6.09 E50.228840
G1 X4 Y-6.09 E50.962000
G1 X5 Y-6.09 E51.022200
G1 X5 Y6.09 E51.755360
G1 X6 Y6.09 E51.815560
G1 X6 Y-6.09 E52.548720
G0 F4200 X5.85 Y-5.85
G0 F4200 X-6 Y6.09 Z1.200000
G1 F2118.1 X-6 Y-6.09 E53.281880
G1 X-5 Y-6.09 E53.342080
G1 X-5 Y6.09 E54.075240
G1 X-4 Y6.09 E54.135440
G1 X-4 Y-6.09 E54.868600
G1 X-3 Y-6.09 E54.928800
G1 X-3 Y6.09 E55.661960
G1 X-2 Y6.09 E55.722160
G1 X-2 Y-6.09 E56.455320
G1 X-1 Y-6.09 E56.515520
G1 X-1 Y6.09 E57.248680
G1 X0.00 Y6.09 E57.308880
G1 X0.00 Y-6.09 E58.042040
G1 X1 Y-6.09 E58.102240
G1 X1 Y6.09 E58.835400
G1 X2 Y6.09 E58.895600
G1 X2 Y-6.09 E59.628760
G1 X3 Y-6.09 E59.688960
G1 X3 Y6.09 E60.422120
G1 X4 Y6.09 E60.482320
G1 X4 Y-6.09 E61.215480
G1 X5 Y-6.09 E61.275680
G1 X5 Y6.09 E62.008840
G1 X6 Y6.09 E62.069040
G1 X6 Y-6.09 E62.802200
G0 F4200 X5.85 Y-5.85
;******* Adding Gel layer below *******
M400
G0 X-55.350000  Y-18.160000
M400
G0 X-55.350000  Y-30.340000
M400
M400
G0 X-54.350000  Y-18.160000
M400
G0 X-54.350000  Y-30.340000
M400
M400
G0 X-53.350000  Y-18.160000
M400
G0 X-53.350000  Y-30.340000
M400
M400
G0 X-52.350000  Y-18.160000
M400
G0 X-52.350000  Y-30.340000
M400
M400
G0 X-51.350000  Y-18.160000
M400
G0 X-51.350000  Y-30.340000
M400
M400
G0 X-50.350000  Y-18.160000
M400
G0 X-50.350000  Y-30.340000
M400
M400
G0 X-49.350000  Y-18.160000
M400
G0 X-49.350000  Y-30.340000
M400
M400
G0 X-48.350000  Y-18.160000
M400
G0 X-48.350000  Y-30.340000
M400
M400
G0 X-47.350000  Y-18.160000
M400
G0 X-47.350000  Y-30.340000
M400
M400
G0 X-46.350000  Y-18.160000
M400
G0 X-46.350000  Y-30.340000
M400
M400
G0 X-45.350000  Y-18.160000
M400
G0 X-45.350000  Y-30.340000
M400
M400
G0 X-44.350000  Y-18.160000
M400
G0 X-44.350000  Y-30.340000
M400
M400
G0 X-43.925000  Y-18.160000
M400
G0 X-43.925000  Y-30.340000
;Gel layer added*****************
M400
;MESH:NONMESH
G0 X6.09 Y6
;TIME_ELAPSED:27.111267
;LAYER:3
;TYPE:FILL
G0 X6.09 Y6 Z1.400000
G1 F2117.5 X-6.09 Y6 E63.535360
G1 X-6.09 Y5 E63.595560
G1 X6.09 Y5 E64.328720
G1 X6.09 Y4 E64.388920
G1 X-6.09 Y3.999 E65.122080
G1 X-6.09 Y2.999 E65.182280
G1 X6.09 Y3 E65.915440
G1 X6.09 Y2 E65.975640
G1 X-6.09 Y1.999 E66.708800
G1 X-6.09 Y0.999 E66.769000
G1 X6.09 Y1 E67.502160
G1 X6.09 Y0.00 E67.562360
G1 X-6.09 Y0.00 E68.295520
G1 X-6.09 Y-1 E68.355720
G1 X6.09 Y-.999 E69.088880
G1 X6.09 Y-1.999 E69.149080
G1 X-6.09 Y-2 E69.882240
G1 X-6.09 Y-3 E69.942440
G1 X6.09 Y-2.999 E70.675600
G1 X6.09 Y-3.999 E70.735800
G1 X-6.09 Y-4 E71.468960
G1 X-6.09 Y-5 E71.529160
G1 X6.09 Y-5 E72.262320
G1 X6.09 Y-6 E72.322520
G1 X-6.09 Y-6 E73.055680
G0 F4200 X-5.85 Y-5.85
G0 X6.09 Y6 Z1.600000
G1 F2117.5 X-6.09 Y6 E73.788840
G1 X-6.09 Y5 E73.849040
G1 X6.09 Y5 E74.582200
G1 X6.09 Y4 E74.642400
G1 X-6.09 Y3.999 E75.375560
G1 X-6.09 Y2.999 E75.435760
G1 X6.09 Y3 E76.168920
G1 X6.09 Y2 E76.229120
G1 X-6.09 Y1.999 E76.962280
G1 X-6.09 Y0.999 E77.022480
G1 X6.09 Y1 E77.755640
G1 X6.09 Y0.00 E77.815840
G1 X-6.09 Y0.00 E78.549000
G1 X-6.09 Y-1 E78.609200
G1 X6.09 Y-.999 E79.342360
G1 X6.09 Y-1.999 E79.402560
G1 X-6.09 Y-2 E80.135720
G1 X-6.09 Y-3 E80.195920
G1 X6.09 Y-2.999 E80.929080
G1 X6.09 Y-3.999 E80.989280
G1 X-6.09 Y-4 E81.722440
G1 X-6.09 Y-5 E81.782640
G1 X6.09 Y-5 E82.515800
G1 X6.09 Y-6 E82.576000
G1 X-6.09 Y-6 E83.309160
G0 F4200 X-5.85 Y-5.85
G0 X6.09 Y6 Z1.800000
G1 F2117.5 X-6.09 Y6 E84.042320
G1 X-6.09 Y5 E84.102520
G1 X6.09 Y5 E84.835680
G1 X6.09 Y4 E84.895880
G1 X-6.09 Y3.999 E85.629040
G1 X-6.09 Y2.999 E85.689240
G1 X6.09 Y3 E86.422400
G1 X6.09 Y2 E86.482600
G1 X-6.09 Y1.999 E87.215760
G1 X-6.09 Y0.999 E87.275960
G1 X6.09 Y1 E88.009120
G1 X6.09 Y0.00 E88.069320
G1 X-6.09 Y0.00 E88.802480
G1 X-6.09 Y-1 E88.862680
G1 X6.09 Y-.999 E89.595840
G1 X6.09 Y-1.999 E89.656040
G1 X-6.09 Y-2 E90.389200
G1 X-6.09 Y-3 E90.449400
G1 X6.09 Y-2.999 E91.182560
G1 X6.09 Y-3.999 E91.242760
G1 X-6.09 Y-4 E91.975920
G1 X-6.09 Y-5 E92.036120
G1 X6.09 Y-5 E92.769280
G1 X6.09 Y-6 E92.829480
G1 X-6.09 Y-6 E93.562640
G0 F4200 X-5.85 Y-5.85
;******* Adding Gel layer below *******
M400
G0 X-43.760000  Y-18.750000
M400
G0 X-55.940000  Y-18.750000
M400
M400
G0 X-43.760000  Y-19.750000
M400
G0 X-55.940000  Y-19.750000
M400
M400
G0 X-43.760000  Y-20.250500
M400
G0 X-55.940000  Y-20.250500
M400
M400
G0 X-43.760000  Y-20.751000
M400
G0 X-55.940000  Y-20.751000
M400
M400
G0 X-43.760000  Y-21.250500
M400
G0 X-55.940000  Y-21.250500
M400
M400
G0 X-43.760000  Y-21.750000
M400
G0 X-55.940000  Y-21.750000
M400
M400
G0 X-43.760000  Y-22.250500
M400
G0 X-55.940000  Y-22.250500
M400
M400
G0 X-43.760000  Y-22.751000
M400
G0 X-55.940000  Y-22.751000
M400
M400
G0 X-43.760000  Y-23.250500
M400
G0 X-55.940000  Y-23.250500
M400
M400
G0 X-43.760000  Y-23.750000
M400
G0 X-55.940000  Y-23.750000
M400
M400
G0 X-43.760000  Y-24.750000
M400
G0 X-55.940000  Y-24.750000
M400
M400
G0 X-43.760000  Y-25.249500
M400
G0 X-55.940000  Y-25.249500
M400
M400
G0 X-43.760000  Y-25.749000
M400
G0 X-55.940000  Y-25.749000
M400
M400
G0 X-43.760000  Y-26.249500
M400
G0 X-55.940000  Y-26.249500
M400
M400
G0 X-43.760000  Y-26.750000
M400
G0 X-55.940000  Y-26.750000
M400
M400
G0 X-43.760000  Y-27.249500
M400
G0 X-55.940000  Y-27.249500
M400
M400
G0 X-43.760000  Y-27.749000
M400
G0 X-55.940000  Y-27.749000
M400
M400
G0 X-43.760000  Y-28.249500
M400
G0 X-55.940000  Y-28.249500
M400
M400
G0 X-43.760000  Y-28.750000
M400
G0 X-55.940000  Y-28.750000
M400
M400
G0 X-43.760000  Y-29.750000
M400
G0 X-55.940000  Y-29.750000
M400
M400
G0 X-43.760000  Y-30.175000
M400
G0 X-55.940000  Y-30.175000
;Gel layer added*****************
M400
;TIME_ELAPSED:32.221160
G1 F1500 E25.5419
M140 S0
M104 S0 ;extruder heater off
M140 S0 ;heated bed heater off (if you have it)
G91 ;relative positioning
G1 E-1 F300  ;retract the filament a bit before lifting the nozzle, to release some of the pressure
G1 Z+0.5 E-5 X-20 Y-20 F9000 ;move Z up a bit and retract filament even more
G28 X0 Y0 ;move X/Y to min endstops, so the head is out of the way
M84 ;steppers off
G90 ;absolute positioning
M82 ;absolute extrusion mode
M104 S0
;End of Gcode
;SETTING_3 {"global_quality": "[general]\\nversion = 4\\nname = Carolyn - Syring
;SETTING_3 e\\ndefinition = fdmprinter\\n\\n[metadata]\\nsetting_version = 5\\nt
;SETTING_3 ype = quality_changes\\nquality_type = verydraft\\n\\n[values]\\nadhe
;SETTING_3 sion_type = none\\nlayer_height = 0.8\\nlayer_height_0 = 0.1\\nmateri
;SETTING_3 al_bed_temperature = 0\\nsupport_enable = False\\n\\n", "extruder_qua
;SETTING_3 lity": ["[general]\\nversion = 4\\nname = Carolyn - Syringe\\ndefinit
;SETTING_3 ion = fdmprinter\\n\\n[metadata]\\nposition = 0\\nsetting_version = 5
;SETTING_3 \\ntype = quality_changes\\nquality_type = verydraft\\n\\n[values]\\n
;SETTING_3 brim_width = 0\\ncool_fan_enabled = False\\ninfill_angles = [0,90]\\n
;SETTING_3 infill_line_distance = 1\\ninfill_pattern = zigzag\\ninfill_sparse_de
;SETTING_3 nsity = 70\\nmaterial_flow = 120\\nskirt_line_count = 2\\nspeed_print
;SETTING_3  = 45\\nspeed_travel = 70\\ntop_bottom_thickness = 0.0\\nwall_thickne
;SETTING_3 ss = 0.0\\n\\n"]}
