;FLAVOR:RepRap
;TIME:95
;Generated with Cura_SteamEngine 2.3.1
M104 S200
M109 S200
G21 ;metric values
G90 ;absolute positioning
M82 ;set extruder to absolute mode
M107 ;start with the fan off
G28 ;move XYZ to min endstops
G1 Z15.0 F9000 ;move the platform down 15mm
G1 F9000
;Put printing message on LCD screen
M117 Printing...
;LAYER_COUNT:2
;LAYER:0
M107
G0 F600 X4.991 Y-9.389 Z.2
;TYPE:SKIRT
G1 F300 X5.583 Y-9.349 E0.01073
G1 X6.164 Y-9.23 E0.02145
G1 X6.723 Y-9.034 E0.03216
G1 X7.252 Y-8.764 E0.0429
G1 X7.739 Y-8.426 E0.05362
G1 X8.176 Y-8.025 E0.06434
G1 X8.555 Y-7.569 E0.07507
G1 X8.87 Y-7.067 E0.08578
G1 X9.114 Y-6.526 E0.09651
G1 X9.283 Y-5.958 E0.10723
G1 X9.374 Y-5.372 E0.11795
G1 X9.391 Y-4.989 E0.12488
G1 X9.391 Y4.99 E0.30532
G1 X9.351 Y5.582 E0.31605
G1 X9.232 Y6.162 E0.32675
G1 X9.036 Y6.722 E0.33748
G1 X8.766 Y7.25 E0.3482
G1 X8.428 Y7.737 E0.35892
G1 X8.027 Y8.174 E0.36965
G1 X7.572 Y8.554 E0.38037
G1 X7.069 Y8.868 E0.39109
G1 X6.529 Y9.113 E0.40181
G1 X5.96 Y9.282 E0.41254
G1 X5.375 Y9.373 E0.42325
G1 X4.991 Y9.39 E0.4302
G1 X-4.991 Y9.39 E0.61069
G1 X-5.583 Y9.35 E0.62141
G1 X-6.163 Y9.231 E0.63212
G1 X-6.723 Y9.035 E0.64285
G1 X-7.251 Y8.765 E0.65357
G1 X-7.738 Y8.427 E0.66429
G1 X-8.175 Y8.026 E0.67501
G1 X-8.555 Y7.571 E0.68573
G1 X-8.869 Y7.068 E0.69645
G1 X-9.114 Y6.528 E0.70718
G1 X-9.283 Y5.959 E0.71791
G1 X-9.374 Y5.374 E0.72861
G1 X-9.391 Y4.99 E0.73556
G1 X-9.391 Y-4.99 E0.91602
G1 X-9.351 Y-5.582 E0.92675
G1 X-9.232 Y-6.162 E0.93745
G1 X-9.036 Y-6.722 E0.94818
G1 X-8.766 Y-7.25 E0.9589
G1 X-8.428 Y-7.737 E0.96962
G1 X-8.027 Y-8.174 E0.98035
G1 X-7.572 Y-8.554 E0.99107
G1 X-7.069 Y-8.868 E1.00179
G1 X-6.529 Y-9.113 E1.01251
G1 X-5.96 Y-9.282 E1.02324
G1 X-5.375 Y-9.373 E1.03395
G1 X-4.991 Y-9.39 E1.0409
G1 X4.991 Y-9.389 E1.22139
G0 F600 X4.991 Y-8.989
G1 F300 X5.555 Y-8.949 E1.23161
G1 X6.108 Y-8.83 E1.24184
G1 X6.638 Y-8.634 E1.25205
G1 X7.136 Y-8.365 E1.26229
G1 X7.59 Y-8.029 E1.2725
G1 X7.993 Y-7.633 E1.28272
G1 X8.336 Y-7.183 E1.29295
G1 X8.612 Y-6.689 E1.30318
G1 X8.815 Y-6.162 E1.31339
G1 X8.942 Y-5.611 E1.32362
G1 X8.991 Y-4.989 E1.3349
G1 X8.991 Y4.99 E1.51533
G1 X8.951 Y5.554 E1.52556
G1 X8.832 Y6.107 E1.53578
G1 X8.636 Y6.637 E1.546
G1 X8.368 Y7.134 E1.55621
G1 X8.032 Y7.589 E1.56644
G1 X7.635 Y7.992 E1.57667
G1 X7.185 Y8.334 E1.58689
G1 X6.692 Y8.61 E1.5971
G1 X6.164 Y8.814 E1.60734
G1 X5.614 Y8.941 E1.61755
G1 X4.991 Y8.99 E1.62884
G1 X-4.991 Y8.99 E1.80933
G1 X-5.555 Y8.95 E1.81956
G1 X-6.108 Y8.831 E1.82979
G1 X-6.638 Y8.635 E1.84
G1 X-7.135 Y8.367 E1.85021
G1 X-7.59 Y8.031 E1.86044
G1 X-7.993 Y7.634 E1.87067
G1 X-8.335 Y7.184 E1.88089
G1 X-8.611 Y6.691 E1.8911
G1 X-8.815 Y6.163 E1.90134
G1 X-8.942 Y5.613 E1.91155
G1 X-8.991 Y4.99 E1.92285
G1 X-8.991 Y-4.99 E2.1033
G1 X-8.951 Y-5.554 E2.11352
G1 X-8.832 Y-6.107 E2.12375
G1 X-8.636 Y-6.637 E2.13397
G1 X-8.368 Y-7.134 E2.14418
G1 X-8.032 Y-7.589 E2.15441
G1 X-7.635 Y-7.992 E2.16463
G1 X-7.185 Y-8.334 E2.17485
G1 X-6.692 Y-8.61 E2.18507
G1 X-6.164 Y-8.814 E2.1953
G1 X-5.614 Y-8.941 E2.20551
G1 X-4.991 Y-8.99 E2.21681
G1 X4.991 Y-8.989 E2.3973
G0 F600 X4.991 Y-8.589
G1 F300 X5.526 Y-8.549 E2.407
G1 X6.049 Y-8.43 E2.4167
G1 X6.548 Y-8.235 E2.42639
G1 X7.013 Y-7.967 E2.43609
G1 X7.433 Y-7.634 E2.44578
G1 X7.799 Y-7.242 E2.45548
G1 X8.103 Y-6.799 E2.46519
G1 X8.337 Y-6.317 E2.47488
G1 X8.497 Y-5.805 E2.48458
G1 X8.58 Y-5.275 E2.49428
G1 X8.591 Y-4.989 E2.49946
G1 X8.591 Y4.99 E2.67989
G1 X8.551 Y5.525 E2.68959
G1 X8.432 Y6.048 E2.69929
G1 X8.237 Y6.547 E2.70898
G1 X7.969 Y7.012 E2.71868
G1 X7.636 Y7.432 E2.72837
G1 X7.244 Y7.798 E2.73807
G1 X6.802 Y8.101 E2.74776
G1 X6.319 Y8.336 E2.75747
G1 X5.808 Y8.496 E2.76716
G1 X5.278 Y8.579 E2.77686
G1 X4.991 Y8.59 E2.78205
G1 X-4.991 Y8.59 E2.96254
G1 X-5.526 Y8.55 E2.97224
G1 X-6.049 Y8.431 E2.98194
G1 X-6.548 Y8.236 E2.99162
G1 X-7.013 Y7.968 E3.00133
G1 X-7.433 Y7.635 E3.01102
G1 X-7.799 Y7.243 E3.02072
G1 X-8.102 Y6.801 E3.03041
G1 X-8.337 Y6.318 E3.04012
G1 X-8.497 Y5.807 E3.0498
G1 X-8.58 Y5.277 E3.0595
G1 X-8.591 Y4.99 E3.06469
G1 X-8.591 Y-4.99 E3.24515
G1 X-8.551 Y-5.525 E3.25485
G1 X-8.432 Y-6.048 E3.26455
G1 X-8.237 Y-6.547 E3.27423
G1 X-7.969 Y-7.012 E3.28394
G1 X-7.636 Y-7.432 E3.29363
G1 X-7.244 Y-7.798 E3.30333
G1 X-6.802 Y-8.101 E3.31302
G1 X-6.319 Y-8.336 E3.32273
G1 X-5.808 Y-8.496 E3.33241
G1 X-5.278 Y-8.579 E3.34211
G1 X-4.991 Y-8.59 E3.3473
G1 X4.991 Y-8.589 E3.52779
G0 F600 X4.991 Y-8.189
G1 F300 X5.495 Y-8.149 E3.53694
G1 X5.987 Y-8.03 E3.54609
G1 X6.453 Y-7.835 E3.55522
G1 X6.883 Y-7.57 E3.56435
G1 X7.266 Y-7.239 E3.57351
G1 X7.592 Y-6.853 E3.58264
G1 X7.853 Y-6.42 E3.59179
G1 X8.043 Y-5.951 E3.60093
G1 X8.156 Y-5.459 E3.61006
G1 X8.191 Y-4.989 E3.61858
G1 X8.191 Y4.99 E3.79902
G1 X8.151 Y5.494 E3.80816
G1 X8.032 Y5.985 E3.8173
G1 X7.838 Y6.452 E3.82644
G1 X7.572 Y6.882 E3.83558
G1 X7.242 Y7.265 E3.84472
G1 X6.855 Y7.591 E3.85387
G1 X6.422 Y7.852 E3.86301
G1 X5.954 Y8.042 E3.87215
G1 X5.461 Y8.155 E3.88129
G1 X4.991 Y8.19 E3.88981
G1 X-4.991 Y8.19 E4.0703
G1 X-5.495 Y8.15 E4.07945
G1 X-5.986 Y8.031 E4.08858
G1 X-6.453 Y7.837 E4.09773
G1 X-6.883 Y7.571 E4.10687
G1 X-7.266 Y7.241 E4.11601
G1 X-7.592 Y6.854 E4.12516
G1 X-7.853 Y6.421 E4.1343
G1 X-8.043 Y5.953 E4.14343
G1 X-8.156 Y5.46 E4.15258
G1 X-8.191 Y4.99 E4.1611
G1 X-8.191 Y-4.99 E4.34155
G1 X-8.151 Y-5.494 E4.3507
G1 X-8.032 Y-5.985 E4.35983
G1 X-7.838 Y-6.452 E4.36897
G1 X-7.572 Y-6.882 E4.37812
G1 X-7.242 Y-7.265 E4.38726
G1 X-6.855 Y-7.591 E4.39641
G1 X-6.422 Y-7.852 E4.40555
G1 X-5.954 Y-8.042 E4.41468
G1 X-5.461 Y-8.155 E4.42383
G1 X-4.991 Y-8.19 E4.43235
G1 X4.991 Y-8.189 E4.61284
G0 F600 X4.991 Y-5.664
G0 X4.991 Y-4.959
G0 X4.131 Y-4.899
G0 X4.131 Y-4.919
;TYPE:FILL
G1 F300 X4.919 Y-4.131 E4.63299
G1 X4.919 Y-3 E4.65344
G1 X3 Y-4.919 E4.70251
G1 X1.868 Y-4.919 E4.72298
G1 X4.919 Y-1.868 E4.801
G1 X4.919 Y-.737 E4.82145
G1 X.737 Y-4.919 E4.92838
G1 X-.393 Y-4.919 E4.94882
G1 X4.919 Y.393 E5.08465
G1 X4.919 Y1.525 E5.10512
G1 X-1.525 Y-4.919 E5.2699
G1 X-2.656 Y-4.919 E5.29035
G1 X4.919 Y2.656 E5.48405
G1 X4.919 Y3.787 E5.5045
G1 X-3.787 Y-4.919 E5.72712
G1 X-4.919 Y-4.919 E5.74759
G1 X4.919 Y4.919 E5.99916
G1 X3.787 Y4.919 E6.01963
G1 X-4.919 Y-3.787 E6.24225
G1 X-4.919 Y-2.656 E6.2627
G1 X2.656 Y4.919 E6.4564
G1 X1.525 Y4.919 E6.47685
G1 X-4.919 Y-1.525 E6.64163
G1 X-4.919 Y-.393 E6.6621
G1 X.393 Y4.919 E6.79793
G1 X-.737 Y4.919 E6.81837
G1 X-4.919 Y.737 E6.9253
G1 X-4.919 Y1.868 E6.94575
G1 X-1.868 Y4.919 E7.02377
G1 X-3 Y4.919 E7.04424
G1 X-4.919 Y3 E7.09331
G1 X-4.919 Y4.131 E7.11376
G1 X-4.131 Y4.919 E7.13391
G0 F600 X-4.131 Y4.899
G0 X-4.919 Y-4.899
G0 X-4.919 Y-4.919
G0 X-4.6 Y-4.599
;TIME_ELAPSED:81.539579
;LAYER:1
G0 F1200 X-4.919 Y-4.131 Z1
;TYPE:FILL
G1 F600 X-4.131 Y-4.919 E7.21451
G1 X-3 Y-4.919 E7.29631
G1 X-4.919 Y-3 E7.4926
G1 X-4.919 Y-1.868 E7.57447
G1 X-1.868 Y-4.919 E7.88654
G1 X-.737 Y-4.919 E7.96834
G1 X-4.919 Y-.737 E8.39609
G1 X-4.919 Y.393 E8.47782
G1 X.393 Y-4.919 E9.02116
G1 X1.525 Y-4.919 E9.10303
G1 X-4.919 Y1.525 E9.76215
G1 X-4.919 Y2.656 E9.84395
G1 X2.656 Y-4.919 E10.61876
G1 X3.787 Y-4.919 E10.70056
G1 X-4.919 Y3.787 E11.59105
G1 X-4.919 Y4.919 E11.67292
G1 X4.919 Y-4.919 E12.67919
G1 X4.919 Y-3.787 E12.76107
G1 X-3.787 Y4.919 E13.65155
G1 X-2.656 Y4.919 E13.73335
G1 X4.919 Y-2.656 E14.50816
G1 X4.919 Y-1.525 E14.58996
G1 X-1.525 Y4.919 E15.24908
G1 X-.393 Y4.919 E15.33095
G1 X4.919 Y-.393 E15.87429
G1 X4.919 Y.737 E15.95602
G1 X.737 Y4.919 E16.38377
G1 X1.868 Y4.919 E16.46557
G1 X4.919 Y1.868 E16.77764
G1 X4.919 Y3 E16.85952
G1 X3 Y4.919 E17.0558
G1 X4.131 Y4.919 E17.1376
G1 X4.919 Y4.131 E17.2182
G0 F1200 X4.6 Y4.131
;TIME_ELAPSED:95.714338
M104 S0 ;extruder heater off
M140 S0 ;heated bed heater off (if you have it)
G91 ;relative positioning
G1 E-1 F300  ;retract the filament a bit before lifting the nozzle, to release some of the pressure
G1 Z+0.5 E-5 X-20 Y-20 F9000 ;move Z up a bit and retract filament even more
G28 X0 Y0 ;move X/Y to min endstops, so the head is out of the way
M84 ;steppers off
G90 ;absolute positioning
M104 S0
;End of Gcode
;SETTING_3 {"global_quality": "[general]\\nversion = 2\\nname = Janelle\\ndefini
;SETTING_3 tion = Atom\\n\\n[metadata]\\nquality_type = normal\\ntype = quality_
;SETTING_3 changes\\n\\n[values]\\nskirt_line_count = 4\\ncool_fan_enabled = Fal
;SETTING_3 se\\ninfill_overlap = 80\\nmaterial_print_temperature = 200\\nspeed_t
;SETTING_3 ravel = 30\\nretraction_enable = False\\ninfill_before_walls = False\
;SETTING_3 \ninfill_line_width = 0.4\\nwall_line_width = 0.4\\nlayer_height_0 = 
;SETTING_3 0.2\\nmaterial_diameter = 2.6\\nspeed_layer_0 = 5\\ninfill_sparse_den
;SETTING_3 sity = 50.0\\nspeed_print = 15\\nmaterial_flow = 120\\nbrim_outside_o
;SETTING_3 nly = False\\ninfill_pattern = zigzag\\nwall_line_count = 0\\nadhesio
;SETTING_3 n_type = skirt\\nbrim_width = 3\\ntop_bottom_thickness = 0\\nlayer_he
;SETTING_3 ight = 0.8\\nprint_sequence = one_at_a_time\\nmaterial_bed_temperatur
;SETTING_3 e = 0\\n\\n"}
