;FLAVOR:Marlin
;TIME:694
;Filament used: 0.120047m
;Layer height: 0.2
;Generated with Cura_SteamEngine 3.6.0
M104 S200
M105
M109 S200
M82 ;absolute extrusion mode
G21 ;metric values
G90 ;absolute positioning
M82 ;set extruder to absolute mode
M107 ;start with the fan off
G28 ;move XYZ to min endstops
G1 Z15.0 F9000 ;move the platform down 15mm
G1 F9000
;Put printing message on LCD screen
M117 Printing...
G92 E0
G1 F1500 E-6.5
;LAYER_COUNT:50
;LAYER:0
M107
G0 F600 X4.991 Y-9.39 Z0.3
;TYPE:SKIRT
G1 F1500 E0
G1 F450 X5.583 Y-9.35 E0.01339
G1 X6.164 Y-9.231 E0.02678
G1 X6.723 Y-9.035 E0.04015
G1 X7.252 Y-8.765 E0.05356
G1 X7.739 Y-8.427 E0.06694
G1 X8.176 Y-8.026 E0.08033
G1 X8.555 Y-7.57 E0.09371
G1 X8.87 Y-7.068 E0.10709
G1 X9.114 Y-6.527 E0.12049
G1 X9.283 Y-5.959 E0.13386
G1 X9.374 Y-5.373 E0.14725
G1 X9.391 Y-4.99 E0.1559
G1 X9.391 Y4.991 E0.3812
G1 X9.351 Y5.583 E0.39459
G1 X9.232 Y6.163 E0.40796
G1 X9.036 Y6.723 E0.42135
G1 X8.766 Y7.251 E0.43474
G1 X8.428 Y7.738 E0.44812
G1 X8.027 Y8.175 E0.46151
G1 X7.572 Y8.555 E0.47489
G1 X7.069 Y8.869 E0.48827
G1 X6.529 Y9.114 E0.50166
G1 X5.96 Y9.283 E0.51506
G1 X5.375 Y9.374 E0.52842
G1 X4.991 Y9.391 E0.5371
G1 X-4.991 Y9.391 E0.76242
G1 X-5.583 Y9.351 E0.77581
G1 X-6.163 Y9.232 E0.78917
G1 X-6.723 Y9.036 E0.80257
G1 X-7.251 Y8.766 E0.81595
G1 X-7.738 Y8.428 E0.82933
G1 X-8.175 Y8.027 E0.84272
G1 X-8.555 Y7.572 E0.8561
G1 X-8.869 Y7.069 E0.86949
G1 X-9.114 Y6.529 E0.88287
G1 X-9.283 Y5.96 E0.89627
G1 X-9.374 Y5.375 E0.90964
G1 X-9.391 Y4.991 E0.91831
G1 X-9.391 Y-4.991 E1.14363
G1 X-9.351 Y-5.583 E1.15703
G1 X-9.232 Y-6.163 E1.17039
G1 X-9.036 Y-6.723 E1.18378
G1 X-8.766 Y-7.251 E1.19717
G1 X-8.428 Y-7.738 E1.21055
G1 X-8.027 Y-8.175 E1.22394
G1 X-7.572 Y-8.555 E1.23732
G1 X-7.069 Y-8.869 E1.2507
G1 X-6.529 Y-9.114 E1.26409
G1 X-5.96 Y-9.283 E1.27749
G1 X-5.375 Y-9.374 E1.29085
G1 X-4.991 Y-9.391 E1.29953
G1 X4.991 Y-9.39 E1.52485
G0 F600 X4.991 Y-8.99
G1 F450 X5.555 Y-8.95 E1.53761
G1 X6.108 Y-8.831 E1.55038
G1 X6.638 Y-8.635 E1.56314
G1 X7.136 Y-8.366 E1.57591
G1 X7.59 Y-8.03 E1.58866
G1 X7.993 Y-7.634 E1.60141
G1 X8.336 Y-7.184 E1.61419
G1 X8.612 Y-6.69 E1.62696
G1 X8.815 Y-6.163 E1.63971
G1 X8.942 Y-5.612 E1.65247
G1 X8.991 Y-4.99 E1.66656
G1 X8.991 Y4.991 E1.89185
G1 X8.951 Y5.555 E1.90462
G1 X8.832 Y6.108 E1.91738
G1 X8.636 Y6.638 E1.93014
G1 X8.368 Y7.135 E1.94289
G1 X8.032 Y7.59 E1.95565
G1 X7.635 Y7.993 E1.96842
G1 X7.185 Y8.335 E1.98118
G1 X6.692 Y8.611 E1.99393
G1 X6.164 Y8.815 E2.00671
G1 X5.614 Y8.942 E2.01945
G1 X4.991 Y8.991 E2.03356
G1 X-4.991 Y8.991 E2.25888
G1 X-5.555 Y8.951 E2.27164
G1 X-6.108 Y8.832 E2.28441
G1 X-6.638 Y8.636 E2.29717
G1 X-7.135 Y8.368 E2.30991
G1 X-7.59 Y8.032 E2.32268
G1 X-7.993 Y7.635 E2.33545
G1 X-8.335 Y7.185 E2.34821
G1 X-8.611 Y6.692 E2.36096
G1 X-8.815 Y6.164 E2.37374
G1 X-8.942 Y5.614 E2.38648
G1 X-8.991 Y4.991 E2.40059
G1 X-8.991 Y-4.991 E2.62591
G1 X-8.951 Y-5.555 E2.63867
G1 X-8.832 Y-6.108 E2.65144
G1 X-8.636 Y-6.638 E2.66419
G1 X-8.368 Y-7.135 E2.67694
G1 X-8.032 Y-7.59 E2.68971
G1 X-7.635 Y-7.993 E2.70248
G1 X-7.185 Y-8.335 E2.71523
G1 X-6.692 Y-8.611 E2.72799
G1 X-6.164 Y-8.815 E2.74076
G1 X-5.614 Y-8.942 E2.75351
G1 X-4.991 Y-8.991 E2.76761
G1 X4.991 Y-8.99 E2.99293
G0 F600 X4.991 Y-8.59
G1 F450 X5.526 Y-8.55 E3.00504
G1 X6.049 Y-8.431 E3.01715
G1 X6.548 Y-8.236 E3.02924
G1 X7.013 Y-7.968 E3.04136
G1 X7.433 Y-7.635 E3.05346
G1 X7.799 Y-7.243 E3.06556
G1 X8.103 Y-6.8 E3.07769
G1 X8.337 Y-6.318 E3.08978
G1 X8.497 Y-5.806 E3.10189
G1 X8.58 Y-5.276 E3.114
G1 X8.591 Y-4.99 E3.12046
G1 X8.591 Y4.991 E3.34576
G1 X8.551 Y5.526 E3.35787
G1 X8.432 Y6.049 E3.36998
G1 X8.237 Y6.548 E3.38207
G1 X7.969 Y7.013 E3.39419
G1 X7.636 Y7.433 E3.40628
G1 X7.244 Y7.799 E3.41839
G1 X6.802 Y8.102 E3.43049
G1 X6.319 Y8.337 E3.44261
G1 X5.808 Y8.497 E3.4547
G1 X5.278 Y8.58 E3.46681
G1 X4.991 Y8.591 E3.47329
G1 X-4.991 Y8.591 E3.69861
G1 X-5.526 Y8.551 E3.71072
G1 X-6.049 Y8.432 E3.72283
G1 X-6.548 Y8.237 E3.73492
G1 X-7.013 Y7.969 E3.74704
G1 X-7.433 Y7.636 E3.75914
G1 X-7.799 Y7.244 E3.77124
G1 X-8.102 Y6.802 E3.78334
G1 X-8.337 Y6.319 E3.79546
G1 X-8.497 Y5.808 E3.80755
G1 X-8.58 Y5.278 E3.81966
G1 X-8.591 Y4.991 E3.82614
G1 X-8.591 Y-4.991 E4.05146
G1 X-8.551 Y-5.526 E4.06357
G1 X-8.432 Y-6.049 E4.07568
G1 X-8.237 Y-6.548 E4.08777
G1 X-7.969 Y-7.013 E4.09989
G1 X-7.636 Y-7.433 E4.11199
G1 X-7.244 Y-7.799 E4.12409
G1 X-6.802 Y-8.102 E4.13619
G1 X-6.319 Y-8.337 E4.14831
G1 X-5.808 Y-8.497 E4.1604
G1 X-5.278 Y-8.58 E4.17251
G1 X-4.991 Y-8.591 E4.17899
G1 X4.991 Y-8.59 E4.40431
G0 F600 X4.991 Y-8.19
G1 F450 X5.495 Y-8.15 E4.41572
G1 X5.987 Y-8.031 E4.42715
G1 X6.453 Y-7.836 E4.43855
G1 X6.883 Y-7.571 E4.44995
G1 X7.266 Y-7.24 E4.46138
G1 X7.592 Y-6.854 E4.47279
G1 X7.853 Y-6.421 E4.4842
G1 X8.043 Y-5.952 E4.49562
G1 X8.156 Y-5.46 E4.50702
G1 X8.191 Y-4.99 E4.51765
G1 X8.191 Y4.991 E4.74295
G1 X8.151 Y5.495 E4.75436
G1 X8.032 Y5.986 E4.76577
G1 X7.838 Y6.453 E4.77718
G1 X7.572 Y6.883 E4.7886
G1 X7.242 Y7.266 E4.80001
G1 X6.855 Y7.592 E4.81143
G1 X6.422 Y7.853 E4.82284
G1 X5.954 Y8.043 E4.83424
G1 X5.461 Y8.156 E4.84566
G1 X4.991 Y8.191 E4.8563
G1 X-4.991 Y8.191 E5.08162
G1 X-5.495 Y8.151 E5.09303
G1 X-5.986 Y8.032 E5.10444
G1 X-6.453 Y7.838 E5.11585
G1 X-6.883 Y7.572 E5.12726
G1 X-7.266 Y7.242 E5.13868
G1 X-7.592 Y6.855 E5.1501
G1 X-7.853 Y6.422 E5.16151
G1 X-8.043 Y5.954 E5.17291
G1 X-8.156 Y5.461 E5.18433
G1 X-8.191 Y4.991 E5.19497
G1 X-8.191 Y-4.991 E5.42029
G1 X-8.151 Y-5.495 E5.4317
G1 X-8.032 Y-5.986 E5.4431
G1 X-7.838 Y-6.453 E5.45452
G1 X-7.572 Y-6.883 E5.46593
G1 X-7.242 Y-7.266 E5.47734
G1 X-6.855 Y-7.592 E5.48877
G1 X-6.422 Y-7.853 E5.50018
G1 X-5.954 Y-8.043 E5.51158
G1 X-5.461 Y-8.156 E5.523
G1 X-4.991 Y-8.191 E5.53363
G1 X4.991 Y-8.19 E5.75896
G1 F1500 E-0.74104
;MESH:rectangle_w_hole_10mmHeight.STL
G0 F600 X4.991 Y-5.665
G0 X4.991 Y-4.98
G0 X4.8 Y-4.9
G0 X4.8 Y-5.04
;TYPE:FILL
G1 F1500 E5.75896
G1 F450 X4.8 Y5.04 E5.98649
G0 F600 X5.04 Y4.8
G1 F450 X-5.04 Y4.8 E6.21402
G0 F600 X-4.8 Y5.04
G1 F450 X-4.8 Y-5.04 E6.44155
G0 F600 X-5.04 Y-4.8
G1 F450 X5.04 Y-4.8 E6.66909
G1 X5.14 Y-4.8
G0 F600 X4.9 Y-4.8
G0 X4.9 Y-3.599
G0 X5.04 Y-3.599
G1 F450 X-5.04 Y-3.6 E6.89662
G1 X-5.14 Y-3.6
G0 F600 X-4.9 Y-3.6
G0 X-4.9 Y-2.4
G0 X-5.04 Y-2.4
G1 F450 X-.525 Y-2.4 E6.99853
G0 F600 X0.00 Y-2.453
G1 F450 X0.00 Y-5.04 E7.05693
G1 X0.00 Y-5.14
G0 F600 X0.00 Y-4.9
G0 X1.2 Y-4.9
G0 X1.2 Y-5.04
G1 F450 X1.2 Y-2.139 E7.12241
G0 F600 X0.498 Y-2.4
G1 F450 X5.04 Y-2.399 E7.22494
G1 X5.14 Y-2.399
G0 F600 X4.9 Y-2.399
G0 X4.9 Y-1.199
G0 X5.04 Y-1.199
G1 F450 X2.143 Y-1.199 E7.29033
G0 F600 X2.4 Y-.508
G1 F450 X2.4 Y-5.04 E7.39263
G1 X2.4 Y-5.14
G0 F600 X2.4 Y-4.9
G0 X3.6 Y-4.9
G0 X3.6 Y-5.04
G1 F450 X3.6 Y5.04 E7.62016
G1 X3.6 Y5.14
G0 F600 X3.6 Y4.9
G0 X2.4 Y4.9
G0 X2.4 Y5.04
G1 F450 X2.4 Y0.501 E7.72262
G0 F600 X2.461 Y0.00
G1 F450 X5.04 Y0.00 E7.78083
G1 X5.14 Y0.00
G0 F600 X4.9 Y0.00
G0 X4.9 Y1.2
G0 X5.04 Y1.2
G1 F450 X2.142 Y1.2 E7.84625
G1 X2.042 Y1.2
G0 F600 X2.231 Y1.319
G0 X1.27 Y2.259
G0 X1.2 Y2.137
G1 F450 X1.2 Y5.04 E7.91178
G1 X1.2 Y5.14
G0 F600 X1.2 Y4.9
G0 X0.00 Y4.9
G0 X0.00 Y5.04
G1 F450 X0.00 Y2.454 E7.97015
G0 F600 X0.5 Y2.4
G1 F450 X5.04 Y2.4 E8.07263
G1 X5.14 Y2.4
G0 F600 X4.9 Y2.4
G0 X4.9 Y3.6
G0 X5.04 Y3.6
G1 F450 X-5.04 Y3.599 E8.30016
G1 X-5.14 Y3.599
G0 F600 X-4.9 Y3.599
G0 X-4.9 Y2.399
G0 X-5.04 Y2.399
G1 F450 X-.524 Y2.4 E8.4021
G0 F600 X-1.2 Y2.146
G1 F450 X-1.2 Y5.04 E8.46743
G1 X-1.2 Y5.14
G0 F600 X-1.2 Y4.9
G0 X-2.4 Y4.9
G0 X-2.4 Y5.04
G1 F450 X-2.4 Y0.515 E8.56957
G0 F600 X-2.451 Y0.00
G1 F450 X-5.04 Y0.00 E8.62801
G1 X-5.14 Y0.00
G0 F600 X-4.9 Y0.00
G0 X-4.9 Y1.199
G0 X-5.04 Y1.199
G1 F450 X-2.138 Y1.199 E8.69351
G1 X-2.038 Y1.199
G0 F600 X-2.241 Y1.305
G0 X-2.501 Y0.32
G0 X-2.536 Y-.542
G0 X-2.4 Y-.52
G1 F450 X-2.4 Y-5.04 E8.79554
G1 X-2.4 Y-5.14
G0 F600 X-2.4 Y-4.9
G0 X-3.6 Y-4.9
G0 X-3.6 Y-5.04
G1 F450 X-3.6 Y5.04 E9.02308
G1 X-3.6 Y5.14
G0 F600 X-3.6 Y4.9
G0 X-4.9 Y-1.2
G0 X-5.04 Y-1.2
G1 F450 X-2.141 Y-1.2 E9.08851
G1 X-2.041 Y-1.2
G0 F600 X-2.241 Y-1.306
G0 X-1.26 Y-2.271
G0 X-1.2 Y-2.144
G1 F450 X-1.2 Y-5.04 E9.15388
G1 X-1.2 Y-5.14
G0 F600 X-1.2 Y-4.6
;MESH:NONMESH
G0 X-2.225 Y-1.361
G0 X-2.592 Y0.00
G0 X-2.45 Y0.00
;TIME_ELAPSED:67.791122
;LAYER:1
M106 S255
;MESH:rectangle_w_hole_10mmHeight.STL
G0 F900 X-2.45 Y0.00 Z0.5
;TYPE:FILL
G1 F675 X-5.04 Y0.00 E9.19286
G1 X-5.14 Y0.00
G0 F900 X-4.9 Y0.00
G0 X-4.9 Y1.199
G0 X-5.04 Y1.199
G1 F675 X-2.138 Y1.199 E9.23653
G0 F900 X-2.4 Y0.506
G1 F675 X-2.4 Y5.04 E9.30476
G1 X-2.4 Y5.14
G0 F900 X-2.4 Y4.9
G0 X-3.6 Y4.9
G0 X-3.6 Y5.04
G1 F675 X-3.599 Y-5.04 E9.45645
G1 X-3.599 Y-5.14
G0 F900 X-3.599 Y-4.9
G0 X-2.399 Y-4.9
G0 X-2.399 Y-5.04
G1 F675 X-2.4 Y-.508 E9.52465
G0 F900 X-2.139 Y-1.2
G1 F675 X-5.04 Y-1.2 E9.5683
G1 X-5.14 Y-1.2
G0 F900 X-4.9 Y-1.2
G0 X-4.9 Y-2.4
G0 X-5.04 Y-2.4
G1 F675 X-.524 Y-2.4 E9.63626
G0 F900 X0.00 Y-2.452
G1 F675 X0.00 Y-5.04 E9.67521
G1 X0.00 Y-5.14
G0 F900 X0.00 Y-4.9
G0 X-1.199 Y-4.9
G0 X-1.199 Y-5.04
G1 F675 X-1.199 Y-2.141 E9.71883
G1 X-1.199 Y-2.041
G0 F900 X-1.33 Y-2.231
G0 X-.523 Y-2.484
G0 X0.523 Y-2.537
G0 X0.495 Y-2.4
G1 F675 X5.04 Y-2.399 E9.78723
G1 X5.14 Y-2.399
G0 F900 X4.9 Y-2.399
G0 X4.9 Y-3.599
G0 X5.04 Y-3.599
G1 F675 X-5.04 Y-3.6 E9.93892
G1 X-5.14 Y-3.6
G0 F900 X-4.9 Y-3.6
G0 X-4.9 Y-4.8
G0 X-5.04 Y-4.8
G1 F675 X5.04 Y-4.8 E10.09061
G0 F900 X4.8 Y-5.039
G1 F675 X4.799 Y5.04 E10.24228
G0 F900 X5.04 Y4.8
G1 F675 X-5.04 Y4.8 E10.39397
G0 F900 X-4.8 Y5.039
G1 F675 X-4.799 Y-5.04 E10.54564
G1 X-4.799 Y-5.14
G0 F900 X-4.799 Y-4.9
G0 X1.2 Y-4.9
G0 X1.2 Y-5.04
G1 F675 X1.2 Y-2.137 E10.58933
G1 X1.2 Y-2.037
G0 F900 X1.313 Y-2.232
G0 X2.26 Y-1.275
G0 X2.14 Y-1.199
G1 F675 X5.04 Y-1.199 E10.63297
G1 X5.14 Y-1.199
G0 F900 X4.9 Y-1.199
G0 X4.9 Y0.00
G0 X5.04 Y0.00
G1 F675 X2.459 Y0.00 E10.67181
G0 F900 X2.4 Y0.497
G1 F675 X2.399 Y5.04 E10.74017
G1 X2.399 Y5.14
G0 F900 X2.399 Y4.9
G0 X3.599 Y4.9
G0 X3.599 Y5.04
G1 F675 X3.6 Y-5.04 E10.89186
G1 X3.6 Y-5.14
G0 F900 X3.6 Y-4.9
G0 X2.4 Y-4.9
G0 X2.4 Y-5.04
G1 F675 X2.4 Y-.506 E10.96009
G1 X2.4 Y-.406
G0 F900 X2.56 Y-.445
G0 X2.519 Y0.231
G0 X2.259 Y1.273
G0 X2.139 Y1.2
G1 F675 X5.04 Y1.2 E11.00374
G1 X5.14 Y1.2
G0 F900 X4.9 Y1.2
G0 X4.9 Y2.4
G0 X5.04 Y2.4
G1 F675 X0.493 Y2.4 E11.07217
G0 F900 X0.00 Y2.453
G1 F675 X0.00 Y5.04 E11.1111
G1 X0.00 Y5.14
G0 F900 X0.00 Y4.9
G0 X1.199 Y4.9
G0 X1.199 Y5.04
G1 F675 X1.199 Y2.137 E11.15479
G1 X1.199 Y2.037
G0 F900 X1.313 Y2.233
G0 X0.422 Y2.489
G0 X-.556 Y2.534
G0 X-.517 Y2.4
G1 F675 X-5.04 Y2.399 E11.22285
G1 X-5.14 Y2.399
G0 F900 X-4.9 Y2.399
G0 X-4.9 Y3.599
G0 X-5.04 Y3.599
G1 F675 X5.04 Y3.6 E11.37454
G1 X5.14 Y3.6
G0 F900 X4.9 Y3.6
G0 X-1.2 Y4.9
G0 X-1.2 Y5.04
G1 F675 X-1.2 Y2.144 E11.41812
G1 X-1.2 Y2.044
G0 F900 X-1.495 Y2.478
;MESH:NONMESH
G0 X-2.261 Y1.266
G0 X-2.136 Y1.199
;TIME_ELAPSED:84.637037
;LAYER:2
;MESH:rectangle_w_hole_10mmHeight.STL
G0 F1200 X-2.136 Y1.199 Z0.7
;TYPE:FILL
G1 F900 X-5.04 Y1.199 E11.46182
G1 X-5.14 Y1.199
G0 F1200 X-4.9 Y1.199
G0 X-4.9 Y0.00
G0 X-5.04 Y0.00
G1 F900 X-2.45 Y0.00 E11.50079
G0 F1200 X-2.4 Y0.497
G1 F900 X-2.4 Y5.04 E11.56916
G1 X-2.4 Y5.14
G0 F1200 X-2.4 Y4.9
G0 X-3.6 Y4.9
G0 X-3.6 Y5.04
G1 F900 X-3.6 Y-5.04 E11.72085
G1 X-3.6 Y-5.14
G0 F1200 X-3.6 Y-4.9
G0 X-2.4 Y-4.9
G0 X-2.4 Y-5.04
G1 F900 X-2.4 Y-.507 E11.78906
G0 F1200 X-2.138 Y-1.2
G1 F900 X-5.04 Y-1.2 E11.83273
G1 X-5.14 Y-1.2
G0 F1200 X-4.9 Y-1.2
G0 X-4.9 Y-2.4
G0 X-5.04 Y-2.4
G1 F900 X-.525 Y-2.4 E11.90068
G0 F1200 X0.00 Y-2.451
G1 F900 X0.00 Y-5.04 E11.93964
G1 X0.00 Y-5.14
G0 F1200 X0.00 Y-4.9
G0 X1.2 Y-4.9
G0 X1.2 Y-5.04
G1 F900 X1.2 Y-2.136 E11.98334
G0 F1200 X0.492 Y-2.4
G1 F900 X5.04 Y-2.399 E12.05178
G1 X5.14 Y-2.399
G0 F1200 X4.9 Y-2.399
G0 X4.9 Y-3.599
G0 X5.04 Y-3.599
G1 F900 X-5.04 Y-3.6 E12.20347
G1 X-5.14 Y-3.6
G0 F1200 X-4.9 Y-3.6
G0 X-4.9 Y-4.8
G0 X-5.04 Y-4.8
G1 F900 X5.04 Y-4.8 E12.35516
G0 F1200 X4.8 Y-5.04
G1 F900 X4.8 Y5.04 E12.50684
G0 F1200 X5.04 Y4.8
G1 F900 X-5.04 Y4.8 E12.65853
G0 F1200 X-4.8 Y5.04
G1 F900 X-4.8 Y-5.04 E12.81022
G1 X-4.8 Y-5.14
G0 F1200 X-4.8 Y-4.9
G0 X-1.2 Y-4.9
G0 X-1.2 Y-5.04
G1 F900 X-1.2 Y-2.14 E12.85386
G1 X-1.2 Y-2.04
G0 F1200 X-1.331 Y-2.229
G0 X-.531 Y-2.481
G0 X0.281 Y-2.522
G0 X1.065 Y-2.304
G0 X1.611 Y-1.935
G0 X2.261 Y-1.274
G0 X2.141 Y-1.199
G1 F900 X5.04 Y-1.199 E12.89749
G1 X5.14 Y-1.199
G0 F1200 X4.9 Y-1.199
G0 X4.9 Y0.00
G0 X5.04 Y0.00
G1 F900 X2.458 Y0.00 E12.93634
G0 F1200 X2.4 Y0.497
G1 F900 X2.4 Y5.04 E13.00471
G1 X2.4 Y5.14
G0 F1200 X2.4 Y4.9
G0 X3.6 Y4.9
G0 X3.6 Y5.04
G1 F900 X3.6 Y-5.04 E13.15639
G1 X3.6 Y-5.14
G0 F1200 X3.6 Y-4.9
G0 X2.4 Y-4.9
G0 X2.4 Y-5.04
G1 F900 X2.4 Y-.505 E13.22464
G1 X2.4 Y-.405
G0 F1200 X2.563 Y-.419
G0 X2.52 Y0.229
G0 X2.258 Y1.273
G0 X2.14 Y1.2
G1 F900 X5.04 Y1.2 E13.26828
G1 X5.14 Y1.2
G0 F1200 X4.9 Y1.2
G0 X4.9 Y2.4
G0 X5.04 Y2.4
G1 F900 X0.494 Y2.4 E13.33669
G0 F1200 X0.00 Y2.453
G1 F900 X0.00 Y5.04 E13.37562
G1 X0.00 Y5.14
G0 F1200 X0.00 Y4.9
G0 X1.2 Y4.9
G0 X1.2 Y5.04
G1 F900 X1.2 Y2.137 E13.41931
G1 X1.2 Y2.037
G0 F1200 X1.314 Y2.232
G0 X0.429 Y2.487
G0 X-.549 Y2.535
G0 X-.512 Y2.4
G1 F900 X-5.04 Y2.399 E13.48745
G1 X-5.14 Y2.399
G0 F1200 X-4.9 Y2.399
G0 X-4.9 Y3.599
G0 X-5.04 Y3.599
G1 F900 X5.04 Y3.6 E13.63913
G1 X5.14 Y3.6
G0 F1200 X4.9 Y3.6
G0 X-1.2 Y4.9
G0 X-1.2 Y5.04
G1 F900 X-1.2 Y2.146 E13.68268
G1 X-1.2 Y2.046
G0 F1200 X-1.492 Y2.479
;MESH:NONMESH
G0 X0.33 Y2.516
G0 X1.269 Y2.259
G0 X1.199 Y2.137
;TIME_ELAPSED:97.326588
;LAYER:3
;MESH:rectangle_w_hole_10mmHeight.STL
G0 X1.199 Y2.137 Z0.9
;TYPE:FILL
G1 F900 X1.199 Y5.04 E13.72637
G1 X1.199 Y5.14
G0 F1200 X1.199 Y4.9
G0 X0.00 Y4.9
G0 X0.00 Y5.04
G1 F900 X0.00 Y2.453 E13.7653
G0 F1200 X0.501 Y2.4
G1 F900 X5.04 Y2.4 E13.8336
G1 X5.14 Y2.4
G0 F1200 X4.9 Y2.4
G0 X4.9 Y3.6
G0 X5.04 Y3.6
G1 F900 X-5.04 Y3.599 E13.98529
G1 X-5.14 Y3.599
G0 F1200 X-4.9 Y3.599
G0 X-4.9 Y2.399
G0 X-5.04 Y2.399
G1 F900 X-.526 Y2.4 E14.05322
G0 F1200 X-1.2 Y2.144
G1 F900 X-1.2 Y5.04 E14.0968
G1 X-1.2 Y5.14
G0 F1200 X-1.2 Y4.9
G0 X-2.4 Y4.9
G0 X-2.4 Y5.04
G1 F900 X-2.4 Y0.52 E14.16482
G0 F1200 X-2.452 Y0.00
G1 F900 X-5.04 Y0.00 E14.20377
G1 X-5.14 Y0.00
G0 F1200 X-4.9 Y0.00
G0 X-4.9 Y1.199
G0 X-5.04 Y1.199
G1 F900 X-2.14 Y1.199 E14.24741
G1 X-2.04 Y1.199
G0 F1200 X-2.242 Y1.304
G0 X-2.465 Y0.607
G0 X-2.483 Y0.378
G0 X-2.536 Y-.542
G0 X-2.4 Y-.519
G1 F900 X-2.399 Y-5.04 E14.31544
G1 X-2.399 Y-5.14
G0 F1200 X-2.399 Y-4.9
G0 X-3.599 Y-4.9
G0 X-3.599 Y-5.04
G1 F900 X-3.6 Y5.04 E14.46713
G1 X-3.6 Y5.14
G0 F1200 X-3.6 Y4.9
G0 X-4.8 Y4.9
G0 X-4.8 Y5.039
G1 F900 X-4.799 Y-5.04 E14.6188
G0 F1200 X-5.04 Y-4.8
G1 F900 X5.04 Y-4.8 E14.77049
G0 F1200 X4.8 Y-5.039
G1 F900 X4.799 Y5.04 E14.92216
G0 F1200 X5.04 Y4.8
G1 F900 X-5.04 Y4.8 E15.07385
G1 X-5.14 Y4.8
G0 F1200 X-4.9 Y4.8
G0 X-4.9 Y-1.2
G0 X-5.04 Y-1.2
G1 F900 X-2.14 Y-1.2 E15.11749
G1 X-2.04 Y-1.2
G0 F1200 X-2.241 Y-1.306
G0 X-1.259 Y-2.271
G0 X-1.199 Y-2.143
G1 F900 X-1.199 Y-5.04 E15.16109
G1 X-1.199 Y-5.14
G0 F1200 X-1.199 Y-4.9
G0 X0.00 Y-4.9
G0 X0.00 Y-5.04
G1 F900 X0.00 Y-2.454 E15.2
G0 F1200 X0.5 Y-2.4
G1 F900 X5.04 Y-2.399 E15.26832
G1 X5.14 Y-2.399
G0 F1200 X4.9 Y-2.399
G0 X4.9 Y-3.599
G0 X5.04 Y-3.599
G1 F900 X-5.04 Y-3.6 E15.42001
G1 X-5.14 Y-3.6
G0 F1200 X-4.9 Y-3.6
G0 X-4.9 Y-2.4
G0 X-5.04 Y-2.4
G1 F900 X-.527 Y-2.4 E15.48793
G1 X-.427 Y-2.4
G0 F1200 X-.447 Y-2.556
G0 X0.229 Y-2.525
G0 X1.271 Y-2.259
G0 X1.2 Y-2.138
G1 F900 X1.2 Y-5.04 E15.5316
G1 X1.2 Y-5.14
G0 F1200 X1.2 Y-4.9
G0 X2.4 Y-4.9
G0 X2.4 Y-5.04
G1 F900 X2.4 Y-.507 E15.59981
G0 F1200 X2.461 Y0.00
G1 F900 X5.04 Y0.00 E15.63862
G1 X5.14 Y0.00
G0 F1200 X4.9 Y0.00
G0 X4.9 Y-1.199
G0 X5.04 Y-1.199
G1 F900 X2.143 Y-1.199 E15.68222
G1 X2.043 Y-1.199
G0 F1200 X2.233 Y-1.318
G0 X2.479 Y-.499
G0 X2.536 Y0.539
G0 X2.4 Y0.506
G1 F900 X2.399 Y5.04 E15.75045
G1 X2.399 Y5.14
G0 F1200 X2.399 Y4.9
G0 X3.599 Y4.9
G0 X3.599 Y5.04
G1 F900 X3.6 Y-5.04 E15.90213
G1 X3.6 Y-5.14
G0 F1200 X3.6 Y-4.9
G0 X4.9 Y1.2
G0 X5.04 Y1.2
G1 F900 X2.142 Y1.2 E15.94574
G1 X2.042 Y1.2
G0 F1200 X2.485 Y1.48
;MESH:NONMESH
G0 X2.507 Y-.407
G0 X2.249 Y-1.18
G0 X1.759 Y-1.831
G0 X1.217 Y-2.206
G0 X0.529 Y-2.537
G0 X0.5 Y-2.4
