;FLAVOR:Marlin
;TIME:1202
;Filament used: 0.166873m
;Layer height: 0.2
;Generated with Cura_SteamEngine 3.6.0
M104 S200
M105
M109 S200
M82 ;absolute extrusion mode
G21 ;metric values
G90 ;absolute positioning
M82 ;set extruder to absolute mode
M107 ;start with the fan off
G28 ;move XYZ to min endstops
G1 Z15.0 F9000 ;move the platform down 15mm
G1 F9000
;Put printing message on LCD screen
M117 Printing...
G92 E0
;LAYER_COUNT:26
;LAYER:0
M107
;MESH:Box_1_testhybrid.stl
G0 F600 X-12 Y12.34 Z0.2
;TYPE:FILL
G1 F300 X-12 Y-12.34 E0.3714
G1 X-10.5 Y-12.34 E0.39397
G1 X-10.5 Y12.34 E0.76536
G1 X-9 Y12.34 E0.78794
G1 X-9 Y-12.34 E1.15933
G1 X-7.5 Y-12.34 E1.1819
G1 X-7.5 Y12.34 E1.5533
G1 X-6 Y12.34 E1.57587
G1 X-6 Y-12.34 E1.94727
G1 X-4.5 Y-12.34 E1.96984
G1 X-4.5 Y12.34 E2.34124
G1 X-3 Y12.34 E2.36381
G1 X-3 Y-12.34 E2.73521
G1 X-1.5 Y-12.34 E2.75778
G1 X-1.5 Y12.34 E3.12917
G1 X0.00 Y12.34 E3.15175
G1 X0.00 Y-12.34 E3.52314
G1 X1.5 Y-12.34 E3.54571
G1 X1.5 Y12.34 E3.91711
G1 X3 Y12.34 E3.93968
G1 X3 Y-12.34 E4.31108
G1 X4.5 Y-12.34 E4.33365
G1 X4.5 Y12.34 E4.70505
G1 X6 Y12.34 E4.72762
G1 X6 Y-12.34 E5.09902
G1 X7.5 Y-12.34 E5.12159
G1 X7.5 Y12.34 E5.49298
G1 X9 Y12.34 E5.51556
G1 X9 Y-12.34 E5.88695
G1 X10.5 Y-12.34 E5.90952
G1 X10.5 Y12.34 E6.28092
G1 X12 Y12.34 E6.30349
G1 X12 Y-12.34 E6.67489
G0 F600 X12 Y-12.1
;MESH:NONMESH
G0 X12.34 Y12
;TIME_ELAPSED:92.869485
;LAYER:1
M106 S255
;TYPE:FILL
G0 F900 X12.34 Y12 Z0.200000
G1 F450 X-12.34 Y12 E7.046280
G1 X-12.34 Y10.5 E7.068860
G1 X12.34 Y10.5 E7.440250
G1 X12.34 Y9 E7.462830
G1 X-12.34 Y9 E7.834220
G1 X-12.34 Y7.499 E7.856800
G1 X12.34 Y7.5 E8.228190
G1 X12.34 Y6 E8.250770
G1 X-12.34 Y5.999 E8.622160
G1 X-12.34 Y4.499 E8.644740
G1 X12.34 Y4.5 E9.016130
G1 X12.34 Y3 E9.038710
G1 X-12.34 Y2.999 E9.410100
G1 X-12.34 Y1.499 E9.432680
G1 X12.34 Y1.5 E9.804070
G1 X12.34 Y0.00 E9.826650
G1 X-12.34 Y0.00 E10.198040
G1 X-12.34 Y-1.5 E10.220620
G1 X12.34 Y-1.499 E10.592010
G1 X12.34 Y-2.999 E10.614590
G1 X-12.34 Y-3 E10.985980
G1 X-12.34 Y-4.5 E11.008560
G1 X12.34 Y-4.499 E11.379950
G1 X12.34 Y-5.999 E11.402530
G1 X-12.34 Y-6 E11.773920
G1 X-12.34 Y-7.5 E11.796500
G1 X12.34 Y-7.499 E12.167890
G1 X12.34 Y-9 E12.190470
G1 X-12.34 Y-9 E12.561860
G1 X-12.34 Y-10.5 E12.584440
G1 X12.34 Y-10.5 E12.955830
G1 X12.34 Y-12 E12.978410
G1 X-12.34 Y-12 E13.349800
G0 F900 X-12.1 Y-12
G0 F900 X12.34 Y12 Z0.400000
G1 F450 X-12.34 Y12 E13.721190
G1 X-12.34 Y10.5 E13.743770
G1 X12.34 Y10.5 E14.115160
G1 X12.34 Y9 E14.137740
G1 X-12.34 Y9 E14.509130
G1 X-12.34 Y7.499 E14.531710
G1 X12.34 Y7.5 E14.903100
G1 X12.34 Y6 E14.925680
G1 X-12.34 Y5.999 E15.297070
G1 X-12.34 Y4.499 E15.319650
G1 X12.34 Y4.5 E15.691040
G1 X12.34 Y3 E15.713620
G1 X-12.34 Y2.999 E16.085010
G1 X-12.34 Y1.499 E16.107590
G1 X12.34 Y1.5 E16.478980
G1 X12.34 Y0.00 E16.501560
G1 X-12.34 Y0.00 E16.872950
G1 X-12.34 Y-1.5 E16.895530
G1 X12.34 Y-1.499 E17.266920
G1 X12.34 Y-2.999 E17.289500
G1 X-12.34 Y-3 E17.660890
G1 X-12.34 Y-4.5 E17.683470
G1 X12.34 Y-4.499 E18.054860
G1 X12.34 Y-5.999 E18.077440
G1 X-12.34 Y-6 E18.448830
G1 X-12.34 Y-7.5 E18.471410
G1 X12.34 Y-7.499 E18.842800
G1 X12.34 Y-9 E18.865380
G1 X-12.34 Y-9 E19.236770
G1 X-12.34 Y-10.5 E19.259350
G1 X12.34 Y-10.5 E19.630740
G1 X12.34 Y-12 E19.653320
G1 X-12.34 Y-12 E20.024710
G0 F900 X-12.1 Y-12
G0 F900 X12.34 Y12 Z0.600000
G1 F450 X-12.34 Y12 E20.396100
G1 X-12.34 Y10.5 E20.418680
G1 X12.34 Y10.5 E20.790070
G1 X12.34 Y9 E20.812650
G1 X-12.34 Y9 E21.184040
G1 X-12.34 Y7.499 E21.206620
G1 X12.34 Y7.5 E21.578010
G1 X12.34 Y6 E21.600590
G1 X-12.34 Y5.999 E21.971980
G1 X-12.34 Y4.499 E21.994560
G1 X12.34 Y4.5 E22.365950
G1 X12.34 Y3 E22.388530
G1 X-12.34 Y2.999 E22.759920
G1 X-12.34 Y1.499 E22.782500
G1 X12.34 Y1.5 E23.153890
G1 X12.34 Y0.00 E23.176470
G1 X-12.34 Y0.00 E23.547860
G1 X-12.34 Y-1.5 E23.570440
G1 X12.34 Y-1.499 E23.941830
G1 X12.34 Y-2.999 E23.964410
G1 X-12.34 Y-3 E24.335800
G1 X-12.34 Y-4.5 E24.358380
G1 X12.34 Y-4.499 E24.729770
G1 X12.34 Y-5.999 E24.752350
G1 X-12.34 Y-6 E25.123740
G1 X-12.34 Y-7.5 E25.146320
G1 X12.34 Y-7.499 E25.517710
G1 X12.34 Y-9 E25.540290
G1 X-12.34 Y-9 E25.911680
G1 X-12.34 Y-10.5 E25.934260
G1 X12.34 Y-10.5 E26.305650
G1 X12.34 Y-12 E26.328230
G1 X-12.34 Y-12 E26.699620
G0 F900 X-12.1 Y-12
;******* Adding Gel layer below *******
M400
G0 X-37.510000  Y-13.000000
M400
G0 X-62.190000  Y-13.000000
M400
M400
G0 X-37.510000  Y-14.500000
M400
G0 X-62.190000  Y-14.500000
M400
M400
G0 X-37.510000  Y-16.000500
M400
G0 X-62.190000  Y-16.000500
M400
M400
G0 X-37.510000  Y-16.750500
M400
G0 X-62.190000  Y-16.750500
M400
M400
G0 X-37.510000  Y-17.500000
M400
G0 X-62.190000  Y-17.500000
M400
M400
G0 X-37.510000  Y-18.250500
M400
G0 X-62.190000  Y-18.250500
M400
M400
G0 X-37.510000  Y-19.001000
M400
G0 X-62.190000  Y-19.001000
M400
M400
G0 X-37.510000  Y-19.750500
M400
G0 X-62.190000  Y-19.750500
M400
M400
G0 X-37.510000  Y-20.500000
M400
G0 X-62.190000  Y-20.500000
M400
M400
G0 X-37.510000  Y-21.250500
M400
G0 X-62.190000  Y-21.250500
M400
M400
G0 X-37.510000  Y-22.001000
M400
G0 X-62.190000  Y-22.001000
M400
M400
G0 X-37.510000  Y-22.750500
M400
G0 X-62.190000  Y-22.750500
M400
M400
G0 X-37.510000  Y-23.500000
M400
G0 X-62.190000  Y-23.500000
M400
M400
G0 X-37.510000  Y-25.000000
M400
G0 X-62.190000  Y-25.000000
M400
M400
G0 X-37.510000  Y-25.749500
M400
G0 X-62.190000  Y-25.749500
M400
M400
G0 X-37.510000  Y-26.499000
M400
G0 X-62.190000  Y-26.499000
M400
M400
G0 X-37.510000  Y-27.249500
M400
G0 X-62.190000  Y-27.249500
M400
M400
G0 X-37.510000  Y-28.000000
M400
G0 X-62.190000  Y-28.000000
M400
M400
G0 X-37.510000  Y-28.749500
M400
G0 X-62.190000  Y-28.749500
M400
M400
G0 X-37.510000  Y-29.499000
M400
G0 X-62.190000  Y-29.499000
M400
M400
G0 X-37.510000  Y-30.249500
M400
G0 X-62.190000  Y-30.249500
M400
M400
G0 X-37.510000  Y-31.000000
M400
G0 X-62.190000  Y-31.000000
M400
M400
G0 X-37.510000  Y-31.749500
M400
G0 X-62.190000  Y-31.749500
M400
M400
G0 X-37.510000  Y-32.499500
M400
G0 X-62.190000  Y-32.499500
M400
M400
G0 X-37.510000  Y-34.000000
M400
G0 X-62.190000  Y-34.000000
M400
M400
G0 X-37.510000  Y-35.500000
M400
G0 X-62.190000  Y-35.500000
M400
;Gel layer added*****************
;MESH:NONMESH
G0 X-12 Y12.34
;TIME_ELAPSED:153.734791
;LAYER:2
;TYPE:FILL
G0 F1200 X-12 Y12.34 Z0.800000
G1 F600 X-12 Y-12.34 E27.071010
G1 X-10.5 Y-12.34 E27.093590
G1 X-10.5 Y12.34 E27.464980
G1 X-9 Y12.34 E27.487560
G1 X-9 Y-12.34 E27.858950
G1 X-7.5 Y-12.34 E27.881530
G1 X-7.5 Y12.34 E28.252920
G1 X-6 Y12.34 E28.275500
G1 X-6 Y-12.34 E28.646890
G1 X-4.5 Y-12.34 E28.669470
G1 X-4.5 Y12.34 E29.040860
G1 X-3 Y12.34 E29.063440
G1 X-3 Y-12.34 E29.434830
G1 X-1.5 Y-12.34 E29.457410
G1 X-1.5 Y12.34 E29.828800
G1 X0.00 Y12.34 E29.851380
G1 X0.00 Y-12.34 E30.222770
G1 X1.5 Y-12.34 E30.245350
G1 X1.5 Y12.34 E30.616740
G1 X3 Y12.34 E30.639320
G1 X3 Y-12.34 E31.010710
G1 X4.5 Y-12.34 E31.033290
G1 X4.5 Y12.34 E31.404680
G1 X6 Y12.34 E31.427260
G1 X6 Y-12.34 E31.798650
G1 X7.5 Y-12.34 E31.821230
G1 X7.5 Y12.34 E32.192620
G1 X9 Y12.34 E32.215200
G1 X9 Y-12.34 E32.586590
G1 X10.5 Y-12.34 E32.609170
G1 X10.5 Y12.34 E32.980560
G1 X12 Y12.34 E33.003140
G1 X12 Y-12.34 E33.374530
G0 F1200 X12 Y-12.1
G0 F1200 X-12 Y12.34 Z1.000000
G1 F600 X-12 Y-12.34 E33.745920
G1 X-10.5 Y-12.34 E33.768500
G1 X-10.5 Y12.34 E34.139890
G1 X-9 Y12.34 E34.162470
G1 X-9 Y-12.34 E34.533860
G1 X-7.5 Y-12.34 E34.556440
G1 X-7.5 Y12.34 E34.927830
G1 X-6 Y12.34 E34.950410
G1 X-6 Y-12.34 E35.321800
G1 X-4.5 Y-12.34 E35.344380
G1 X-4.5 Y12.34 E35.715770
G1 X-3 Y12.34 E35.738350
G1 X-3 Y-12.34 E36.109740
G1 X-1.5 Y-12.34 E36.132320
G1 X-1.5 Y12.34 E36.503710
G1 X0.00 Y12.34 E36.526290
G1 X0.00 Y-12.34 E36.897680
G1 X1.5 Y-12.34 E36.920260
G1 X1.5 Y12.34 E37.291650
G1 X3 Y12.34 E37.314230
G1 X3 Y-12.34 E37.685620
G1 X4.5 Y-12.34 E37.708200
G1 X4.5 Y12.34 E38.079590
G1 X6 Y12.34 E38.102170
G1 X6 Y-12.34 E38.473560
G1 X7.5 Y-12.34 E38.496140
G1 X7.5 Y12.34 E38.867530
G1 X9 Y12.34 E38.890110
G1 X9 Y-12.34 E39.261500
G1 X10.5 Y-12.34 E39.284080
G1 X10.5 Y12.34 E39.655470
G1 X12 Y12.34 E39.678050
G1 X12 Y-12.34 E40.049440
G0 F1200 X12 Y-12.1
G0 F1200 X-12 Y12.34 Z1.200000
G1 F600 X-12 Y-12.34 E40.420830
G1 X-10.5 Y-12.34 E40.443410
G1 X-10.5 Y12.34 E40.814800
G1 X-9 Y12.34 E40.837380
G1 X-9 Y-12.34 E41.208770
G1 X-7.5 Y-12.34 E41.231350
G1 X-7.5 Y12.34 E41.602740
G1 X-6 Y12.34 E41.625320
G1 X-6 Y-12.34 E41.996710
G1 X-4.5 Y-12.34 E42.019290
G1 X-4.5 Y12.34 E42.390680
G1 X-3 Y12.34 E42.413260
G1 X-3 Y-12.34 E42.784650
G1 X-1.5 Y-12.34 E42.807230
G1 X-1.5 Y12.34 E43.178620
G1 X0.00 Y12.34 E43.201200
G1 X0.00 Y-12.34 E43.572590
G1 X1.5 Y-12.34 E43.595170
G1 X1.5 Y12.34 E43.966560
G1 X3 Y12.34 E43.989140
G1 X3 Y-12.34 E44.360530
G1 X4.5 Y-12.34 E44.383110
G1 X4.5 Y12.34 E44.754500
G1 X6 Y12.34 E44.777080
G1 X6 Y-12.34 E45.148470
G1 X7.5 Y-12.34 E45.171050
G1 X7.5 Y12.34 E45.542440
G1 X9 Y12.34 E45.565020
G1 X9 Y-12.34 E45.936410
G1 X10.5 Y-12.34 E45.958990
G1 X10.5 Y12.34 E46.330380
G1 X12 Y12.34 E46.352960
G1 X12 Y-12.34 E46.724350
G0 F1200 X12 Y-12.1
;******* Adding Gel layer below *******
M400
G0 -61.100000 -11.910000
M400
G0 -61.100000 -36.590000
M400
M400
G0 -59.600000 -11.910000
M400
G0 -59.600000 -36.590000
M400
M400
G0 -58.100000 -11.910000
M400
G0 -58.100000 -36.590000
M400
M400
G0 -56.600000 -11.910000
M400
G0 -56.600000 -36.590000
M400
M400
G0 -55.100000 -11.910000
M400
G0 -55.100000 -36.590000
M400
M400
G0 -53.600000 -11.910000
M400
G0 -53.600000 -36.590000
M400
M400
G0 -52.100000 -11.910000
M400
G0 -52.100000 -36.590000
M400
M400
G0 -50.600000 -11.910000
M400
G0 -50.600000 -36.590000
M400
M400
G0 -49.100000 -11.910000
M400
G0 -49.100000 -36.590000
M400
M400
G0 -47.600000 -11.910000
M400
G0 -47.600000 -36.590000
M400
M400
G0 -46.100000 -11.910000
M400
G0 -46.100000 -36.590000
M400
M400
G0 -44.600000 -11.910000
M400
G0 -44.600000 -36.590000
M400
M400
G0 -43.100000 -11.910000
M400
G0 -43.100000 -36.590000
M400
M400
G0 -41.600000 -11.910000
M400
G0 -41.600000 -36.590000
M400
M400
G0 -40.100000 -11.910000
M400
G0 -40.100000 -36.590000
M400
M400
G0 -38.600000 -11.910000
M400
G0 -38.600000 -36.590000
M400
;Gel layer added*****************
;MESH:NONMESH
G0 X12.34 Y12
;TIME_ELAPSED:199.392282
;LAYER:3
;TYPE:FILL
G0 X12.34 Y12 Z1.400000
G1 F600 X-12.34 Y12 E47.095740
G1 X-12.34 Y10.5 E47.118310
G1 X12.34 Y10.5 E47.489710
G1 X12.34 Y9 E47.512280
G1 X-12.34 Y9 E47.883680
G1 X-12.34 Y7.499 E47.906250
G1 X12.34 Y7.5 E48.277650
G1 X12.34 Y6 E48.300220
G1 X-12.34 Y5.999 E48.671620
G1 X-12.34 Y4.499 E48.694190
G1 X12.34 Y4.5 E49.065590
G1 X12.34 Y3 E49.088160
G1 X-12.34 Y2.999 E49.459560
G1 X-12.34 Y1.499 E49.482130
G1 X12.34 Y1.5 E49.853530
G1 X12.34 Y0.00 E49.876100
G1 X-12.34 Y0.00 E50.247500
G1 X-12.34 Y-1.5 E50.270070
G1 X12.34 Y-1.499 E50.641470
G1 X12.34 Y-2.999 E50.664040
G1 X-12.34 Y-3 E51.035440
G1 X-12.34 Y-4.5 E51.058010
G1 X12.34 Y-4.499 E51.429410
G1 X12.34 Y-5.999 E51.451980
G1 X-12.34 Y-6 E51.823380
G1 X-12.34 Y-7.5 E51.845950
G1 X12.34 Y-7.499 E52.217350
G1 X12.34 Y-9 E52.239920
G1 X-12.34 Y-9 E52.611320
G1 X-12.34 Y-10.5 E52.633890
G1 X12.34 Y-10.5 E53.005290
G1 X12.34 Y-12 E53.027860
G1 X-12.34 Y-12 E53.399260
G0 F1200 X-12.1 Y-12
G0 X12.34 Y12 Z1.600000
G1 F600 X-12.34 Y12 E53.770660
G1 X-12.34 Y10.5 E53.793230
G1 X12.34 Y10.5 E54.164630
G1 X12.34 Y9 E54.187200
G1 X-12.34 Y9 E54.558600
G1 X-12.34 Y7.499 E54.581170
G1 X12.34 Y7.5 E54.952570
G1 X12.34 Y6 E54.975140
G1 X-12.34 Y5.999 E55.346540
G1 X-12.34 Y4.499 E55.369110
G1 X12.34 Y4.5 E55.740510
G1 X12.34 Y3 E55.763080
G1 X-12.34 Y2.999 E56.134480
G1 X-12.34 Y1.499 E56.157050
G1 X12.34 Y1.5 E56.528450
G1 X12.34 Y0.00 E56.551020
G1 X-12.34 Y0.00 E56.922420
G1 X-12.34 Y-1.5 E56.944990
G1 X12.34 Y-1.499 E57.316390
G1 X12.34 Y-2.999 E57.338960
G1 X-12.34 Y-3 E57.710360
G1 X-12.34 Y-4.5 E57.732930
G1 X12.34 Y-4.499 E58.104330
G1 X12.34 Y-5.999 E58.126900
G1 X-12.34 Y-6 E58.498300
G1 X-12.34 Y-7.5 E58.520870
G1 X12.34 Y-7.499 E58.892270
G1 X12.34 Y-9 E58.914840
G1 X-12.34 Y-9 E59.286240
G1 X-12.34 Y-10.5 E59.308810
G1 X12.34 Y-10.5 E59.680210
G1 X12.34 Y-12 E59.702780
G1 X-12.34 Y-12 E60.074180
G0 F1200 X-12.1 Y-12
G0 X12.34 Y12 Z1.800000
G1 F600 X-12.34 Y12 E60.445580
G1 X-12.34 Y10.5 E60.468150
G1 X12.34 Y10.5 E60.839550
G1 X12.34 Y9 E60.862120
G1 X-12.34 Y9 E61.233520
G1 X-12.34 Y7.499 E61.256090
G1 X12.34 Y7.5 E61.627490
G1 X12.34 Y6 E61.650060
G1 X-12.34 Y5.999 E62.021460
G1 X-12.34 Y4.499 E62.044030
G1 X12.34 Y4.5 E62.415430
G1 X12.34 Y3 E62.438000
G1 X-12.34 Y2.999 E62.809400
G1 X-12.34 Y1.499 E62.831970
G1 X12.34 Y1.5 E63.203370
G1 X12.34 Y0.00 E63.225940
G1 X-12.34 Y0.00 E63.597340
G1 X-12.34 Y-1.5 E63.619910
G1 X12.34 Y-1.499 E63.991310
G1 X12.34 Y-2.999 E64.013880
G1 X-12.34 Y-3 E64.385280
G1 X-12.34 Y-4.5 E64.407850
G1 X12.34 Y-4.499 E64.779250
G1 X12.34 Y-5.999 E64.801820
G1 X-12.34 Y-6 E65.173220
G1 X-12.34 Y-7.5 E65.195790
G1 X12.34 Y-7.499 E65.567190
G1 X12.34 Y-9 E65.589760
G1 X-12.34 Y-9 E65.961160
G1 X-12.34 Y-10.5 E65.983730
G1 X12.34 Y-10.5 E66.355130
G1 X12.34 Y-12 E66.377700
G1 X-12.34 Y-12 E66.749100
G0 F1200 X-12.1 Y-12
;******* Adding Gel layer below *******
M400
G0 X-37.510000  Y-13.000000
M400
G0 X-62.190000  Y-13.000000
M400
M400
G0 X-37.510000  Y-14.500000
M400
G0 X-62.190000  Y-14.500000
M400
M400
G0 X-37.510000  Y-16.000500
M400
G0 X-62.190000  Y-16.000500
M400
M400
G0 X-37.510000  Y-16.750500
M400
G0 X-62.190000  Y-16.750500
M400
M400
G0 X-37.510000  Y-17.500000
M400
G0 X-62.190000  Y-17.500000
M400
M400
G0 X-37.510000  Y-18.250500
M400
G0 X-62.190000  Y-18.250500
M400
M400
G0 X-37.510000  Y-19.001000
M400
G0 X-62.190000  Y-19.001000
M400
M400
G0 X-37.510000  Y-19.750500
M400
G0 X-62.190000  Y-19.750500
M400
M400
G0 X-37.510000  Y-20.500000
M400
G0 X-62.190000  Y-20.500000
M400
M400
G0 X-37.510000  Y-21.250500
M400
G0 X-62.190000  Y-21.250500
M400
M400
G0 X-37.510000  Y-22.001000
M400
G0 X-62.190000  Y-22.001000
M400
M400
G0 X-37.510000  Y-22.750500
M400
G0 X-62.190000  Y-22.750500
M400
M400
G0 X-37.510000  Y-23.500000
M400
G0 X-62.190000  Y-23.500000
M400
M400
G0 X-37.510000  Y-25.000000
M400
G0 X-62.190000  Y-25.000000
M400
M400
G0 X-37.510000  Y-25.749500
M400
G0 X-62.190000  Y-25.749500
M400
M400
G0 X-37.510000  Y-26.499000
M400
G0 X-62.190000  Y-26.499000
M400
M400
G0 X-37.510000  Y-27.249500
M400
G0 X-62.190000  Y-27.249500
M400
M400
G0 X-37.510000  Y-28.000000
M400
G0 X-62.190000  Y-28.000000
M400
M400
G0 X-37.510000  Y-28.749500
M400
G0 X-62.190000  Y-28.749500
M400
M400
G0 X-37.510000  Y-29.499000
M400
G0 X-62.190000  Y-29.499000
M400
M400
G0 X-37.510000  Y-30.249500
M400
G0 X-62.190000  Y-30.249500
M400
M400
G0 X-37.510000  Y-31.000000
M400
G0 X-62.190000  Y-31.000000
M400
M400
G0 X-37.510000  Y-31.749500
M400
G0 X-62.190000  Y-31.749500
M400
M400
G0 X-37.510000  Y-32.499500
M400
G0 X-62.190000  Y-32.499500
M400
M400
G0 X-37.510000  Y-34.000000
M400
G0 X-62.190000  Y-34.000000
M400
M400
G0 X-37.510000  Y-35.500000
M400
G0 X-62.190000  Y-35.500000
M400
;Gel layer added*****************
;MESH:NONMESH
G0 X-12 Y12.34
;TIME_ELAPSED:245.062288
;LAYER:4
;TYPE:FILL
G0 X-12 Y12.34 Z2.000000
G1 F600 X-12 Y-12.34 E67.120500
G1 X-10.5 Y-12.34 E67.143070
G1 X-10.5 Y12.34 E67.514470
G1 X-9 Y12.34 E67.537040
G1 X-9 Y-12.34 E67.908440
G1 X-7.5 Y-12.34 E67.931010
G1 X-7.5 Y12.34 E68.302410
G1 X-6 Y12.34 E68.324980
G1 X-6 Y-12.34 E68.696380
G1 X-4.5 Y-12.34 E68.718950
G1 X-4.5 Y12.34 E69.090350
G1 X-3 Y12.34 E69.112920
G1 X-3 Y-12.34 E69.484320
G1 X-1.5 Y-12.34 E69.506890
G1 X-1.5 Y12.34 E69.878290
G1 X0.00 Y12.34 E69.900860
G1 X0.00 Y-12.34 E70.272260
G1 X1.5 Y-12.34 E70.294830
G1 X1.5 Y12.34 E70.666230
G1 X3 Y12.34 E70.688800
G1 X3 Y-12.34 E71.060200
G1 X4.5 Y-12.34 E71.082770
G1 X4.5 Y12.34 E71.454170
G1 X6 Y12.34 E71.476740
G1 X6 Y-12.34 E71.848140
G1 X7.5 Y-12.34 E71.870710
G1 X7.5 Y12.34 E72.242110
G1 X9 Y12.34 E72.264680
G1 X9 Y-12.34 E72.636080
G1 X10.5 Y-12.34 E72.658650
G1 X10.5 Y12.34 E73.030050
G1 X12 Y12.34 E73.052620
G1 X12 Y-12.34 E73.424020
G0 F1200 X12 Y-12.1
G0 X-12 Y12.34 Z2.200000
