;FLAVOR:Marlin
;TIME:193
;Filament used: 0.0333236m
;Layer height: 0.8
;Generated with Cura_SteamEngine 3.6.0
M104 S200
M105
M109 S200
M82 ;absolute extrusion mode
G21 ;metric values
G90 ;absolute positioning
M82 ;set extruder to absolute mode
M107 ;start with the fan off
G28 ;move XYZ to min endstops
G1 Z15.0 F9000 ;move the platform down 15mm
G1 F9000
;Put printing message on LCD screen
M117 Printing...
G92 E0
G1 F1500 E-6.5
;LAYER_COUNT:4
;LAYER:0
M107
;MESH:Box_1_testhybrid.stl
G0 F600 X-6 Y6.09 Z0.2
;TYPE:FILL
G1 F1500 E0
G1 F150 X-6 Y-6.09 E0.18329
G1 X-5 Y-6.09 E0.19834
G1 X-5 Y6.09 E0.38163
G1 X-4 Y6.09 E0.39668
G1 X-4 Y-6.09 E0.57997
G1 X-3 Y-6.09 E0.59502
G1 X-3 Y6.09 E0.77831
G1 X-2 Y6.09 E0.79335
G1 X-2 Y-6.09 E0.97664
G1 X-1 Y-6.09 E0.99169
G1 X-1 Y6.09 E1.17498
G1 X0.00 Y6.09 E1.19003
G1 X0.00 Y-6.09 E1.37332
G1 X1 Y-6.09 E1.38837
G1 X1 Y6.09 E1.57166
G1 X2 Y6.09 E1.58671
G1 X2 Y-6.09 E1.77
G1 X3 Y-6.09 E1.78505
G1 X3 Y6.09 E1.96834
G1 X4 Y6.09 E1.98339
G1 X4 Y-6.09 E2.16668
G1 X5 Y-6.09 E2.18172
G1 X5 Y6.09 E2.36501
G1 X6 Y6.09 E2.38006
G1 X6 Y-6.09 E2.56335
G0 F600 X5.85 Y-5.85
;MESH:NONMESH
G0 X6.09 Y6
;TIME_ELAPSED:77.659241
;LAYER:1
;TYPE:FILL
G0 F900 X6.09 Y6 Z0.200000
G1 F225 X-6.09 Y6 E3.296510
G1 X-6.09 Y5 E3.356710
G1 X6.09 Y5 E4.089870
G1 X6.09 Y4 E4.150070
G1 X-6.09 Y3.999 E4.883230
G1 X-6.09 Y2.999 E4.943430
G1 X6.09 Y3 E5.676590
G1 X6.09 Y2 E5.736790
G1 X-6.09 Y1.999 E6.469950
G1 X-6.09 Y0.999 E6.530150
G1 X6.09 Y1 E7.263310
G1 X6.09 Y0.00 E7.323510
G1 X-6.09 Y0.00 E8.056670
G1 X-6.09 Y-1 E8.116870
G1 X6.09 Y-.999 E8.850030
G1 X6.09 Y-1.999 E8.910230
G1 X-6.09 Y-2 E9.643390
G1 X-6.09 Y-3 E9.703590
G1 X6.09 Y-2.999 E10.436750
G1 X6.09 Y-3.999 E10.496950
G1 X-6.09 Y-4 E11.230110
G1 X-6.09 Y-5 E11.290310
G1 X6.09 Y-5 E12.023470
G1 X6.09 Y-6 E12.083670
G1 X-6.09 Y-6 E12.816830
G0 F900 X-5.85 Y-5.85
G0 F900 X6.09 Y6 Z0.400000
G1 F225 X-6.09 Y6 E13.549990
G1 X-6.09 Y5 E13.610190
G1 X6.09 Y5 E14.343350
G1 X6.09 Y4 E14.403550
G1 X-6.09 Y3.999 E15.136710
G1 X-6.09 Y2.999 E15.196910
G1 X6.09 Y3 E15.930070
G1 X6.09 Y2 E15.990270
G1 X-6.09 Y1.999 E16.723430
G1 X-6.09 Y0.999 E16.783630
G1 X6.09 Y1 E17.516790
G1 X6.09 Y0.00 E17.576990
G1 X-6.09 Y0.00 E18.310150
G1 X-6.09 Y-1 E18.370350
G1 X6.09 Y-.999 E19.103510
G1 X6.09 Y-1.999 E19.163710
G1 X-6.09 Y-2 E19.896870
G1 X-6.09 Y-3 E19.957070
G1 X6.09 Y-2.999 E20.690230
G1 X6.09 Y-3.999 E20.750430
G1 X-6.09 Y-4 E21.483590
G1 X-6.09 Y-5 E21.543790
G1 X6.09 Y-5 E22.276950
G1 X6.09 Y-6 E22.337150
G1 X-6.09 Y-6 E23.070310
G0 F900 X-5.85 Y-5.85
G0 F900 X6.09 Y6 Z0.600000
G1 F225 X-6.09 Y6 E23.803470
G1 X-6.09 Y5 E23.863670
G1 X6.09 Y5 E24.596830
G1 X6.09 Y4 E24.657030
G1 X-6.09 Y3.999 E25.390190
G1 X-6.09 Y2.999 E25.450390
G1 X6.09 Y3 E26.183550
G1 X6.09 Y2 E26.243750
G1 X-6.09 Y1.999 E26.976910
G1 X-6.09 Y0.999 E27.037110
G1 X6.09 Y1 E27.770270
G1 X6.09 Y0.00 E27.830470
G1 X-6.09 Y0.00 E28.563630
G1 X-6.09 Y-1 E28.623830
G1 X6.09 Y-.999 E29.356990
G1 X6.09 Y-1.999 E29.417190
G1 X-6.09 Y-2 E30.150350
G1 X-6.09 Y-3 E30.210550
G1 X6.09 Y-2.999 E30.943710
G1 X6.09 Y-3.999 E31.003910
G1 X-6.09 Y-4 E31.737070
G1 X-6.09 Y-5 E31.797270
G1 X6.09 Y-5 E32.530430
G1 X6.09 Y-6 E32.590630
G1 X-6.09 Y-6 E33.323790
G0 F900 X-5.85 Y-5.85
;******* Adding Gel layer below *******
M400
G0 X-43.760000  Y-18.750000
M400
G0 X-55.940000  Y-18.750000 M400
M400
G0 X-43.760000  Y-19.750000
M400
G0 X-55.940000  Y-19.750000 M400
M400
G0 X-43.760000  Y-20.250500
M400
G0 X-55.940000  Y-20.250500 M400
M400
G0 X-43.760000  Y-20.751000
M400
G0 X-55.940000  Y-20.751000 M400
M400
G0 X-43.760000  Y-21.250500
M400
G0 X-55.940000  Y-21.250500 M400
M400
G0 X-43.760000  Y-21.750000
M400
G0 X-55.940000  Y-21.750000 M400
M400
G0 X-43.760000  Y-22.250500
M400
G0 X-55.940000  Y-22.250500 M400
M400
G0 X-43.760000  Y-22.751000
M400
G0 X-55.940000  Y-22.751000 M400
M400
G0 X-43.760000  Y-23.250500
M400
G0 X-55.940000  Y-23.250500 M400
M400
G0 X-43.760000  Y-23.750000
M400
G0 X-55.940000  Y-23.750000 M400
M400
G0 X-43.760000  Y-24.750000
M400
G0 X-55.940000  Y-24.750000 M400
M400
G0 X-43.760000  Y-25.249500
M400
G0 X-55.940000  Y-25.249500 M400
M400
G0 X-43.760000  Y-25.749000
M400
G0 X-55.940000  Y-25.749000 M400
M400
G0 X-43.760000  Y-26.249500
M400
G0 X-55.940000  Y-26.249500 M400
M400
G0 X-43.760000  Y-26.750000
M400
G0 X-55.940000  Y-26.750000 M400
M400
G0 X-43.760000  Y-27.249500
M400
G0 X-55.940000  Y-27.249500 M400
M400
G0 X-43.760000  Y-27.749000
M400
G0 X-55.940000  Y-27.749000 M400
M400
G0 X-43.760000  Y-28.249500
M400
G0 X-55.940000  Y-28.249500 M400
M400
G0 X-43.760000  Y-28.750000
M400
G0 X-55.940000  Y-28.750000 M400
M400
G0 X-43.760000  Y-29.750000
M400
G0 X-55.940000  Y-29.750000 M400
M400
G0 X-43.760000  Y-30.175000
M400
G0 X-55.940000  Y-30.175000 M400
;Gel layer added*****************
M400
;MESH:NONMESH
G0 X-6 Y6.09
;TIME_ELAPSED:124.106617
;LAYER:2
;TYPE:FILL
G0 F1200 X-6 Y6.09 Z0.800000
G1 F300 X-6 Y-6.09 E34.056950
G1 X-5 Y-6.09 E34.117140
G1 X-5 Y6.09 E34.850310
G1 X-4 Y6.09 E34.910500
G1 X-4 Y-6.09 E35.643670
G1 X-3 Y-6.09 E35.703860
G1 X-3 Y6.09 E36.437030
G1 X-2 Y6.09 E36.497220
G1 X-2 Y-6.09 E37.230390
G1 X-1 Y-6.09 E37.290580
G1 X-1 Y6.09 E38.023750
G1 X0.00 Y6.09 E38.083940
G1 X0.00 Y-6.09 E38.817110
G1 X1 Y-6.09 E38.877300
G1 X1 Y6.09 E39.610470
G1 X2 Y6.09 E39.670660
G1 X2 Y-6.09 E40.403830
G1 X3 Y-6.09 E40.464020
G1 X3 Y6.09 E41.197190
G1 X4 Y6.09 E41.257380
G1 X4 Y-6.09 E41.990550
G1 X5 Y-6.09 E42.050740
G1 X5 Y6.09 E42.783910
G1 X6 Y6.09 E42.844100
G1 X6 Y-6.09 E43.577270
G0 F1200 X5.85 Y-5.85
G0 F1200 X-6 Y6.09 Z1.000000
G1 F300 X-6 Y-6.09 E44.310440
G1 X-5 Y-6.09 E44.370630
G1 X-5 Y6.09 E45.103800
G1 X-4 Y6.09 E45.163990
G1 X-4 Y-6.09 E45.897160
G1 X-3 Y-6.09 E45.957350
G1 X-3 Y6.09 E46.690520
G1 X-2 Y6.09 E46.750710
G1 X-2 Y-6.09 E47.483880
G1 X-1 Y-6.09 E47.544070
G1 X-1 Y6.09 E48.277240
G1 X0.00 Y6.09 E48.337430
G1 X0.00 Y-6.09 E49.070600
G1 X1 Y-6.09 E49.130790
G1 X1 Y6.09 E49.863960
G1 X2 Y6.09 E49.924150
G1 X2 Y-6.09 E50.657320
G1 X3 Y-6.09 E50.717510
G1 X3 Y6.09 E51.450680
G1 X4 Y6.09 E51.510870
G1 X4 Y-6.09 E52.244040
G1 X5 Y-6.09 E52.304230
G1 X5 Y6.09 E53.037400
G1 X6 Y6.09 E53.097590
G1 X6 Y-6.09 E53.830760
G0 F1200 X5.85 Y-5.85
G0 F1200 X-6 Y6.09 Z1.200000
G1 F300 X-6 Y-6.09 E54.563930
G1 X-5 Y-6.09 E54.624120
G1 X-5 Y6.09 E55.357290
G1 X-4 Y6.09 E55.417480
G1 X-4 Y-6.09 E56.150650
G1 X-3 Y-6.09 E56.210840
G1 X-3 Y6.09 E56.944010
G1 X-2 Y6.09 E57.004200
G1 X-2 Y-6.09 E57.737370
G1 X-1 Y-6.09 E57.797560
G1 X-1 Y6.09 E58.530730
G1 X0.00 Y6.09 E58.590920
G1 X0.00 Y-6.09 E59.324090
G1 X1 Y-6.09 E59.384280
G1 X1 Y6.09 E60.117450
G1 X2 Y6.09 E60.177640
G1 X2 Y-6.09 E60.910810
G1 X3 Y-6.09 E60.971000
G1 X3 Y6.09 E61.704170
G1 X4 Y6.09 E61.764360
G1 X4 Y-6.09 E62.497530
G1 X5 Y-6.09 E62.557720
G1 X5 Y6.09 E63.290890
G1 X6 Y6.09 E63.351080
G1 X6 Y-6.09 E64.084250
G0 F1200 X5.85 Y-5.85
;******* Adding Gel layer below *******
M400
G0 X-55.350000  Y-18.160000
M400
G0 X-55.350000  Y-30.340000 M400
M400
G0 X-54.350000  Y-18.160000
M400
G0 X-54.350000  Y-30.340000 M400
M400
G0 X-53.350000  Y-18.160000
M400
G0 X-53.350000  Y-30.340000 M400
M400
G0 X-52.350000  Y-18.160000
M400
G0 X-52.350000  Y-30.340000 M400
M400
G0 X-51.350000  Y-18.160000
M400
G0 X-51.350000  Y-30.340000 M400
M400
G0 X-50.350000  Y-18.160000
M400
G0 X-50.350000  Y-30.340000 M400
M400
G0 X-49.350000  Y-18.160000
M400
G0 X-49.350000  Y-30.340000 M400
M400
G0 X-48.350000  Y-18.160000
M400
G0 X-48.350000  Y-30.340000 M400
M400
G0 X-47.350000  Y-18.160000
M400
G0 X-47.350000  Y-30.340000 M400
M400
G0 X-46.350000  Y-18.160000
M400
G0 X-46.350000  Y-30.340000 M400
M400
G0 X-45.350000  Y-18.160000
M400
G0 X-45.350000  Y-30.340000 M400
M400
G0 X-44.350000  Y-18.160000
M400
G0 X-44.350000  Y-30.340000 M400
M400
G0 X-43.925000  Y-18.160000
M400
G0 X-43.925000  Y-30.340000 M400
;Gel layer added*****************
M400
;MESH:NONMESH
G0 X6.09 Y6
;TIME_ELAPSED:158.990013
;LAYER:3
;TYPE:FILL
G0 X6.09 Y6 Z1.400000
G1 F300 X-6.09 Y6 E64.817410
G1 X-6.09 Y5 E64.877600
G1 X6.09 Y5 E65.610760
G1 X6.09 Y4 E65.670950
G1 X-6.09 Y3.999 E66.404110
G1 X-6.09 Y2.999 E66.464300
G1 X6.09 Y3 E67.197460
G1 X6.09 Y2 E67.257650
G1 X-6.09 Y1.999 E67.990810
G1 X-6.09 Y0.999 E68.051000
G1 X6.09 Y1 E68.784160
G1 X6.09 Y0.00 E68.844350
G1 X-6.09 Y0.00 E69.577510
G1 X-6.09 Y-1 E69.637700
G1 X6.09 Y-.999 E70.370860
G1 X6.09 Y-1.999 E70.431050
G1 X-6.09 Y-2 E71.164210
G1 X-6.09 Y-3 E71.224400
G1 X6.09 Y-2.999 E71.957560
G1 X6.09 Y-3.999 E72.017750
G1 X-6.09 Y-4 E72.750910
G1 X-6.09 Y-5 E72.811100
G1 X6.09 Y-5 E73.544260
G1 X6.09 Y-6 E73.604450
G1 X-6.09 Y-6 E74.337610
G0 F1200 X-5.85 Y-5.85
G0 X6.09 Y6 Z1.600000
G1 F300 X-6.09 Y6 E75.070770
G1 X-6.09 Y5 E75.130960
G1 X6.09 Y5 E75.864120
G1 X6.09 Y4 E75.924310
G1 X-6.09 Y3.999 E76.657470
G1 X-6.09 Y2.999 E76.717660
G1 X6.09 Y3 E77.450820
G1 X6.09 Y2 E77.511010
G1 X-6.09 Y1.999 E78.244170
G1 X-6.09 Y0.999 E78.304360
G1 X6.09 Y1 E79.037520
G1 X6.09 Y0.00 E79.097710
G1 X-6.09 Y0.00 E79.830870
G1 X-6.09 Y-1 E79.891060
G1 X6.09 Y-.999 E80.624220
G1 X6.09 Y-1.999 E80.684410
G1 X-6.09 Y-2 E81.417570
G1 X-6.09 Y-3 E81.477760
G1 X6.09 Y-2.999 E82.210920
G1 X6.09 Y-3.999 E82.271110
G1 X-6.09 Y-4 E83.004270
G1 X-6.09 Y-5 E83.064460
G1 X6.09 Y-5 E83.797620
G1 X6.09 Y-6 E83.857810
G1 X-6.09 Y-6 E84.590970
G0 F1200 X-5.85 Y-5.85
G0 X6.09 Y6 Z1.800000
G1 F300 X-6.09 Y6 E85.324130
G1 X-6.09 Y5 E85.384320
G1 X6.09 Y5 E86.117480
G1 X6.09 Y4 E86.177670
G1 X-6.09 Y3.999 E86.910830
G1 X-6.09 Y2.999 E86.971020
G1 X6.09 Y3 E87.704180
G1 X6.09 Y2 E87.764370
G1 X-6.09 Y1.999 E88.497530
G1 X-6.09 Y0.999 E88.557720
G1 X6.09 Y1 E89.290880
G1 X6.09 Y0.00 E89.351070
G1 X-6.09 Y0.00 E90.084230
G1 X-6.09 Y-1 E90.144420
G1 X6.09 Y-.999 E90.877580
G1 X6.09 Y-1.999 E90.937770
G1 X-6.09 Y-2 E91.670930
G1 X-6.09 Y-3 E91.731120
G1 X6.09 Y-2.999 E92.464280
G1 X6.09 Y-3.999 E92.524470
G1 X-6.09 Y-4 E93.257630
G1 X-6.09 Y-5 E93.317820
G1 X6.09 Y-5 E94.050980
G1 X6.09 Y-6 E94.111170
G1 X-6.09 Y-6 E94.844330
G0 F1200 X-5.85 Y-5.85
;******* Adding Gel layer below *******
M400
G0 X-43.760000  Y-18.750000
M400
G0 X-55.940000  Y-18.750000 M400
M400
G0 X-43.760000  Y-19.750000
M400
G0 X-55.940000  Y-19.750000 M400
M400
G0 X-43.760000  Y-20.250500
M400
G0 X-55.940000  Y-20.250500 M400
M400
G0 X-43.760000  Y-20.751000
M400
G0 X-55.940000  Y-20.751000 M400
M400
G0 X-43.760000  Y-21.250500
M400
G0 X-55.940000  Y-21.250500 M400
M400
G0 X-43.760000  Y-21.750000
M400
G0 X-55.940000  Y-21.750000 M400
M400
G0 X-43.760000  Y-22.250500
M400
G0 X-55.940000  Y-22.250500 M400
M400
G0 X-43.760000  Y-22.751000
M400
G0 X-55.940000  Y-22.751000 M400
M400
G0 X-43.760000  Y-23.250500
M400
G0 X-55.940000  Y-23.250500 M400
M400
G0 X-43.760000  Y-23.750000
M400
G0 X-55.940000  Y-23.750000 M400
M400
G0 X-43.760000  Y-24.750000
M400
G0 X-55.940000  Y-24.750000 M400
M400
G0 X-43.760000  Y-25.249500
M400
G0 X-55.940000  Y-25.249500 M400
M400
G0 X-43.760000  Y-25.749000
M400
G0 X-55.940000  Y-25.749000 M400
M400
G0 X-43.760000  Y-26.249500
M400
G0 X-55.940000  Y-26.249500 M400
M400
G0 X-43.760000  Y-26.750000
M400
G0 X-55.940000  Y-26.750000 M400
M400
G0 X-43.760000  Y-27.249500
M400
G0 X-55.940000  Y-27.249500 M400
M400
G0 X-43.760000  Y-27.749000
M400
G0 X-55.940000  Y-27.749000 M400
M400
G0 X-43.760000  Y-28.249500
M400
G0 X-55.940000  Y-28.249500 M400
M400
G0 X-43.760000  Y-28.750000
M400
G0 X-55.940000  Y-28.750000 M400
M400
G0 X-43.760000  Y-29.750000
M400
G0 X-55.940000  Y-29.750000 M400
M400
G0 X-43.760000  Y-30.175000
M400
G0 X-55.940000  Y-30.175000 M400
;Gel layer added*****************
M400
;TIME_ELAPSED:193.280788
G1 F1500 E26.82358
M140 S0
M104 S0 ;extruder heater off
M140 S0 ;heated bed heater off (if you have it)
G91 ;relative positioning
G1 E-1 F300  ;retract the filament a bit before lifting the nozzle, to release some of the pressure
G1 Z+0.5 E-5 X-20 Y-20 F9000 ;move Z up a bit and retract filament even more
G28 X0 Y0 ;move X/Y to min endstops, so the head is out of the way
M84 ;steppers off
G90 ;absolute positioning
M82 ;absolute extrusion mode
M104 S0
;End of Gcode
;SETTING_3 {"global_quality": "[general]\\nversion = 4\\nname = Carolyn - Syring
;SETTING_3 e\\ndefinition = fdmprinter\\n\\n[metadata]\\nsetting_version = 5\\nt
;SETTING_3 ype = quality_changes\\nquality_type = verydraft\\n\\n[values]\\nadhe
;SETTING_3 sion_type = none\\nlayer_height = 0.8\\nlayer_height_0 = 0.2\\nmateri
;SETTING_3 al_bed_temperature = 0\\nsupport_enable = False\\n\\n", "extruder_qua
;SETTING_3 lity": ["[general]\\nversion = 4\\nname = Carolyn - Syringe\\ndefinit
;SETTING_3 ion = fdmprinter\\n\\n[metadata]\\nposition = 0\\nsetting_version = 5
;SETTING_3 \\ntype = quality_changes\\nquality_type = verydraft\\n\\n[values]\\n
;SETTING_3 brim_width = 0\\ncool_fan_enabled = False\\ninfill_angles = [0,90]\\n
;SETTING_3 infill_line_distance = 1\\ninfill_pattern = zigzag\\ninfill_sparse_de
;SETTING_3 nsity = 70\\nmaterial_flow = 120\\nskirt_line_count = 2\\nspeed_print
;SETTING_3  = 5\\nspeed_travel = 20\\ntop_bottom_thickness = 0.0\\nwall_thicknes
;SETTING_3 s = 0.0\\n\\n"]}
