;FLAVOR:Marlin
;TIME:1684
;Filament used: 0.114872m
;Layer height: 0.2
;Generated with Cura_SteamEngine 3.6.0
M104 S200
M105
M109 S200
M82 ;absolute extrusion mode
G21 ;metric values
G90 ;absolute positioning
M82 ;set extruder to absolute mode
M107 ;start with the fan off
G28 ;move XYZ to min endstops
G1 Z15.0 F9000 ;move the platform down 15mm
G1 F9000
;Put printing message on LCD screen
M117 Printing...
G92 E0
;LAYER_COUNT:101
;LAYER:0
M107
G0 F600 X-.25 Y7.22 Z0.1
;TYPE:SKIRT
G1 F150 X-1.47 Y7.102 E0.00922
G1 X-2.081 Y7.002 E0.01388
G1 X-2.538 Y6.874 E0.01745
G1 X-3.534 Y6.539 E0.02536
G1 X-4.107 Y6.304 E0.03002
G1 X-4.557 Y6.053 E0.0339
G1 X-5.676 Y5.35 E0.04384
G1 X-6.179 Y4.988 E0.0485
G1 X-6.663 Y4.527 E0.05353
G1 X-7.552 Y3.556 E0.06344
G1 X-7.94 Y3.073 E0.0681
G1 X-8.283 Y2.505 E0.07309
G1 X-8.904 Y1.294 E0.08333
G1 X-9.151 Y0.726 E0.08799
G1 X-9.297 Y0.24 E0.09181
G1 X-9.526 Y-.7 E0.09909
G1 X-9.633 Y-1.31 E0.10375
G1 X-9.662 Y-1.785 E0.10733
G1 X-9.676 Y-3.101 E0.11723
G1 X-9.642 Y-3.719 E0.12189
G1 X-9.52 Y-4.366 E0.12684
G1 X-9.174 Y-5.689 E0.13713
G1 X-8.979 Y-6.277 E0.14179
G1 X-8.667 Y-6.909 E0.1471
G1 X-8.014 Y-8.019 E0.15679
G1 X-7.5 Y-8.734 E0.16341
G1 X-7.128 Y-9.162 E0.16768
G1 X-6.602 Y-9.68 E0.17323
G1 X-5.842 Y-10.322 E0.18072
G1 X-5.345 Y-10.69 E0.18537
G1 X-5.04 Y-10.871 E0.18804
G1 X-4.16 Y-11.35 E0.19558
G1 X-3.598 Y-11.61 E0.20024
G1 X-3.132 Y-11.764 E0.20393
G1 X-1.868 Y-12.11 E0.21379
G1 X-1.262 Y-12.234 E0.21845
G1 X-.646 Y-12.28 E0.22309
G1 X0.622 Y-12.292 E0.23263
G1 X1.449 Y-12.228 E0.23888
G1 X1.873 Y-12.158 E0.24211
G1 X2.529 Y-12.002 E0.24718
G1 X3.459 Y-11.71 E0.25452
G1 X4.037 Y-11.486 E0.25918
G1 X4.456 Y-11.267 E0.26274
G1 X5.567 Y-10.613 E0.27244
G1 X6.079 Y-10.265 E0.2771
G1 X6.568 Y-9.827 E0.28204
G1 X7.511 Y-8.86 E0.2922
G1 X7.914 Y-8.39 E0.29686
G1 X8.257 Y-7.866 E0.30157
G1 X8.869 Y-6.78 E0.31095
G1 X9.137 Y-6.221 E0.31561
G1 X9.34 Y-5.603 E0.32051
G1 X9.681 Y-4.258 E0.33095
G1 X9.794 Y-3.649 E0.33561
G1 X9.822 Y-2.84 E0.3417
G1 X9.745 Y-1.289 E0.35338
G1 X9.675 Y-.674 E0.35804
G1 X9.525 Y-0.071 E0.36272
G1 X9.213 Y0.909 E0.37046
G1 X8.91 Y1.644 E0.37644
G1 X8.615 Y2.219 E0.3813
G1 X8.297 Y2.751 E0.38596
G1 X8.093 Y3.026 E0.38854
G1 X7.262 Y4.065 E0.39855
G1 X6.844 Y4.523 E0.40322
G1 X6.338 Y4.948 E0.40819
G1 X5.283 Y5.716 E0.41801
G1 X4.76 Y6.047 E0.42266
G1 X4.171 Y6.319 E0.42754
G1 X2.917 Y6.798 E0.43765
G1 X2.325 Y6.981 E0.44231
G1 X1.818 Y7.075 E0.44619
G1 X0.826 Y7.203 E0.45371
G1 X0.208 Y7.242 E0.45837
G1 X-.25 Y7.22 E0.46182
G0 F600 X-.212 Y6.822
G1 F150 X-1.432 Y6.704 E0.47104
G1 X-2.017 Y6.607 E0.47551
G1 X-2.411 Y6.494 E0.47859
G1 X-3.407 Y6.159 E0.4865
G1 X-3.955 Y5.933 E0.49096
G1 X-4.345 Y5.715 E0.49432
G1 X-5.464 Y5.012 E0.50426
G1 X-5.943 Y4.663 E0.50872
G1 X-6.368 Y4.257 E0.51314
G1 X-7.257 Y3.286 E0.52305
G1 X-7.627 Y2.823 E0.52751
G1 X-7.927 Y2.323 E0.5319
G1 X-8.548 Y1.112 E0.54214
G1 X-8.783 Y0.567 E0.5466
G1 X-8.908 Y0.145 E0.54991
G1 X-9.137 Y-.795 E0.55719
G1 X-9.238 Y-1.379 E0.56165
G1 X-9.262 Y-1.789 E0.56474
G1 X-9.276 Y-3.105 E0.57465
G1 X-9.242 Y-3.697 E0.57911
G1 X-9.133 Y-4.265 E0.58346
G1 X-8.787 Y-5.588 E0.59375
G1 X-8.598 Y-6.151 E0.59822
G1 X-8.322 Y-6.706 E0.60288
G1 X-7.669 Y-7.816 E0.61257
G1 X-7.198 Y-8.471 E0.61864
G1 X-6.826 Y-8.899 E0.62291
G1 X-6.344 Y-9.374 E0.628
G1 X-5.584 Y-10.016 E0.63549
G1 X-5.107 Y-10.367 E0.63994
G1 X-4.849 Y-10.52 E0.6422
G1 X-3.969 Y-10.999 E0.64974
G1 X-3.43 Y-11.246 E0.6542
G1 X-3.027 Y-11.378 E0.65739
G1 X-1.763 Y-11.724 E0.66725
G1 X-1.182 Y-11.842 E0.67171
G1 X-.643 Y-11.88 E0.67578
G1 X0.625 Y-11.892 E0.68532
G1 X1.384 Y-11.833 E0.69104
G1 X1.808 Y-11.763 E0.69428
G1 X2.409 Y-11.62 E0.69893
G1 X3.339 Y-11.328 E0.70626
G1 X3.892 Y-11.113 E0.71073
G1 X4.253 Y-10.922 E0.7138
G1 X5.364 Y-10.268 E0.7235
G1 X5.854 Y-9.933 E0.72796
G1 X6.282 Y-9.548 E0.7323
G1 X7.225 Y-8.581 E0.74246
G1 X7.61 Y-8.129 E0.74693
G1 X7.908 Y-7.669 E0.75105
G1 X8.52 Y-6.583 E0.76043
G1 X8.776 Y-6.048 E0.76489
G1 X8.952 Y-5.504 E0.76919
G1 X9.293 Y-4.159 E0.77963
G1 X9.4 Y-3.576 E0.78409
G1 X9.423 Y-2.86 E0.78948
G1 X9.346 Y-1.309 E0.80117
G1 X9.276 Y-.72 E0.80563
G1 X9.144 Y-.192 E0.80973
G1 X8.832 Y0.788 E0.81747
G1 X8.554 Y1.461 E0.82294
G1 X8.259 Y2.036 E0.82781
G1 X7.78 Y2.776 E0.83444
G1 X6.949 Y3.815 E0.84445
G1 X6.548 Y4.252 E0.84891
G1 X6.103 Y4.624 E0.85328
G1 X5.048 Y5.392 E0.8631
G1 X4.546 Y5.708 E0.86756
G1 X4.028 Y5.945 E0.87184
G1 X2.774 Y6.424 E0.88195
G1 X2.207 Y6.598 E0.88641
G1 X1.767 Y6.678 E0.88977
G1 X0.775 Y6.806 E0.8973
G1 X0.183 Y6.842 E0.90176
G1 X-.212 Y6.822 E0.90474
G0 F600 X-.173 Y6.423
G1 F150 X-1.393 Y6.305 E0.91396
G1 X-1.951 Y6.211 E0.91822
G1 X-2.283 Y6.115 E0.92082
G1 X-3.279 Y5.78 E0.92872
G1 X-3.801 Y5.563 E0.93298
G1 X-4.132 Y5.376 E0.93584
G1 X-5.251 Y4.673 E0.94578
G1 X-5.707 Y4.339 E0.95003
G1 X-6.073 Y3.987 E0.95386
G1 X-6.962 Y3.016 E0.96376
G1 X-7.314 Y2.573 E0.96802
G1 X-7.571 Y2.14 E0.97181
G1 X-8.192 Y0.929 E0.98205
G1 X-8.414 Y0.409 E0.9863
G1 X-8.519 Y0.051 E0.98911
G1 X-8.748 Y-.889 E0.99639
G1 X-8.843 Y-1.447 E1.00065
G1 X-8.862 Y-1.793 E1.00325
G1 X-8.876 Y-3.109 E1.01316
G1 X-8.842 Y-3.674 E1.01742
G1 X-8.746 Y-4.164 E1.02117
G1 X-8.4 Y-5.487 E1.03146
G1 X-8.219 Y-6.023 E1.03572
G1 X-7.978 Y-6.503 E1.03976
G1 X-7.325 Y-7.613 E1.04945
G1 X-6.896 Y-8.209 E1.05497
G1 X-6.524 Y-8.637 E1.05924
G1 X-6.086 Y-9.069 E1.06387
G1 X-5.326 Y-9.711 E1.07136
G1 X-4.657 Y-10.168 E1.07745
G1 X-3.777 Y-10.647 E1.08499
G1 X-3.263 Y-10.882 E1.08924
G1 X-2.921 Y-10.992 E1.09195
G1 X-1.657 Y-11.338 E1.10181
G1 X-1.103 Y-11.448 E1.10606
G1 X-.639 Y-11.48 E1.10956
G1 X0.629 Y-11.492 E1.1191
G1 X1.319 Y-11.439 E1.1243
G1 X1.743 Y-11.369 E1.12754
G1 X2.289 Y-11.238 E1.13176
G1 X3.219 Y-10.946 E1.1391
G1 X3.745 Y-10.739 E1.14335
G1 X4.05 Y-10.577 E1.14595
G1 X5.161 Y-9.923 E1.15565
G1 X5.627 Y-9.603 E1.1599
G1 X5.996 Y-9.269 E1.16365
G1 X6.939 Y-8.302 E1.17381
G1 X7.304 Y-7.87 E1.17807
G1 X7.56 Y-7.473 E1.18162
G1 X8.172 Y-6.387 E1.191
G1 X8.414 Y-5.876 E1.19525
G1 X8.564 Y-5.406 E1.19897
G1 X8.905 Y-4.061 E1.20941
G1 X9.005 Y-3.505 E1.21366
G1 X9.023 Y-2.88 E1.21836
G1 X8.946 Y-1.329 E1.23005
G1 X8.878 Y-.767 E1.2343
G1 X8.762 Y-.314 E1.23782
G1 X8.45 Y0.666 E1.24556
G1 X8.198 Y1.279 E1.25055
G1 X7.903 Y1.854 E1.25541
G1 X7.468 Y2.526 E1.26143
G1 X6.637 Y3.565 E1.27145
G1 X6.253 Y3.981 E1.2757
G1 X5.867 Y4.301 E1.27948
G1 X4.812 Y5.069 E1.2893
G1 X4.333 Y5.368 E1.29354
G1 X3.885 Y5.572 E1.29725
G1 X2.631 Y6.051 E1.30735
G1 X2.09 Y6.215 E1.3116
G1 X1.716 Y6.281 E1.31446
G1 X0.724 Y6.409 E1.32199
G1 X0.159 Y6.442 E1.32624
G1 X-.173 Y6.423 E1.32875
G0 F600 X-.135 Y6.025
G1 F150 X-1.355 Y5.907 E1.33797
G1 X-1.883 Y5.816 E1.342
G1 X-2.156 Y5.736 E1.34414
G1 X-3.152 Y5.401 E1.35205
G1 X-3.646 Y5.193 E1.35608
G1 X-3.919 Y5.037 E1.35845
G1 X-5.038 Y4.334 E1.36839
G1 X-5.47 Y4.016 E1.37243
G1 X-5.778 Y3.717 E1.37566
G1 X-6.667 Y2.746 E1.38556
G1 X-6.999 Y2.325 E1.3896
G1 X-7.215 Y1.958 E1.3928
G1 X-7.836 Y0.747 E1.40304
G1 X-8.045 Y0.253 E1.40708
G1 X-8.131 Y-0.044 E1.4094
G1 X-8.36 Y-.984 E1.41668
G1 X-8.447 Y-1.513 E1.42072
G1 X-8.462 Y-1.798 E1.42286
G1 X-8.476 Y-3.114 E1.43277
G1 X-8.442 Y-3.649 E1.4368
G1 X-8.359 Y-4.063 E1.43998
G1 X-8.013 Y-5.386 E1.45026
G1 X-7.839 Y-5.893 E1.4543
G1 X-7.633 Y-6.3 E1.45773
G1 X-6.98 Y-7.41 E1.46742
G1 X-6.594 Y-7.947 E1.4724
G1 X-6.222 Y-8.375 E1.47666
G1 X-5.828 Y-8.763 E1.48082
G1 X-5.068 Y-9.405 E1.48831
G1 X-4.466 Y-9.817 E1.4938
G1 X-3.586 Y-10.296 E1.50134
G1 X-3.097 Y-10.517 E1.50537
G1 X-2.815 Y-10.606 E1.5076
G1 X-1.551 Y-10.952 E1.51746
G1 X-1.025 Y-11.055 E1.52149
G1 X-.635 Y-11.08 E1.52443
G1 X0.633 Y-11.092 E1.53397
G1 X1.253 Y-11.044 E1.53865
G1 X1.677 Y-10.974 E1.54189
G1 X2.169 Y-10.857 E1.54569
G1 X3.099 Y-10.565 E1.55303
G1 X3.598 Y-10.366 E1.55707
G1 X3.847 Y-10.232 E1.5592
G1 X4.958 Y-9.578 E1.5689
G1 X5.399 Y-9.273 E1.57293
G1 X5.709 Y-8.989 E1.57609
G1 X6.652 Y-8.022 E1.58626
G1 X6.997 Y-7.612 E1.59029
G1 X7.211 Y-7.276 E1.59329
G1 X7.823 Y-6.19 E1.60267
G1 X8.051 Y-5.705 E1.6067
G1 X8.177 Y-5.308 E1.60983
G1 X8.518 Y-3.963 E1.62027
G1 X8.61 Y-3.435 E1.6243
G1 X8.624 Y-2.899 E1.62834
G1 X8.547 Y-1.348 E1.64002
G1 X8.48 Y-.816 E1.64406
G1 X8.381 Y-.435 E1.64702
G1 X8.069 Y0.545 E1.65476
G1 X7.842 Y1.096 E1.65924
G1 X7.547 Y1.671 E1.66411
G1 X7.155 Y2.277 E1.66954
G1 X6.324 Y3.316 E1.67955
G1 X5.959 Y3.708 E1.68358
G1 X5.632 Y3.977 E1.68676
G1 X4.577 Y4.745 E1.69658
G1 X4.121 Y5.028 E1.70062
G1 X3.743 Y5.198 E1.70374
G1 X2.489 Y5.677 E1.71384
G1 X1.975 Y5.831 E1.71788
G1 X1.665 Y5.884 E1.72024
G1 X0.673 Y6.012 E1.72777
G1 X0.137 Y6.041 E1.73181
G1 X-.135 Y6.025 E1.73386
G0 F600 X-0.096 Y5.627
G1 F150 X-1.316 Y5.509 E1.74308
G1 X-2.028 Y5.357 E1.74856
G1 X-3.024 Y5.022 E1.75646
G1 X-3.706 Y4.699 E1.76214
G1 X-4.825 Y3.996 E1.77208
G1 X-5.231 Y3.694 E1.77589
G1 X-5.483 Y3.447 E1.77855
G1 X-6.372 Y2.476 E1.78845
G1 X-6.683 Y2.077 E1.79226
G1 X-6.859 Y1.775 E1.79489
G1 X-7.48 Y0.564 E1.80513
G1 X-7.742 Y-.139 E1.81077
G1 X-7.971 Y-1.079 E1.81805
G1 X-8.062 Y-1.802 E1.82354
G1 X-8.076 Y-3.118 E1.83344
G1 X-8.041 Y-3.622 E1.83724
G1 X-7.972 Y-3.962 E1.83985
G1 X-7.626 Y-5.285 E1.85014
G1 X-7.46 Y-5.762 E1.85394
G1 X-7.288 Y-6.098 E1.85678
G1 X-6.635 Y-7.208 E1.86647
G1 X-6.292 Y-7.684 E1.87088
G1 X-5.92 Y-8.112 E1.87515
G1 X-5.57 Y-8.458 E1.87885
G1 X-4.81 Y-9.1 E1.88634
G1 X-4.275 Y-9.466 E1.89122
G1 X-3.395 Y-9.945 E1.89876
G1 X-2.71 Y-10.22 E1.90431
G1 X-1.446 Y-10.566 E1.91417
G1 X-.949 Y-10.661 E1.91798
G1 X-.631 Y-10.68 E1.92037
G1 X0.637 Y-10.692 E1.92992
G1 X1.188 Y-10.649 E1.93407
G1 X1.612 Y-10.579 E1.93731
G1 X2.05 Y-10.475 E1.9407
G1 X2.98 Y-10.183 E1.94803
G1 X3.644 Y-9.888 E1.9535
G1 X4.755 Y-9.234 E1.9632
G1 X5.169 Y-8.944 E1.967
G1 X5.423 Y-8.71 E1.9696
G1 X6.366 Y-7.743 E1.97976
G1 X6.689 Y-7.354 E1.98357
G1 X6.863 Y-7.08 E1.98601
G1 X7.475 Y-5.994 E1.99539
G1 X7.687 Y-5.535 E1.99919
G1 X7.789 Y-5.209 E2.00176
G1 X8.13 Y-3.864 E2.0122
G1 X8.215 Y-3.366 E2.016
G1 X8.224 Y-2.919 E2.01937
G1 X8.147 Y-1.368 E2.03105
G1 X8.082 Y-.867 E2.03485
G1 X8 Y-.556 E2.03727
G1 X7.688 Y0.424 E2.04501
G1 X7.486 Y0.914 E2.049
G1 X7.191 Y1.489 E2.05386
G1 X6.843 Y2.027 E2.05868
G1 X6.012 Y3.066 E2.06869
G1 X5.666 Y3.434 E2.07249
G1 X5.396 Y3.654 E2.07511
G1 X4.341 Y4.422 E2.08493
G1 X3.91 Y4.686 E2.08874
G1 X3.6 Y4.824 E2.09129
G1 X2.346 Y5.303 E2.10139
G1 X1.614 Y5.488 E2.10707
G1 X0.622 Y5.616 E2.1146
G1 X-0.096 Y5.627 E2.12
;MESH:CylinderComplement.stl
G0 F600 X-1.658 Y2.853
G0 X-1.468 Y2.195
G0 X-4.728 Y-1.935
;TYPE:FILL
G1 F150 X-4.728 Y-3.155 E2.12918
G1 X-4.725 Y-3.183 E2.12939
G1 X-4.675 Y-3.484 E2.13169
G1 X-4.596 Y-3.819 E2.13428
G1 X-4.509 Y-4.104 E2.13652
G1 X-4.393 Y-4.413 E2.139
G1 X-4.258 Y-4.706 E2.14143
G1 X-4.1 Y-4.997 E2.14392
G1 X-3.943 Y-5.247 E2.14614
G1 X-3.746 Y-5.516 E2.14865
G1 X-3.537 Y-5.766 E2.1511
G1 X-3.528 Y-5.776 E2.1512
G1 X-3.528 Y0.692 E2.19987
G1 X-3.323 Y0.907 E2.20211
G1 X-3.086 Y1.126 E2.20453
G1 X-2.84 Y1.326 E2.20692
G1 X-2.583 Y1.507 E2.20928
G1 X-2.328 Y1.661 E2.21153
G1 X-2.328 Y-6.744 E2.27477
G1 X-2.306 Y-6.757 E2.27496
G1 X-2.016 Y-6.908 E2.27742
G1 X-1.722 Y-7.037 E2.27983
G1 X-1.426 Y-7.145 E2.28221
G1 X-1.128 Y-7.23 E2.28454
G1 X-1.128 Y2.147 E2.35509
G1 X-1.105 Y2.154 E2.35527
G1 X-.814 Y2.217 E2.35751
G1 X-.477 Y2.268 E2.36008
G1 X-.179 Y2.293 E2.36233
G1 X0.072 Y2.296 E2.36422
G1 X0.072 Y-7.381 E2.43703
G1 X0.147 Y-7.382 E2.43759
G1 X0.476 Y-7.364 E2.44007
G1 X0.796 Y-7.328 E2.44249
G1 X1.105 Y-7.27 E2.44486
G1 X1.272 Y-7.228 E2.44616
G1 X1.272 Y2.145 E2.51668
G1 X1.415 Y2.109 E2.51779
G1 X1.709 Y2.013 E2.52012
G1 X2.026 Y1.886 E2.52269
G1 X2.306 Y1.753 E2.52502
G1 X2.472 Y1.66 E2.52645
G1 X2.472 Y-6.743 E2.58968
G1 X2.586 Y-6.679 E2.59066
G1 X2.852 Y-6.505 E2.59305
G1 X3.105 Y-6.314 E2.59544
G1 X3.349 Y-6.103 E2.59786
G1 X3.588 Y-5.869 E2.60038
G1 X3.672 Y-5.774 E2.60134
G1 X3.672 Y0.691 E2.64998
G1 X3.784 Y0.565 E2.65125
G1 X3.991 Y0.3 E2.65378
G1 X4.168 Y0.037 E2.65616
G1 X4.334 Y-.248 E2.65864
G1 X4.472 Y-.524 E2.66097
G1 X4.595 Y-.818 E2.66336
G1 X4.696 Y-1.114 E2.66572
G1 X4.785 Y-1.435 E2.66822
G1 X4.846 Y-1.746 E2.67061
G1 X4.872 Y-1.944 E2.67211
G1 X4.872 Y-3.137 E2.68109
G0 F600 X4.634 Y-3.106
;MESH:NONMESH
G0 X0.675 Y2.258
;TIME_ELAPSED:145.026926
;LAYER:1
M106 S255
;MESH:CylinderComplement.stl
G0 F900 X0.675 Y2.258 Z0.3
;TYPE:FILL
G1 F225 X-.544 Y2.258 E2.69943
G1 X-.814 Y2.216 E2.70354
G1 X-1.106 Y2.153 E2.70804
G1 X-1.428 Y2.059 E2.71309
G1 X-1.735 Y1.949 E2.71799
G1 X-2.013 Y1.826 E2.72257
G1 X-2.309 Y1.671 E2.7276
G1 X-2.577 Y1.509 E2.73231
G1 X-2.851 Y1.317 E2.73734
G1 X-3.087 Y1.124 E2.74193
G1 X-3.16 Y1.057 E2.74342
G1 X3.302 Y1.058 E2.84067
G1 X3.349 Y1.018 E2.8416
G1 X3.571 Y0.801 E2.84627
G1 X3.798 Y0.548 E2.85138
G1 X3.982 Y0.31 E2.85591
G1 X4.167 Y0.036 E2.86088
G1 X4.271 Y-.141 E2.86397
G1 X-4.131 Y-.142 E2.99041
G1 X-4.265 Y-.392 E2.99468
G1 X-4.394 Y-.674 E2.99935
G1 X-4.51 Y-.982 E3.0043
G1 X-4.597 Y-1.268 E3.0088
G1 X-4.615 Y-1.342 E3.00994
G1 X4.758 Y-1.341 E3.15099
G1 X4.784 Y-1.432 E3.15242
G1 X4.845 Y-1.742 E3.15717
G1 X4.887 Y-2.056 E3.16194
G1 X4.909 Y-2.389 E3.16696
G1 X4.909 Y-2.541 E3.16925
G1 X-4.767 Y-2.542 E3.31486
G1 X-4.757 Y-2.875 E3.31987
G1 X-4.725 Y-3.183 E3.32453
G1 X-4.674 Y-3.486 E3.32915
G1 X-4.613 Y-3.742 E3.33311
G1 X4.76 Y-3.741 E3.47416
G1 X4.697 Y-3.968 E3.47771
G1 X4.596 Y-4.262 E3.48239
G1 X4.473 Y-4.555 E3.48717
G1 X4.336 Y-4.832 E3.49182
G1 X4.272 Y-4.942 E3.49373
G1 X-4.128 Y-4.942 E3.62014
G1 X-4.098 Y-4.999 E3.62111
G1 X-3.94 Y-5.249 E3.62556
G1 X-3.744 Y-5.518 E3.63057
G1 X-3.54 Y-5.761 E3.63534
G1 X-3.317 Y-5.996 E3.64022
G1 X-3.158 Y-6.142 E3.64347
G1 X3.304 Y-6.142 E3.74071
G1 X3.106 Y-6.313 E3.74465
G1 X2.853 Y-6.503 E3.74941
G1 X2.587 Y-6.677 E3.75419
G1 X2.318 Y-6.829 E3.75884
G1 X2.026 Y-6.969 E3.76371
G1 X1.709 Y-7.097 E3.76886
G1 X1.421 Y-7.19 E3.77341
G1 X1.105 Y-7.27 E3.77832
G1 X0.799 Y-7.326 E3.783
G1 X0.665 Y-7.342 E3.78503
G1 X-.542 Y-7.342 E3.80319
G0 F900 X-.507 Y-7.103
;MESH:NONMESH
G0 X-4.728 Y-1.933
;TIME_ELAPSED:165.460211
;LAYER:2
;MESH:CylinderComplement.stl
G0 F1200 X-4.728 Y-1.933 Z0.5
;TYPE:FILL
G1 F300 X-4.728 Y-3.151 E3.82152
G1 X-4.724 Y-3.189 E3.8221
G1 X-4.674 Y-3.489 E3.82667
G1 X-4.594 Y-3.823 E3.83184
G1 X-4.507 Y-4.108 E3.83633
G1 X-4.39 Y-4.417 E3.8413
G1 X-4.255 Y-4.71 E3.84615
G1 X-4.104 Y-4.99 E3.85094
G1 X-3.933 Y-5.259 E3.85574
G1 X-3.743 Y-5.52 E3.8606
G1 X-3.534 Y-5.769 E3.86549
G0 F1200 X-3.528 Y-5.776
G1 F300 X-3.528 Y0.693 E3.96284
G1 X-3.335 Y0.896 E3.96705
G1 X-3.09 Y1.123 E3.97208
G1 X-2.852 Y1.316 E3.97669
G1 X-2.583 Y1.505 E3.98164
G1 X-2.328 Y1.659 E3.98612
G1 X-2.328 Y-6.745 E4.11259
G1 X-2.301 Y-6.761 E4.11306
G1 X-2.011 Y-6.911 E4.11797
G1 X-1.717 Y-7.039 E4.1228
G1 X-1.421 Y-7.147 E4.12754
G1 X-1.128 Y-7.231 E4.13213
G1 X-1.128 Y2.146 E4.27323
G1 X-1.112 Y2.151 E4.27349
G1 X-.815 Y2.217 E4.27807
G1 X-.485 Y2.267 E4.28309
G1 X-.183 Y2.293 E4.28765
G1 X0.072 Y2.296 E4.29149
G1 X0.072 Y-7.381 E4.43711
G1 X0.153 Y-7.382 E4.43833
G1 X0.483 Y-7.363 E4.4433
G1 X0.796 Y-7.327 E4.44805
G1 X1.116 Y-7.267 E4.45294
G1 X1.272 Y-7.227 E4.45537
G1 X1.272 Y2.146 E4.59642
G1 X1.406 Y2.112 E4.5985
G1 X1.704 Y2.015 E4.60321
G1 X2.021 Y1.889 E4.60835
G1 X2.294 Y1.759 E4.6129
G1 X2.472 Y1.659 E4.61597
G1 X2.472 Y-6.741 E4.74238
G1 X2.59 Y-6.675 E4.74441
G1 X2.861 Y-6.497 E4.74929
G1 X3.109 Y-6.311 E4.75396
G1 X3.353 Y-6.1 E4.75881
G1 X3.59 Y-5.866 E4.76382
G1 X3.672 Y-5.774 E4.76568
G1 X3.672 Y0.688 E4.86292
G1 X3.796 Y0.551 E4.8657
G1 X3.98 Y0.313 E4.87023
G1 X4.168 Y0.035 E4.87528
G1 X4.325 Y-.231 E4.87993
G1 X4.469 Y-.519 E4.88477
G1 X4.595 Y-.819 E4.88967
G1 X4.694 Y-1.109 E4.89428
G1 X4.783 Y-1.43 E4.89929
G1 X4.845 Y-1.74 E4.90405
G1 X4.872 Y-1.946 E4.90718
G1 X4.872 Y-3.14 E4.92514
G0 F1200 X4.633 Y-3.109
;MESH:NONMESH
G0 X0.677 Y2.258
;TIME_ELAPSED:180.806427
;LAYER:3
;MESH:CylinderComplement.stl
G0 X0.677 Y2.258 Z0.7
;TYPE:FILL
G1 F300 X-.545 Y2.258 E4.94353
G1 X-.819 Y2.216 E4.9477
G1 X-1.116 Y2.15 E4.95228
G1 X-1.437 Y2.056 E4.95732
G1 X-1.735 Y1.949 E4.96208
G1 X-2.019 Y1.823 E4.96676
G1 X-2.307 Y1.672 E4.97165
G1 X-2.586 Y1.502 E4.97657
G1 X-2.856 Y1.313 E4.98153
G1 X-3.092 Y1.119 E4.98612
G1 X-3.16 Y1.057 E4.98751
G1 X3.303 Y1.058 E5.08477
G1 X3.345 Y1.023 E5.08559
G1 X3.566 Y0.805 E5.09026
G1 X3.793 Y0.553 E5.09536
G1 X3.982 Y0.31 E5.1
G1 X4.16 Y0.047 E5.10478
G1 X4.271 Y-.141 E5.10806
G1 X-4.13 Y-.142 E5.23448
G1 X-4.268 Y-.398 E5.23886
G1 X-4.397 Y-.68 E5.24353
G1 X-4.513 Y-.988 E5.24848
G1 X-4.598 Y-1.274 E5.25297
G1 X-4.615 Y-1.342 E5.25402
G1 X4.759 Y-1.341 E5.39509
G1 X4.783 Y-1.425 E5.3964
G1 X4.844 Y-1.735 E5.40116
G1 X4.886 Y-2.05 E5.40594
G1 X4.909 Y-2.383 E5.41096
G1 X4.909 Y-2.541 E5.41334
G1 X-4.767 Y-2.542 E5.55895
G1 X-4.756 Y-2.882 E5.56407
G1 X-4.724 Y-3.19 E5.56873
G1 X-4.673 Y-3.492 E5.57334
G1 X-4.613 Y-3.742 E5.57721
G1 X4.759 Y-3.741 E5.71824
G1 X4.699 Y-3.962 E5.72169
G1 X4.602 Y-4.244 E5.72617
G1 X4.47 Y-4.561 E5.73134
G1 X4.339 Y-4.826 E5.73579
G1 X4.272 Y-4.942 E5.73781
G1 X-4.128 Y-4.942 E5.86421
G1 X-4.095 Y-5.002 E5.86524
G1 X-3.936 Y-5.254 E5.86973
G1 X-3.741 Y-5.523 E5.87473
G1 X-3.542 Y-5.759 E5.87937
G1 X-3.319 Y-5.994 E5.88425
G1 X-3.157 Y-6.142 E5.88755
G1 X3.304 Y-6.142 E5.98478
G1 X3.111 Y-6.31 E5.98863
G1 X2.863 Y-6.496 E5.99329
G1 X2.58 Y-6.681 E5.99838
G1 X2.314 Y-6.831 E6.00298
G1 X2.032 Y-6.966 E6.00768
G1 X1.715 Y-7.093 E6.01282
G1 X1.429 Y-7.187 E6.01735
G1 X1.106 Y-7.27 E6.02237
G1 X0.806 Y-7.325 E6.02696
G1 X0.661 Y-7.342 E6.02916
G1 X-.542 Y-7.342 E6.04726
G0 F1200 X-.508 Y-7.103
;MESH:NONMESH
G0 X-4.728 Y-1.929
;TIME_ELAPSED:196.153794
;LAYER:4
;MESH:CylinderComplement.stl
G0 X-4.728 Y-1.929 Z0.9
;TYPE:FILL
G1 F300 X-4.728 Y-3.146 E6.06557
G1 X-4.723 Y-3.193 E6.06628
G1 X-4.672 Y-3.496 E6.07091
G1 X-4.592 Y-3.831 E6.07609
G1 X-4.505 Y-4.114 E6.08055
G1 X-4.382 Y-4.437 E6.08575
G1 X-4.26 Y-4.704 E6.09016
G1 X-4.1 Y-4.995 E6.09516
G1 X-3.935 Y-5.257 E6.09982
G1 X-3.74 Y-5.525 E6.10481
G1 X-3.533 Y-5.771 E6.10965
G0 F1200 X-3.528 Y-5.777
G1 F300 X-3.528 Y0.692 E6.207
G1 X-3.339 Y0.892 E6.21114
G1 X-3.095 Y1.118 E6.21614
G1 X-2.857 Y1.312 E6.22076
G1 X-2.582 Y1.506 E6.22583
G1 X-2.328 Y1.66 E6.2303
G1 X-2.328 Y-6.745 E6.35678
G1 X-2.295 Y-6.764 E6.35735
G1 X-2.005 Y-6.914 E6.36226
G1 X-1.711 Y-7.042 E6.36709
G1 X-1.414 Y-7.15 E6.37185
G1 X-1.128 Y-7.231 E6.37632
G1 X-1.128 Y2.147 E6.51744
G1 X-1.117 Y2.151 E6.51762
G1 X-.825 Y2.214 E6.52211
G1 X-.491 Y2.266 E6.5272
G1 X-.19 Y2.292 E6.53175
G1 X0.072 Y2.296 E6.53569
G1 X0.072 Y-7.381 E6.68132
G1 X0.159 Y-7.382 E6.68262
G1 X0.487 Y-7.363 E6.68757
G1 X0.804 Y-7.326 E6.69237
G1 X1.117 Y-7.267 E6.69716
G1 X1.272 Y-7.227 E6.69957
G1 X1.272 Y2.145 E6.84061
G1 X1.412 Y2.109 E6.84278
G1 X1.695 Y2.018 E6.84726
G1 X1.998 Y1.898 E6.85216
G1 X2.304 Y1.753 E6.85726
G1 X2.472 Y1.66 E6.86015
G1 X2.472 Y-6.741 E6.98657
G1 X2.595 Y-6.672 E6.98869
G1 X2.866 Y-6.494 E6.99357
G1 X3.114 Y-6.308 E6.99823
G1 X3.35 Y-6.103 E7.00294
G1 X3.585 Y-5.87 E7.00792
G1 X3.672 Y-5.771 E7.0099
G1 X3.672 Y0.688 E7.1071
G1 X3.785 Y0.563 E7.10964
G1 X3.978 Y0.318 E7.11433
G1 X4.159 Y0.05 E7.1192
G1 X4.329 Y-.238 E7.12423
G1 X4.471 Y-.523 E7.12902
G1 X4.588 Y-.801 E7.13356
G1 X4.696 Y-1.114 E7.13854
G1 X4.782 Y-1.423 E7.14337
G1 X4.844 Y-1.734 E7.14814
G1 X4.872 Y-1.948 E7.15139
G1 X4.872 Y-3.14 E7.16933
G0 F1200 X4.633 Y-3.111
;MESH:NONMESH
G0 X0.677 Y2.258
;TIME_ELAPSED:211.501449
;LAYER:5
;MESH:CylinderComplement.stl
G0 X0.677 Y2.258 Z1.1
;TYPE:FILL
G1 F300 X-.546 Y2.258 E7.18773
G1 X-.825 Y2.215 E7.19198
G1 X-1.121 Y2.149 E7.19654
G1 X-1.444 Y2.055 E7.2016
G1 X-1.735 Y1.95 E7.20626
G1 X-2.036 Y1.816 E7.21122
G1 X-2.308 Y1.671 E7.21586
G1 X-2.591 Y1.499 E7.22084
G1 X-2.86 Y1.309 E7.2258
G1 X-3.097 Y1.115 E7.2304
G1 X-3.16 Y1.057 E7.23169
G1 X3.303 Y1.058 E7.32895
G1 X3.341 Y1.026 E7.3297
G1 X3.561 Y0.809 E7.33435
G1 X3.782 Y0.566 E7.33929
G1 X3.985 Y0.306 E7.34426
G1 X4.16 Y0.049 E7.34893
G1 X4.272 Y-.141 E7.35225
G1 X-4.131 Y-.142 E7.47871
G1 X-4.268 Y-.398 E7.48308
G1 X-4.403 Y-.696 E7.488
G1 X-4.515 Y-.995 E7.4928
G1 X-4.6 Y-1.278 E7.49725
G1 X-4.615 Y-1.342 E7.49824
G1 X4.759 Y-1.341 E7.6393
G1 X4.781 Y-1.419 E7.64052
G1 X4.843 Y-1.73 E7.64529
G1 X4.885 Y-2.044 E7.65006
G1 X4.908 Y-2.376 E7.65507
G1 X4.908 Y-2.541 E7.65755
G1 X-4.768 Y-2.542 E7.80316
G1 X-4.757 Y-2.876 E7.80819
G1 X-4.723 Y-3.195 E7.81302
G1 X-4.671 Y-3.498 E7.81764
G1 X-4.612 Y-3.742 E7.82142
G1 X4.759 Y-3.741 E7.96244
G1 X4.703 Y-3.946 E7.96564
G1 X4.601 Y-4.248 E7.97044
G1 X4.473 Y-4.556 E7.97546
G1 X4.331 Y-4.842 E7.98026
G1 X4.273 Y-4.942 E7.982
G1 X-4.128 Y-4.942 E8.10842
G1 X-4.098 Y-4.998 E8.10938
G1 X-3.932 Y-5.26 E8.11405
G1 X-3.736 Y-5.529 E8.11905
G1 X-3.53 Y-5.773 E8.12386
G1 X-3.31 Y-6.003 E8.12865
G1 X-3.159 Y-6.142 E8.13174
G1 X3.304 Y-6.142 E8.229
G1 X3.116 Y-6.305 E8.23274
G1 X2.866 Y-6.492 E8.23744
G1 X2.6 Y-6.669 E8.24225
G1 X2.308 Y-6.834 E8.24729
G1 X2.024 Y-6.971 E8.25204
G1 X1.742 Y-7.085 E8.25662
G1 X1.433 Y-7.186 E8.26151
G1 X1.119 Y-7.266 E8.26638
G1 X0.806 Y-7.325 E8.27118
G1 X0.66 Y-7.342 E8.27339
G1 X-.542 Y-7.342 E8.29148
G0 F1200 X-.508 Y-7.103
;MESH:NONMESH
G0 X-4.728 Y-1.933
;TIME_ELAPSED:226.849149
;LAYER:6
;MESH:CylinderComplement.stl
G0 X-4.728 Y-1.933 Z1.3
;TYPE:FILL
G1 F300 X-4.728 Y-3.144 E8.3097
G1 X-4.722 Y-3.2 E8.31055
G1 X-4.667 Y-3.526 E8.31552
G1 X-4.597 Y-3.815 E8.32
G1 X-4.499 Y-4.131 E8.32498
G1 X-4.384 Y-4.433 E8.32984
G1 X-4.257 Y-4.71 E8.33443
G1 X-4.102 Y-4.992 E8.33927
G1 X-3.924 Y-5.273 E8.34427
G1 X-3.743 Y-5.52 E8.34888
G1 X-3.528 Y-5.777 E8.35392
G1 X-3.528 Y0.69 E8.45124
G1 X-3.336 Y0.895 E8.45547
G1 X-3.11 Y1.106 E8.46012
G1 X-2.855 Y1.314 E8.46507
G1 X-2.593 Y1.499 E8.4699
G1 X-2.328 Y1.661 E8.47457
G1 X-2.328 Y-6.744 E8.60106
G1 X-2.291 Y-6.766 E8.6017
G1 X-2 Y-6.916 E8.60663
G1 X-1.705 Y-7.044 E8.61147
G1 X-1.408 Y-7.152 E8.61623
G1 X-1.128 Y-7.231 E8.6206
G1 X-1.128 Y2.147 E8.76173
G0 F1200 X-1.126 Y2.148
G1 F300 X-.829 Y2.214 E8.76631
G1 X-.498 Y2.265 E8.77135
G1 X-.196 Y2.292 E8.77591
G1 X0.072 Y2.296 E8.77994
G1 X0.072 Y-7.38 E8.92555
G1 X0.163 Y-7.381 E8.92692
G1 X0.494 Y-7.362 E8.93191
G1 X0.818 Y-7.324 E8.93682
G1 X1.111 Y-7.268 E8.94131
G1 X1.272 Y-7.226 E8.94381
G1 X1.272 Y2.146 E9.08485
G1 X1.402 Y2.113 E9.08686
G1 X1.693 Y2.018 E9.09147
G1 X1.998 Y1.9 E9.09639
G1 X2.289 Y1.761 E9.10125
G1 X2.472 Y1.659 E9.1044
G1 X2.472 Y-6.741 E9.23081
G1 X2.611 Y-6.663 E9.2332
G1 X2.869 Y-6.492 E9.23786
G1 X3.125 Y-6.297 E9.2427
G1 X3.354 Y-6.098 E9.24727
G1 X3.589 Y-5.865 E9.25225
G1 X3.672 Y-5.771 E9.25414
G1 X3.672 Y0.689 E9.35135
G1 X3.78 Y0.568 E9.35379
G1 X3.975 Y0.32 E9.35854
G1 X4.158 Y0.052 E9.36342
G1 X4.318 Y-.22 E9.36817
G1 X4.467 Y-.517 E9.37317
G1 X4.59 Y-.803 E9.37786
G1 X4.694 Y-1.107 E9.38269
G1 X4.78 Y-1.417 E9.38753
G1 X4.842 Y-1.728 E9.3923
G1 X4.872 Y-1.947 E9.39563
G1 X4.872 Y-3.142 E9.41361
G0 F1200 X4.633 Y-3.113
;MESH:NONMESH
G0 X0.681 Y2.258
;TIME_ELAPSED:242.196750
;LAYER:7
;MESH:CylinderComplement.stl
G0 X0.681 Y2.258 Z1.5
;TYPE:FILL
G1 F300 X-.546 Y2.258 E9.43208
G1 X-.83 Y2.214 E9.4364
G1 X-1.132 Y2.147 E9.44106
G1 X-1.454 Y2.051 E9.44611
G1 X-1.736 Y1.949 E9.45063
G1 X-2.036 Y1.815 E9.45557
G1 X-2.322 Y1.663 E9.46045
G1 X-2.596 Y1.495 E9.46528
G1 X-2.865 Y1.305 E9.47024
G1 X-3.098 Y1.115 E9.47476
G1 X-3.161 Y1.057 E9.47605
G1 X3.305 Y1.058 E9.57335
G1 X3.33 Y1.037 E9.57385
G1 X3.563 Y0.809 E9.57875
G1 X3.778 Y0.57 E9.58359
G1 X3.981 Y0.311 E9.58854
G1 X4.155 Y0.054 E9.59321
G1 X4.272 Y-.141 E9.59663
G1 X-4.13 Y-.142 E9.72307
G1 X-4.271 Y-.404 E9.72755
G1 X-4.406 Y-.703 E9.73248
G1 X-4.517 Y-1.001 E9.73727
G1 X-4.602 Y-1.285 E9.74173
G1 X-4.616 Y-1.342 E9.74261
G1 X4.759 Y-1.341 E9.88369
G1 X4.776 Y-1.402 E9.88465
G1 X4.842 Y-1.727 E9.88964
G1 X4.886 Y-2.049 E9.89453
G1 X4.908 Y-2.357 E9.89917
G1 X4.908 Y-2.541 E9.90194
G1 X-4.768 Y-2.542 E10.04755
G1 X-4.756 Y-2.881 E10.05266
G1 X-4.722 Y-3.202 E10.05751
G1 X-4.668 Y-3.518 E10.06234
G1 X-4.614 Y-3.742 E10.06581
G1 X4.758 Y-3.741 E10.20684
G1 X4.705 Y-3.938 E10.20991
G1 X4.598 Y-4.254 E10.21493
G1 X4.479 Y-4.54 E10.21959
G1 X4.339 Y-4.824 E10.22436
G1 X4.271 Y-4.942 E10.22641
G1 X-4.129 Y-4.942 E10.35281
G1 X-4.1 Y-4.995 E10.35372
G1 X-3.929 Y-5.264 E10.35852
G1 X-3.725 Y-5.541 E10.3637
G1 X-3.526 Y-5.778 E10.36835
G1 X-3.313 Y-6 E10.37298
G1 X-3.157 Y-6.142 E10.37616
G1 X3.304 Y-6.142 E10.47339
G1 X3.119 Y-6.302 E10.47707
G1 X2.878 Y-6.484 E10.48161
G1 X2.591 Y-6.675 E10.4868
G1 X2.322 Y-6.826 E10.49144
G1 X2.031 Y-6.967 E10.49631
G1 X1.742 Y-7.085 E10.501
G1 X1.442 Y-7.183 E10.50575
G1 X1.124 Y-7.266 E10.5107
G1 X0.815 Y-7.324 E10.51543
G1 X0.663 Y-7.342 E10.51773
G1 X-.535 Y-7.342 E10.53576
G0 F1200 X-.502 Y-7.104
;MESH:NONMESH
G0 X-4.728 Y-1.929
;TIME_ELAPSED:257.544730
;LAYER:8
;MESH:CylinderComplement.stl
G0 X-4.728 Y-1.929 Z1.7
;TYPE:FILL
G1 F300 X-4.728 Y-3.143 E10.55403
G1 X-4.721 Y-3.207 E10.555
G1 X-4.667 Y-3.522 E10.55981
G1 X-4.596 Y-3.819 E10.5644
G1 X-4.497 Y-4.136 E10.5694
G1 X-4.377 Y-4.447 E10.57442
G1 X-4.254 Y-4.715 E10.57886
G1 X-4.098 Y-4.998 E10.58372
G1 X-3.928 Y-5.267 E10.58851
G1 X-3.724 Y-5.544 E10.59368
G1 X-3.529 Y-5.776 E10.59824
G0 F1200 X-3.528 Y-5.778
G1 F300 X-3.528 Y0.689 E10.69556
G1 X-3.331 Y0.899 E10.6999
G1 X-3.115 Y1.101 E10.70435
G1 X-2.853 Y1.315 E10.70944
G1 X-2.594 Y1.498 E10.71421
G1 X-2.328 Y1.661 E10.7189
G1 X-2.328 Y-6.742 E10.84536
G1 X-2.273 Y-6.775 E10.84632
G1 X-2.006 Y-6.913 E10.85084
G1 X-1.691 Y-7.049 E10.85601
G1 X-1.412 Y-7.15 E10.86047
G1 X-1.128 Y-7.229 E10.86491
G1 X-1.128 Y2.147 E11.006
G1 X-.837 Y2.213 E11.01049
G1 X-.501 Y2.265 E11.01561
G1 X-.203 Y2.291 E11.02011
G1 X0.072 Y2.296 E11.02425
G1 X0.072 Y-7.38 E11.16986
G1 X0.169 Y-7.381 E11.17132
G1 X0.497 Y-7.362 E11.17626
G1 X0.775 Y-7.328 E11.18048
G1 X1.122 Y-7.266 E11.18578
G1 X1.272 Y-7.227 E11.18811
G1 X1.272 Y2.147 E11.32918
G1 X1.389 Y2.118 E11.33099
G1 X1.694 Y2.018 E11.33582
G1 X1.987 Y1.903 E11.34056
G1 X2.278 Y1.766 E11.3454
G1 X2.472 Y1.659 E11.34873
G1 X2.472 Y-6.741 E11.47514
G1 X2.604 Y-6.666 E11.47743
G1 X2.874 Y-6.487 E11.4823
G1 X3.122 Y-6.3 E11.48697
G1 X3.359 Y-6.093 E11.49171
G1 X3.604 Y-5.85 E11.4969
G1 X3.672 Y-5.772 E11.49846
G1 X3.672 Y0.69 E11.5957
G1 X3.778 Y0.573 E11.59808
G1 X3.972 Y0.325 E11.60282
G1 X4.151 Y0.063 E11.60759
G1 X4.316 Y-.218 E11.6125
G1 X4.468 Y-.514 E11.6175
G1 X4.582 Y-.786 E11.62194
G1 X4.695 Y-1.109 E11.62709
G1 X4.777 Y-1.407 E11.63174
G1 X4.841 Y-1.721 E11.63656
G1 X4.872 Y-1.946 E11.63998
G1 X4.872 Y-3.139 E11.65793
G0 F1200 X4.633 Y-3.111
;MESH:NONMESH
G0 X0.682 Y2.258
;TIME_ELAPSED:272.892763
;LAYER:9
;MESH:CylinderComplement.stl
G0 X0.682 Y2.258 Z1.9
;TYPE:FILL
G1 F300 X-.542 Y2.258 E11.67635
G1 X-.839 Y2.212 E11.68088
G1 X-1.139 Y2.145 E11.6855
G1 X-1.45 Y2.052 E11.69039
G1 X-1.752 Y1.942 E11.69522
G1 X-2.042 Y1.813 E11.7
G1 X-2.33 Y1.659 E11.70491
G1 X-2.592 Y1.498 E11.70954
G1 X-2.86 Y1.308 E11.71449
G1 X-3.117 Y1.098 E11.71948
G1 X-3.161 Y1.057 E11.72039
G1 X3.304 Y1.058 E11.81767
G1 X3.319 Y1.046 E11.81796
G1 X3.559 Y0.812 E11.82301
G1 X3.775 Y0.575 E11.82783
G1 X3.969 Y0.327 E11.83257
G1 X4.149 Y0.064 E11.83737
G1 X4.27 Y-.141 E11.84095
G1 X-4.131 Y-.142 E11.96737
G1 X-4.273 Y-.408 E11.97191
G1 X-4.405 Y-.701 E11.97674
G1 X-4.514 Y-.994 E11.98145
G1 X-4.606 Y-1.304 E11.98631
G1 X-4.615 Y-1.342 E11.9869
G1 X4.758 Y-1.341 E12.12795
G1 X4.776 Y-1.404 E12.12894
G1 X4.843 Y-1.727 E12.1339
G1 X4.885 Y-2.033 E12.13855
G1 X4.908 Y-2.35 E12.14333
G1 X4.909 Y-2.541 E12.14621
G1 X-4.767 Y-2.542 E12.29182
G1 X-4.767 Y-2.56 E12.29209
G1 X-4.756 Y-2.889 E12.29704
G1 X-4.721 Y-3.21 E12.3019
G1 X-4.665 Y-3.535 E12.30686
G1 X-4.614 Y-3.742 E12.31007
G1 X4.759 Y-3.741 E12.45112
G1 X4.707 Y-3.932 E12.4541
G1 X4.6 Y-4.249 E12.45913
G1 X4.482 Y-4.534 E12.46377
G1 X4.342 Y-4.819 E12.46855
G1 X4.271 Y-4.942 E12.47069
G1 X-4.128 Y-4.942 E12.59708
G1 X-4.097 Y-4.999 E12.59806
G1 X-3.917 Y-5.28 E12.60308
G1 X-3.721 Y-5.546 E12.60805
G1 X-3.521 Y-5.783 E12.61272
G1 X-3.302 Y-6.012 E12.61749
G1 X-3.159 Y-6.142 E12.6204
G1 X3.303 Y-6.142 E12.71764
G1 X3.125 Y-6.298 E12.7212
G1 X2.885 Y-6.48 E12.72573
G1 X2.617 Y-6.657 E12.73057
G1 X2.326 Y-6.824 E12.73562
G1 X2.029 Y-6.968 E12.74058
G1 X1.756 Y-7.079 E12.74502
G1 X1.445 Y-7.182 E12.74995
G1 X1.124 Y-7.265 E12.75494
G1 X0.777 Y-7.328 E12.76024
G1 X0.663 Y-7.342 E12.76197
G1 X-.533 Y-7.342 E12.77997
G0 F1200 X-.5 Y-7.104
;MESH:NONMESH
G0 X-4.728 Y-1.93
;TIME_ELAPSED:288.239272
;LAYER:10
;MESH:CylinderComplement.stl
G0 X-4.728 Y-1.93 Z2.1
;TYPE:FILL
G1 F300 X-4.728 Y-3.141 E12.79819
G1 X-4.72 Y-3.214 E12.7993
G1 X-4.664 Y-3.539 E12.80426
G1 X-4.594 Y-3.827 E12.80872
G1 X-4.495 Y-4.142 E12.81369
G1 X-4.379 Y-4.443 E12.81855
G1 X-4.245 Y-4.73 E12.82331
G1 X-4.095 Y-5.002 E12.82799
G1 X-3.916 Y-5.283 E12.833
G1 X-3.72 Y-5.549 E12.83797
G1 X-3.528 Y-5.777 E12.84246
G1 X-3.528 Y0.691 E12.93979
G1 X-3.352 Y0.878 E12.94366
G1 X-3.116 Y1.099 E12.94852
G1 X-2.864 Y1.306 E12.95343
G1 X-2.594 Y1.497 E12.95841
G1 X-2.328 Y1.661 E12.96311
G1 X-2.328 Y-6.743 E13.08957
G1 X-2.268 Y-6.779 E13.09063
G1 X-2 Y-6.916 E13.09516
G1 X-1.693 Y-7.048 E13.10019
G1 X-1.394 Y-7.155 E13.10496
G1 X-1.128 Y-7.23 E13.10912
G1 X-1.128 Y2.147 E13.25023
G1 X-.842 Y2.212 E13.25465
G1 X-.508 Y2.264 E13.25973
G1 X-.209 Y2.291 E13.26425
G1 X0.072 Y2.297 E13.26848
G1 X0.072 Y-7.38 E13.4141
G1 X0.176 Y-7.381 E13.41567
G1 X0.504 Y-7.362 E13.42061
G1 X0.829 Y-7.323 E13.42554
G1 X1.128 Y-7.264 E13.43013
G1 X1.272 Y-7.226 E13.43237
G1 X1.272 Y2.146 E13.5734
G1 X1.372 Y2.121 E13.57495
G1 X1.696 Y2.018 E13.58007
G1 X1.986 Y1.904 E13.58476
G1 X2.279 Y1.766 E13.58963
G1 X2.472 Y1.66 E13.59294
G1 X2.472 Y-6.74 E13.71935
G1 X2.621 Y-6.655 E13.72193
G1 X2.885 Y-6.481 E13.72669
G1 X3.127 Y-6.296 E13.73128
G1 X3.364 Y-6.088 E13.73602
G1 X3.608 Y-5.846 E13.74119
G1 X3.672 Y-5.773 E13.74265
G1 X3.672 Y0.689 E13.8399
G1 X3.772 Y0.578 E13.84214
G1 X3.975 Y0.32 E13.84708
G1 X4.156 Y0.056 E13.8519
G1 X4.313 Y-.212 E13.85658
G1 X4.458 Y-.496 E13.86137
G1 X4.586 Y-.795 E13.86627
G1 X4.69 Y-1.094 E13.87103
G1 X4.775 Y-1.402 E13.87584
G1 X4.842 Y-1.725 E13.8808
G1 X4.872 Y-1.938 E13.88404
G1 X4.872 Y-3.14 E13.90213
G0 F1200 X4.633 Y-3.112
;MESH:NONMESH
G0 X0.682 Y2.258
;TIME_ELAPSED:303.586696
;LAYER:11
;MESH:CylinderComplement.stl
G0 X0.682 Y2.258 Z2.3
;TYPE:FILL
G1 F300 X-.544 Y2.258 E13.92058
G1 X-.846 Y2.211 E13.92518
G1 X-1.145 Y2.144 E13.92979
G1 X-1.456 Y2.05 E13.93468
G1 X-1.753 Y1.941 E13.93944
G1 X-2.052 Y1.807 E13.94437
G1 X-2.335 Y1.656 E13.9492
G1 X-2.602 Y1.492 E13.95391
G1 X-2.872 Y1.301 E13.95889
G1 X-3.106 Y1.107 E13.96346
G1 X-3.16 Y1.057 E13.96457
G1 X3.303 Y1.058 E14.06183
G1 X3.322 Y1.042 E14.0622
G1 X3.55 Y0.822 E14.06697
G1 X3.77 Y0.58 E14.07189
G1 X3.973 Y0.321 E14.07684
G1 X4.154 Y0.057 E14.08166
G1 X4.271 Y-.141 E14.08512
G1 X-4.133 Y-.142 E14.21159
G1 X-4.271 Y-.403 E14.21603
G1 X-4.402 Y-.697 E14.22088
G1 X-4.52 Y-1.015 E14.22598
G1 X-4.609 Y-1.311 E14.23063
G1 X-4.617 Y-1.342 E14.23111
G1 X4.759 Y-1.341 E14.37221
G1 X4.775 Y-1.398 E14.3731
G1 X4.841 Y-1.721 E14.37806
G1 X4.884 Y-2.028 E14.38272
G1 X4.907 Y-2.345 E14.38751
G1 X4.908 Y-2.541 E14.39046
G1 X-4.767 Y-2.542 E14.53605
G1 X-4.767 Y-2.564 E14.53638
G1 X-4.755 Y-2.894 E14.54135
G1 X-4.72 Y-3.215 E14.54621
G1 X-4.663 Y-3.541 E14.55119
G1 X-4.614 Y-3.742 E14.5543
G1 X4.759 Y-3.741 E14.69535
G1 X4.709 Y-3.926 E14.69824
G1 X4.603 Y-4.243 E14.70327
G1 X4.486 Y-4.528 E14.7079
G1 X4.346 Y-4.813 E14.71268
G1 X4.272 Y-4.942 E14.71492
G1 X-4.127 Y-4.942 E14.84131
G1 X-4.092 Y-5.005 E14.8424
G1 X-3.913 Y-5.286 E14.84741
G1 X-3.717 Y-5.551 E14.85237
G1 X-3.521 Y-5.783 E14.85694
G1 X-3.294 Y-6.019 E14.86187
G1 X-3.158 Y-6.142 E14.86463
G1 X3.303 Y-6.142 E14.96185
G1 X3.129 Y-6.294 E14.96533
G1 X2.888 Y-6.477 E14.96989
G1 X2.611 Y-6.661 E14.97489
G1 X2.332 Y-6.821 E14.97973
G1 X2.035 Y-6.965 E14.9847
G1 X1.757 Y-7.078 E14.98921
G1 X1.438 Y-7.184 E14.99427
G1 X1.132 Y-7.264 E14.99903
G1 X0.834 Y-7.321 E15.0036
G1 X0.658 Y-7.342 E15.00626
G1 X-.534 Y-7.342 E15.0242
G0 F1200 X-.502 Y-7.104
;MESH:NONMESH
G0 X-4.728 Y-1.93
;TIME_ELAPSED:318.933608
;LAYER:12
;MESH:CylinderComplement.stl
G0 X-4.728 Y-1.93 Z2.5
;TYPE:FILL
G1 F300 X-4.728 Y-3.139 E15.04239
G1 X-4.719 Y-3.219 E15.04361
G1 X-4.663 Y-3.546 E15.0486
G1 X-4.592 Y-3.833 E15.05305
G1 X-4.489 Y-4.16 E15.05821
G1 X-4.382 Y-4.437 E15.06268
G1 X-4.242 Y-4.736 E15.06764
G1 X-4.086 Y-5.019 E15.07251
G1 X-3.914 Y-5.286 E15.07729
G1 X-3.723 Y-5.545 E15.08213
G1 X-3.528 Y-5.775 E15.08667
G1 X-3.528 Y0.69 E15.18395
G1 X-3.351 Y0.878 E15.18784
G1 X-3.12 Y1.096 E15.19262
G1 X-2.859 Y1.31 E15.1977
G1 X-2.611 Y1.488 E15.20229
G1 X-2.328 Y1.66 E15.20728
G1 X-2.328 Y-6.743 E15.33373
G1 X-2.262 Y-6.782 E15.33488
G1 X-1.994 Y-6.919 E15.33941
G1 X-1.687 Y-7.05 E15.34443
G1 X-1.388 Y-7.157 E15.34921
G1 X-1.128 Y-7.229 E15.35327
G1 X-1.128 Y2.147 E15.49437
G1 X-.849 Y2.21 E15.49867
G1 X-.514 Y2.263 E15.50378
G1 X-.216 Y2.29 E15.50828
G1 X0.072 Y2.297 E15.51261
G1 X0.072 Y-7.38 E15.65824
G1 X0.182 Y-7.381 E15.65989
G1 X0.511 Y-7.36 E15.66485
G1 X0.836 Y-7.322 E15.66978
G1 X1.141 Y-7.262 E15.67446
G1 X1.272 Y-7.227 E15.6765
G1 X1.272 Y2.145 E15.81753
G1 X1.378 Y2.119 E15.81917
G1 X1.691 Y2.02 E15.82411
G1 X1.983 Y1.905 E15.82884
G1 X2.274 Y1.768 E15.83368
G1 X2.472 Y1.66 E15.83707
G1 X2.472 Y-6.741 E15.96349
G1 X2.615 Y-6.659 E15.96597
G1 X2.892 Y-6.475 E15.97098
G1 X3.141 Y-6.285 E15.97569
G1 X3.379 Y-6.077 E15.98045
G1 X3.604 Y-5.852 E15.98524
G1 X3.672 Y-5.774 E15.98679
G1 X3.672 Y0.689 E16.08405
G1 X3.768 Y0.583 E16.0862
G1 X3.971 Y0.326 E16.09113
G1 X4.145 Y0.072 E16.09576
G1 X4.31 Y-.206 E16.10063
G1 X4.455 Y-.49 E16.10543
G1 X4.581 Y-.785 E16.11025
G1 X4.691 Y-1.097 E16.11523
G1 X4.773 Y-1.396 E16.1199
G1 X4.842 Y-1.72 E16.12488
G1 X4.872 Y-1.937 E16.12818
G1 X4.872 Y-3.132 E16.14616
G0 F1200 X4.634 Y-3.104
;MESH:NONMESH
G0 X0.673 Y2.258
;TIME_ELAPSED:334.278331
;LAYER:13
;MESH:CylinderComplement.stl
G0 X0.673 Y2.258 Z2.7
;TYPE:FILL
G1 F300 X-.548 Y2.258 E16.16454
G1 X-.852 Y2.21 E16.16917
G1 X-1.152 Y2.142 E16.1738
G1 X-1.451 Y2.051 E16.1785
G1 X-1.713 Y1.953 E16.18271
G1 X-2.06 Y1.803 E16.1884
G1 X-2.335 Y1.656 E16.19309
G1 X-2.604 Y1.491 E16.19784
G1 X-2.876 Y1.296 E16.20288
G1 X-3.111 Y1.102 E16.20746
G1 X-3.159 Y1.057 E16.20845
G1 X3.304 Y1.058 E16.30571
G1 X3.317 Y1.047 E16.30597
G1 X3.546 Y0.826 E16.31076
G1 X3.766 Y0.584 E16.31568
G1 X3.961 Y0.337 E16.32041
G1 X4.15 Y0.062 E16.32544
G1 X4.272 Y-.141 E16.329
G1 X-4.131 Y-.142 E16.45545
G1 X-4.277 Y-.418 E16.46015
G1 X-4.409 Y-.712 E16.465
G1 X-4.522 Y-1.019 E16.46992
G1 X-4.612 Y-1.32 E16.47465
G1 X-4.617 Y-1.342 E16.47499
G1 X4.758 Y-1.341 E16.61607
G1 X4.772 Y-1.391 E16.61685
G1 X4.841 Y-1.716 E16.62185
G1 X4.883 Y-2.021 E16.62648
G1 X4.907 Y-2.338 E16.63127
G1 X4.908 Y-2.541 E16.63432
G1 X-4.767 Y-2.542 E16.77992
G1 X-4.767 Y-2.571 E16.78035
G1 X-4.755 Y-2.901 E16.78532
G1 X-4.719 Y-3.221 E16.79017
G1 X-4.662 Y-3.546 E16.79513
G1 X-4.614 Y-3.742 E16.79817
G1 X4.758 Y-3.741 E16.9392
G1 X4.711 Y-3.919 E16.94197
G1 X4.61 Y-4.226 E16.94684
G1 X4.489 Y-4.519 E16.95161
G1 X4.347 Y-4.81 E16.95648
G1 X4.271 Y-4.942 E16.95877
G1 X-4.128 Y-4.942 E17.08516
G1 X-4.083 Y-5.022 E17.08655
G1 X-3.911 Y-5.289 E17.09133
G1 X-3.72 Y-5.548 E17.09617
G1 X-3.514 Y-5.79 E17.10095
G1 X-3.29 Y-6.023 E17.10581
G1 X-3.158 Y-6.142 E17.10849
G1 X3.302 Y-6.142 E17.2057
G1 X3.139 Y-6.285 E17.20896
G1 X2.882 Y-6.482 E17.21384
G1 X2.616 Y-6.658 E17.21864
G1 X2.352 Y-6.811 E17.22323
G1 X2.046 Y-6.96 E17.22835
G1 X1.767 Y-7.075 E17.23289
G1 X1.448 Y-7.181 E17.23795
G1 X1.137 Y-7.262 E17.24279
G1 X0.829 Y-7.323 E17.24751
G1 X0.672 Y-7.342 E17.24989
G1 X-.527 Y-7.342 E17.26793
G0 F1200 X-.495 Y-7.104
;MESH:NONMESH
G0 X-4.728 Y-1.929
;TIME_ELAPSED:349.621514
;LAYER:14
;MESH:CylinderComplement.stl
G0 X-4.728 Y-1.929 Z2.9
;TYPE:FILL
G1 F300 X-4.728 Y-3.137 E17.28611
G1 X-4.718 Y-3.225 E17.28745
G1 X-4.661 Y-3.55 E17.29241
G1 X-4.588 Y-3.849 E17.29704
G1 X-4.49 Y-4.156 E17.30189
G1 X-4.379 Y-4.443 E17.30652
G1 X-4.238 Y-4.742 E17.3115
G1 X-4.082 Y-5.025 E17.31636
G1 X-3.916 Y-5.284 E17.32099
G1 X-3.719 Y-5.55 E17.32597
G1 X-3.528 Y-5.775 E17.33041
G1 X-3.528 Y0.689 E17.42769
G1 X-3.356 Y0.873 E17.43148
G1 X-3.121 Y1.094 E17.43633
G1 X-2.878 Y1.295 E17.44108
G1 X-2.61 Y1.486 E17.44603
G1 X-2.341 Y1.654 E17.4508
G1 X-2.328 Y1.66 E17.45102
G1 X-2.328 Y-6.742 E17.57745
G1 X-2.251 Y-6.787 E17.5788
G1 X-1.979 Y-6.925 E17.58339
G1 X-1.684 Y-7.052 E17.58822
G1 X-1.382 Y-7.158 E17.59304
G1 X-1.128 Y-7.229 E17.597
G1 X-1.128 Y2.147 E17.7381
G1 X-.858 Y2.207 E17.74226
G1 X-.519 Y2.262 E17.74743
G1 X-.22 Y2.29 E17.75195
G1 X0.072 Y2.297 E17.75634
G1 X0.072 Y-7.38 E17.90197
G1 X0.188 Y-7.38 E17.90371
G1 X0.523 Y-7.36 E17.90876
G1 X0.836 Y-7.321 E17.91351
G1 X1.141 Y-7.261 E17.91819
G1 X1.272 Y-7.227 E17.92022
G1 X1.272 Y2.145 E18.06126
G1 X1.37 Y2.121 E18.06278
G1 X1.687 Y2.021 E18.06778
G1 X1.976 Y1.908 E18.07245
G1 X2.263 Y1.774 E18.07721
G1 X2.472 Y1.659 E18.0808
G1 X2.472 Y-6.741 E18.20721
G1 X2.621 Y-6.655 E18.2098
G1 X2.897 Y-6.471 E18.21479
G1 X3.147 Y-6.28 E18.21953
G1 X3.373 Y-6.081 E18.22406
G1 X3.615 Y-5.837 E18.22923
G1 X3.672 Y-5.772 E18.23053
G1 X3.672 Y0.689 E18.32776
G1 X3.764 Y0.588 E18.32981
G1 X3.959 Y0.341 E18.33455
G1 X4.148 Y0.066 E18.33957
G1 X4.312 Y-.209 E18.34439
G1 X4.449 Y-.477 E18.34892
G1 X4.575 Y-.77 E18.35372
G1 X4.681 Y-1.058 E18.35834
G1 X4.769 Y-1.375 E18.36329
G1 X4.841 Y-1.713 E18.36849
G1 X4.872 Y-1.933 E18.37183
G1 X4.872 Y-3.136 E18.38993
G0 F1200 X4.634 Y-3.107
;MESH:NONMESH
G0 X0.674 Y2.258
;TIME_ELAPSED:364.966841
;LAYER:15
;MESH:CylinderComplement.stl
G0 X0.674 Y2.258 Z3.1
;TYPE:FILL
G1 F300 X-.551 Y2.258 E18.40837
G1 X-.846 Y2.21 E18.41287
G1 X-1.16 Y2.138 E18.41771
G1 X-1.463 Y2.048 E18.42247
G1 X-1.773 Y1.932 E18.42745
G1 X-2.062 Y1.802 E18.43222
G1 X-2.343 Y1.651 E18.43702
G1 X-2.609 Y1.486 E18.44173
G1 X-2.881 Y1.292 E18.44676
G1 X-3.116 Y1.098 E18.45134
G1 X-3.16 Y1.057 E18.45225
G1 X3.303 Y1.058 E18.54951
G1 X3.312 Y1.051 E18.54968
G1 X3.547 Y0.825 E18.55459
G1 X3.76 Y0.593 E18.55933
G1 X3.96 Y0.341 E18.56417
G1 X4.139 Y0.079 E18.56894
G1 X4.271 Y-.141 E18.5728
G1 X-4.131 Y-.142 E18.69924
G1 X-4.278 Y-.419 E18.70396
G1 X-4.414 Y-.726 E18.70901
G1 X-4.524 Y-1.025 E18.71381
G1 X-4.612 Y-1.323 E18.71848
G1 X-4.617 Y-1.342 E18.71878
G1 X4.759 Y-1.341 E18.85987
G1 X4.768 Y-1.371 E18.86034
G1 X4.84 Y-1.709 E18.86554
G1 X4.882 Y-2.015 E18.87019
G1 X4.907 Y-2.333 E18.87499
G1 X4.909 Y-2.541 E18.87812
G1 X-4.767 Y-2.542 E19.02373
G1 X-4.767 Y-2.579 E19.02429
G1 X-4.754 Y-2.908 E19.02924
G1 X-4.718 Y-3.228 E19.03409
G1 X-4.66 Y-3.554 E19.03907
G1 X-4.614 Y-3.742 E19.04198
G1 X4.758 Y-3.741 E19.18302
G1 X4.713 Y-3.913 E19.18569
G1 X4.608 Y-4.23 E19.19072
G1 X4.496 Y-4.504 E19.19517
G1 X4.35 Y-4.804 E19.20019
G1 X4.271 Y-4.942 E19.20259
G1 X-4.127 Y-4.942 E19.32896
G1 X-4.074 Y-5.036 E19.33059
G1 X-3.913 Y-5.287 E19.33507
G1 X-3.716 Y-5.554 E19.34007
G1 X-3.509 Y-5.796 E19.34486
G1 X-3.285 Y-6.027 E19.3497
G1 X-3.158 Y-6.142 E19.35228
G1 X3.303 Y-6.142 E19.44951
G1 X3.144 Y-6.281 E19.45269
G1 X2.889 Y-6.477 E19.45753
G1 X2.63 Y-6.65 E19.46221
G1 X2.348 Y-6.813 E19.46712
G1 X2.052 Y-6.957 E19.47207
G1 X1.762 Y-7.076 E19.47679
G1 X1.46 Y-7.178 E19.48158
G1 X1.145 Y-7.261 E19.48648
G1 X0.835 Y-7.322 E19.49124
G1 X0.669 Y-7.342 E19.49376
G1 X-.535 Y-7.342 E19.51187
G0 F1200 X-.503 Y-7.103
;MESH:NONMESH
G0 X-4.728 Y-1.932
;TIME_ELAPSED:380.311895
;LAYER:16
;MESH:CylinderComplement.stl
G0 X-4.728 Y-1.932 Z3.3
;TYPE:FILL
G1 F300 X-4.728 Y-3.137 E19.53001
G1 X-4.717 Y-3.232 E19.53145
G1 X-4.66 Y-3.56 E19.53646
G1 X-4.587 Y-3.846 E19.5409
G1 X-4.484 Y-4.173 E19.54606
G1 X-4.373 Y-4.458 E19.55066
G1 X-4.234 Y-4.75 E19.55553
G1 X-4.08 Y-5.03 E19.56034
G1 X-3.907 Y-5.297 E19.56512
G1 X-3.714 Y-5.556 E19.56998
G1 X-3.528 Y-5.775 E19.57431
G1 X-3.528 Y0.689 E19.67158
G1 X-3.35 Y0.879 E19.6755
G1 X-3.134 Y1.084 E19.67998
G1 X-2.879 Y1.294 E19.68495
G1 X-2.612 Y1.485 E19.68989
G1 X-2.346 Y1.65 E19.6946
G1 X-2.328 Y1.659 E19.6949
G1 X-2.328 Y-6.743 E19.82134
G1 X-2.264 Y-6.78 E19.82245
G1 X-1.965 Y-6.931 E19.82749
G1 X-1.677 Y-7.054 E19.83221
G1 X-1.369 Y-7.162 E19.83712
G1 X-1.128 Y-7.229 E19.84088
G1 X-1.128 Y2.145 E19.98195
G1 X-.859 Y2.207 E19.9861
G1 X-.526 Y2.261 E19.99118
G1 X-.227 Y2.289 E19.9957
G1 X0.072 Y2.297 E20.0002
G1 X0.072 Y-7.38 E20.14582
G1 X0.193 Y-7.38 E20.14764
G1 X0.53 Y-7.359 E20.15272
G1 X0.842 Y-7.32 E20.15746
G1 X1.15 Y-7.26 E20.16218
G1 X1.272 Y-7.228 E20.16408
G1 X1.272 Y2.144 E20.30511
G1 X1.371 Y2.12 E20.30664
G1 X1.681 Y2.023 E20.31153
G1 X1.967 Y1.911 E20.31615
G1 X2.265 Y1.774 E20.32109
G1 X2.472 Y1.66 E20.32464
G1 X2.472 Y-6.741 E20.45107
G1 X2.634 Y-6.648 E20.45388
G1 X2.893 Y-6.475 E20.45856
G1 X3.148 Y-6.279 E20.4634
G1 X3.377 Y-6.077 E20.468
G1 X3.62 Y-5.832 E20.47319
G1 X3.672 Y-5.772 E20.47439
G1 X3.672 Y0.688 E20.5716
G1 X3.76 Y0.591 E20.57357
G1 X3.95 Y0.353 E20.57815
G1 X4.144 Y0.071 E20.5833
G1 X4.309 Y-.204 E20.58813
G1 X4.446 Y-.471 E20.59265
G1 X4.576 Y-.774 E20.59761
G1 X4.688 Y-1.085 E20.60258
G1 X4.767 Y-1.369 E20.60702
G1 X4.838 Y-1.706 E20.6122
G1 X4.872 Y-1.942 E20.61579
G1 X4.872 Y-3.13 E20.63367
G0 F1200 X4.634 Y-3.102
;MESH:NONMESH
G0 X0.676 Y2.258
;TIME_ELAPSED:395.654210
;LAYER:17
;MESH:CylinderComplement.stl
G0 X0.676 Y2.258 Z3.5
;TYPE:FILL
G1 F300 X-.547 Y2.258 E20.65207
G1 X-.847 Y2.209 E20.65665
G1 X-1.166 Y2.136 E20.66157
G1 X-1.475 Y2.044 E20.66642
G1 X-1.773 Y1.933 E20.67121
G1 X-2.069 Y1.798 E20.6761
G1 X-2.34 Y1.653 E20.68073
G1 X-2.625 Y1.475 E20.68578
G1 X-2.889 Y1.285 E20.69068
G1 X-3.134 Y1.085 E20.69544
G1 X-3.164 Y1.057 E20.69606
G1 X3.304 Y1.058 E20.79339
G1 X3.312 Y1.052 E20.79354
G1 X3.534 Y0.839 E20.79817
G1 X3.758 Y0.593 E20.80318
G1 X3.948 Y0.355 E20.80776
G1 X4.142 Y0.073 E20.81291
G1 X4.271 Y-.141 E20.81667
G1 X-4.131 Y-.142 E20.94311
G1 X-4.281 Y-.427 E20.94795
G1 X-4.417 Y-.732 E20.95298
G1 X-4.522 Y-1.019 E20.95758
G1 X-4.615 Y-1.333 E20.96251
G0 F1200 X-4.617 Y-1.342
G1 F300 X4.76 Y-1.341 E21.10362
G1 X4.778 Y-1.421 E21.10485
G1 X4.837 Y-1.695 E21.10907
G1 X4.882 Y-2.008 E21.11383
G1 X4.906 Y-2.324 E21.1186
G1 X4.908 Y-2.541 E21.12186
G1 X-4.767 Y-2.542 E21.26745
G1 X-4.767 Y-2.585 E21.2681
G1 X-4.754 Y-2.914 E21.27306
G1 X-4.717 Y-3.235 E21.27792
G1 X-4.659 Y-3.56 E21.28289
G1 X-4.612 Y-3.742 E21.28572
G1 X4.758 Y-3.741 E21.42672
G1 X4.711 Y-3.92 E21.4295
G1 X4.614 Y-4.214 E21.43416
G1 X4.489 Y-4.519 E21.43912
G1 X4.354 Y-4.796 E21.44376
G1 X4.271 Y-4.942 E21.44629
G1 X-4.127 Y-4.942 E21.57267
G1 X-4.071 Y-5.042 E21.57439
G1 X-3.904 Y-5.3 E21.57901
G1 X-3.711 Y-5.559 E21.58388
G1 X-3.505 Y-5.8 E21.58865
G1 X-3.291 Y-6.022 E21.59329
G1 X-3.157 Y-6.142 E21.59599
G1 X3.302 Y-6.142 E21.69319
G1 X3.149 Y-6.277 E21.69626
G1 X2.894 Y-6.473 E21.7011
G1 X2.636 Y-6.646 E21.70578
G1 X2.348 Y-6.811 E21.71077
G1 X2.071 Y-6.949 E21.71543
G1 X1.758 Y-7.078 E21.72052
G1 X1.472 Y-7.175 E21.72507
G1 X1.155 Y-7.258 E21.73
G1 X0.84 Y-7.32 E21.73483
G1 X0.667 Y-7.342 E21.73745
G1 X-.532 Y-7.342 E21.7555
G0 F1200 X-.503 Y-7.103
;MESH:NONMESH
G0 X-4.728 Y-1.932
;TIME_ELAPSED:410.999269
;LAYER:18
;MESH:CylinderComplement.stl
G0 X-4.728 Y-1.932 Z3.7
;TYPE:FILL
G1 F300 X-4.728 Y-3.135 E21.7736
G1 X-4.716 Y-3.239 E21.77518
G1 X-4.658 Y-3.564 E21.78014
G1 X-4.585 Y-3.852 E21.78461
G1 X-4.482 Y-4.179 E21.78977
G1 X-4.37 Y-4.465 E21.7944
G1 X-4.231 Y-4.756 E21.79925
G1 X-4.07 Y-5.045 E21.80423
G1 X-3.91 Y-5.293 E21.80867
G1 X-3.715 Y-5.555 E21.81358
G1 X-3.528 Y-5.776 E21.81794
G1 X-3.528 Y0.69 E21.91524
G1 X-3.371 Y0.859 E21.91871
G1 X-3.126 Y1.089 E21.92377
G1 X-2.883 Y1.291 E21.92853
G1 X-2.618 Y1.482 E21.93344
G1 X-2.351 Y1.647 E21.93817
G1 X-2.328 Y1.659 E21.93856
G1 X-2.328 Y-6.742 E22.06498
G1 X-2.252 Y-6.787 E22.06631
G1 X-1.955 Y-6.936 E22.07131
G1 X-1.678 Y-7.054 E22.07584
G1 X-1.366 Y-7.163 E22.08081
G1 X-1.128 Y-7.23 E22.08453
G1 X-1.128 Y2.146 E22.22563
G1 X-.857 Y2.208 E22.22981
G1 X-.547 Y2.258 E22.23454
G1 X-.231 Y2.289 E22.23931
G1 X0.072 Y2.297 E22.24388
G1 X0.072 Y-7.38 E22.3895
G1 X0.199 Y-7.38 E22.39141
G1 X0.536 Y-7.358 E22.39649
G1 X0.845 Y-7.319 E22.40118
G1 X1.163 Y-7.256 E22.40606
G1 X1.272 Y-7.227 E22.40775
G1 X1.272 Y2.145 E22.54879
G1 X1.353 Y2.125 E22.55004
G1 X1.663 Y2.029 E22.55493
G1 X1.966 Y1.912 E22.55982
G1 X2.259 Y1.777 E22.56467
G1 X2.472 Y1.661 E22.56832
G1 X2.472 Y-6.741 E22.69476
G1 X2.63 Y-6.65 E22.6975
G1 X2.889 Y-6.477 E22.70219
G1 X3.155 Y-6.272 E22.70724
G1 X3.392 Y-6.062 E22.71201
G1 X3.625 Y-5.827 E22.71699
G1 X3.672 Y-5.772 E22.71808
G1 X3.672 Y0.689 E22.8153
G1 X3.749 Y0.605 E22.81702
G1 X3.955 Y0.347 E22.82199
G1 X4.134 Y0.088 E22.82672
G1 X4.306 Y-.198 E22.83175
G1 X4.448 Y-.474 E22.83642
G1 X4.575 Y-.769 E22.84125
G1 X4.686 Y-1.078 E22.84619
G1 X4.777 Y-1.418 E22.85149
G1 X4.836 Y-1.692 E22.85571
G1 X4.872 Y-1.937 E22.85943
G1 X4.872 Y-3.131 E22.8774
G0 F1200 X4.634 Y-3.104
;MESH:NONMESH
G0 X0.678 Y2.258
;TIME_ELAPSED:426.343057
;LAYER:19
;MESH:CylinderComplement.stl
G0 X0.678 Y2.258 Z3.9
;TYPE:FILL
G1 F300 X-.546 Y2.258 E22.89582
G1 X-.857 Y2.208 E22.90056
G1 X-1.177 Y2.134 E22.9055
G1 X-1.485 Y2.04 E22.91035
G1 X-1.773 Y1.932 E22.91498
G1 X-2.072 Y1.796 E22.91992
G1 X-2.363 Y1.639 E22.9249
G1 X-2.62 Y1.479 E22.92945
G1 X-2.883 Y1.289 E22.93433
G1 X-3.132 Y1.083 E22.9392
G1 X-3.16 Y1.057 E22.93977
G1 X3.304 Y1.058 E23.03705
G0 F1200 X3.306 Y1.057
G1 F300 X3.534 Y0.84 E23.04178
G1 X3.746 Y0.608 E23.04651
G1 X3.952 Y0.349 E23.05149
G1 X4.14 Y0.078 E23.05645
G1 X4.272 Y-.141 E23.0603
G1 X-4.13 Y-.142 E23.18674
G1 X-4.136 Y-.152 E23.18692
G1 X-4.286 Y-.437 E23.19176
G1 X-4.42 Y-.738 E23.19672
G1 X-4.524 Y-1.026 E23.20133
G1 X-4.618 Y-1.342 E23.20629
G1 X4.759 Y-1.341 E23.3474
G1 X4.771 Y-1.381 E23.34803
G1 X4.836 Y-1.683 E23.35268
G1 X4.881 Y-2.002 E23.35752
G1 X4.906 Y-2.32 E23.36232
G1 X4.908 Y-2.541 E23.36565
G1 X-4.766 Y-2.542 E23.51123
G1 X-4.767 Y-2.59 E23.51195
G1 X-4.753 Y-2.921 E23.51694
G1 X-4.716 Y-3.241 E23.52178
G1 X-4.659 Y-3.56 E23.52666
G1 X-4.613 Y-3.742 E23.52949
G1 X4.757 Y-3.741 E23.67049
G1 X4.712 Y-3.913 E23.67316
G1 X4.612 Y-4.219 E23.67801
G1 X4.501 Y-4.492 E23.68244
G1 X4.357 Y-4.79 E23.68742
G1 X4.271 Y-4.942 E23.69005
G1 X-4.127 Y-4.942 E23.81643
G1 X-4.074 Y-5.036 E23.81805
G1 X-3.899 Y-5.306 E23.8229
G1 X-3.711 Y-5.558 E23.82763
G1 X-3.5 Y-5.805 E23.83251
G1 X-3.286 Y-6.026 E23.83714
G1 X-3.156 Y-6.142 E23.83977
G1 X3.303 Y-6.142 E23.93696
G1 X3.152 Y-6.274 E23.93998
G1 X2.901 Y-6.467 E23.94475
G1 X2.633 Y-6.648 E23.94961
G1 X2.354 Y-6.808 E23.95445
G1 X2.08 Y-6.944 E23.95906
G1 X1.763 Y-7.077 E23.96423
G1 X1.478 Y-7.173 E23.96876
G1 X1.16 Y-7.258 E23.97371
G1 X0.848 Y-7.319 E23.97849
G0 F1200 X0.757 Y-7.33
G1 F300 X0.071 Y-7.342 E23.99914
G0 F1200 X-.494 Y-7.104
;MESH:NONMESH
G0 X-4.728 Y-1.933
;TIME_ELAPSED:441.574963
;LAYER:20
;MESH:CylinderComplement.stl
G0 X-4.728 Y-1.933 Z4.1
;TYPE:FILL
G1 F300 X-4.728 Y-3.133 E24.0172
G1 X-4.715 Y-3.245 E24.0189
G1 X-4.657 Y-3.571 E24.02388
G1 X-4.582 Y-3.871 E24.02853
G1 X-4.488 Y-4.162 E24.03314
G1 X-4.371 Y-4.46 E24.03795
G1 X-4.229 Y-4.759 E24.04293
G1 X-4.072 Y-5.04 E24.04778
G1 X-3.898 Y-5.309 E24.0526
G1 X-3.71 Y-5.561 E24.05733
G1 X-3.528 Y-5.775 E24.06156
G1 X-3.528 Y0.689 E24.15883
G1 X-3.37 Y0.86 E24.16233
G1 X-3.135 Y1.083 E24.16721
G1 X-2.887 Y1.288 E24.17205
G1 X-2.63 Y1.474 E24.17683
G1 X-2.355 Y1.645 E24.1817
G1 X-2.328 Y1.659 E24.18216
G1 X-2.328 Y-6.743 E24.30859
G1 X-2.252 Y-6.787 E24.30992
G1 X-1.949 Y-6.94 E24.31502
G1 X-1.668 Y-7.059 E24.31962
G1 X-1.373 Y-7.161 E24.32431
G1 X-1.128 Y-7.229 E24.32814
G1 X-1.128 Y2.145 E24.4692
G1 X-.862 Y2.207 E24.47331
G1 X-.547 Y2.258 E24.47812
G1 X-.238 Y2.289 E24.48279
G1 X0.072 Y2.297 E24.48746
G1 X0.072 Y-7.38 E24.63308
G1 X0.206 Y-7.38 E24.6351
G1 X0.54 Y-7.358 E24.64013
G1 X0.854 Y-7.317 E24.6449
G1 X1.164 Y-7.257 E24.64965
G1 X1.272 Y-7.228 E24.65133
G1 X1.272 Y2.144 E24.79237
G1 X1.364 Y2.122 E24.79379
G1 X1.657 Y2.031 E24.79841
G1 X1.953 Y1.918 E24.80317
G1 X2.253 Y1.78 E24.80814
G1 X2.472 Y1.661 E24.81189
G1 X2.472 Y-6.742 E24.93835
G1 X2.627 Y-6.653 E24.94104
G1 X2.902 Y-6.466 E24.94604
G1 X3.159 Y-6.27 E24.9509
G1 X3.388 Y-6.066 E24.95552
G1 X3.63 Y-5.822 E24.96069
G1 X3.672 Y-5.773 E24.96166
G1 X3.672 Y0.69 E25.05892
G1 X3.745 Y0.61 E25.06055
G1 X3.957 Y0.345 E25.06566
G1 X4.133 Y0.091 E25.07031
G1 X4.297 Y-.181 E25.07509
G1 X4.446 Y-.469 E25.07997
G1 X4.575 Y-.769 E25.08488
G1 X4.681 Y-1.062 E25.08957
G1 X4.767 Y-1.367 E25.09434
G1 X4.835 Y-1.686 E25.09925
G1 X4.872 Y-1.941 E25.10312
G1 X4.872 Y-3.133 E25.12106
G0 F1200 X4.634 Y-3.106
;MESH:NONMESH
G0 X0.681 Y2.258
;TIME_ELAPSED:456.918962
;LAYER:21
;MESH:CylinderComplement.stl
G0 X0.681 Y2.258 Z4.3
;TYPE:FILL
G1 F300 X-.545 Y2.258 E25.13951
G1 X-.555 Y2.257 E25.13966
G1 X-.861 Y2.207 E25.14433
G1 X-1.184 Y2.132 E25.14932
G1 X-1.491 Y2.038 E25.15415
G1 X-1.78 Y1.93 E25.15879
G1 X-2.078 Y1.793 E25.16373
G1 X-2.352 Y1.646 E25.16841
G1 X-2.637 Y1.468 E25.17346
G1 X-2.885 Y1.288 E25.17808
G1 X-3.141 Y1.075 E25.18309
G1 X-3.161 Y1.057 E25.18349
G1 X3.304 Y1.058 E25.28078
G1 X3.529 Y0.844 E25.28545
G1 X3.751 Y0.602 E25.2904
G1 X3.954 Y0.347 E25.2953
G1 X4.137 Y0.084 E25.30012
G1 X4.273 Y-.141 E25.30408
G1 X-4.13 Y-.142 E25.43053
G1 X-4.144 Y-.165 E25.43094
G1 X-4.289 Y-.442 E25.43564
G1 X-4.418 Y-.734 E25.44044
G1 X-4.529 Y-1.043 E25.44538
G1 X-4.617 Y-1.342 E25.45008
G1 X4.759 Y-1.341 E25.59117
G1 X4.766 Y-1.364 E25.59153
G1 X4.834 Y-1.682 E25.59642
G1 X4.882 Y-2.005 E25.60134
G1 X4.906 Y-2.303 E25.60584
G1 X4.908 Y-2.541 E25.60942
G1 X-4.766 Y-2.542 E25.755
G1 X-4.767 Y-2.596 E25.75581
G1 X-4.752 Y-2.926 E25.76078
G1 X-4.716 Y-3.244 E25.7656
G1 X-4.659 Y-3.561 E25.77044
G1 X-4.613 Y-3.742 E25.77326
G1 X4.757 Y-3.741 E25.91426
G1 X4.714 Y-3.906 E25.91683
G1 X4.615 Y-4.212 E25.92166
G1 X4.504 Y-4.486 E25.92611
G1 X4.36 Y-4.784 E25.93109
G1 X4.271 Y-4.942 E25.93382
G1 X-4.127 Y-4.942 E26.0602
G1 X-4.076 Y-5.032 E26.06176
G1 X-3.895 Y-5.312 E26.06677
G1 X-3.707 Y-5.563 E26.07149
G1 X-3.504 Y-5.801 E26.0762
G1 X-3.273 Y-6.038 E26.08118
G1 X-3.157 Y-6.142 E26.08353
G1 X3.301 Y-6.142 E26.18071
G1 X3.157 Y-6.269 E26.1836
G1 X2.906 Y-6.463 E26.18837
G1 X2.629 Y-6.651 E26.19341
G1 X2.37 Y-6.801 E26.19791
G1 X2.086 Y-6.941 E26.20268
G1 X1.769 Y-7.073 E26.20785
G1 X1.48 Y-7.172 E26.21244
G1 X1.167 Y-7.256 E26.21732
G1 X0.853 Y-7.318 E26.22214
G1 X0.664 Y-7.342 E26.225
G1 X-.525 Y-7.342 E26.2429
G0 F1200 X-.494 Y-7.104
;MESH:NONMESH
G0 X-4.728 Y-1.932
;TIME_ELAPSED:472.262876
;LAYER:22
;MESH:CylinderComplement.stl
G0 X-4.728 Y-1.932 Z4.5
;TYPE:FILL
G1 F300 X-4.728 Y-3.13 E26.26092
G1 X-4.714 Y-3.251 E26.26276
G1 X-4.657 Y-3.57 E26.26763
G1 X-4.58 Y-3.876 E26.27238
G1 X-4.485 Y-4.169 E26.27702
G1 X-4.359 Y-4.489 E26.28219
G1 X-4.219 Y-4.782 E26.28708
G1 X-4.078 Y-5.031 E26.29138
G1 X-3.896 Y-5.312 E26.29642
G1 X-3.706 Y-5.566 E26.3012
G1 X-3.528 Y-5.775 E26.30533
G1 X-3.528 Y0.69 E26.40262
G1 X-3.378 Y0.852 E26.40594
G1 X-3.142 Y1.078 E26.41086
G1 X-2.884 Y1.29 E26.41588
G1 X-2.644 Y1.464 E26.42034
G1 X-2.356 Y1.645 E26.42546
G1 X-2.328 Y1.66 E26.42594
G1 X-2.328 Y-6.743 E26.55239
G1 X-2.242 Y-6.793 E26.55389
G1 X-1.943 Y-6.942 E26.55891
G1 X-1.662 Y-7.061 E26.56351
G1 X-1.366 Y-7.163 E26.56822
G1 X-1.128 Y-7.229 E26.57193
G1 X-1.128 Y2.145 E26.713
G1 X-.867 Y2.206 E26.71703
G1 X-.554 Y2.257 E26.7218
G1 X-.245 Y2.288 E26.72648
G1 X0.072 Y2.297 E26.73125
G1 X0.072 Y-7.379 E26.87686
G1 X0.211 Y-7.379 E26.87895
G1 X0.546 Y-7.357 E26.884
G1 X0.861 Y-7.316 E26.88878
G1 X1.171 Y-7.255 E26.89354
G1 X1.272 Y-7.227 E26.89511
G1 X1.272 Y2.145 E27.03615
G1 X1.359 Y2.124 E27.0375
G1 X1.655 Y2.032 E27.04216
G1 X1.948 Y1.92 E27.04688
G1 X2.236 Y1.788 E27.05165
G1 X2.472 Y1.66 E27.05569
G1 X2.472 Y-6.741 E27.18211
G1 X2.644 Y-6.641 E27.1851
G1 X2.91 Y-6.461 E27.18994
G1 X3.161 Y-6.267 E27.19471
G1 X3.41 Y-6.046 E27.19972
G1 X3.626 Y-5.826 E27.20436
G1 X3.672 Y-5.773 E27.20542
G1 X3.672 Y0.689 E27.30266
G1 X3.74 Y0.614 E27.30418
G1 X3.952 Y0.351 E27.30927
G1 X4.131 Y0.094 E27.31398
G1 X4.294 Y-.177 E27.31874
G1 X4.444 Y-.465 E27.32363
G1 X4.57 Y-.756 E27.3284
G1 X4.681 Y-1.067 E27.33337
G1 X4.769 Y-1.374 E27.33817
G1 X4.834 Y-1.674 E27.34279
G1 X4.872 Y-1.932 E27.34672
G1 X4.872 Y-3.133 E27.36479
G0 F1200 X4.634 Y-3.108
;MESH:NONMESH
G0 X0.684 Y2.258
;TIME_ELAPSED:487.606512
;LAYER:23
;MESH:CylinderComplement.stl
G0 X0.684 Y2.258 Z4.7
;TYPE:FILL
G1 F300 X-.539 Y2.258 E27.38319
G1 X-.558 Y2.256 E27.38348
G1 X-.869 Y2.205 E27.38822
G1 X-1.193 Y2.129 E27.39323
G1 X-1.497 Y2.036 E27.39802
G1 X-1.792 Y1.925 E27.40276
G1 X-2.079 Y1.793 E27.40751
G1 X-2.376 Y1.633 E27.41259
G1 X-2.628 Y1.474 E27.41707
G1 X-2.89 Y1.284 E27.42194
G1 X-3.141 Y1.075 E27.42686
G1 X-3.16 Y1.057 E27.42725
G1 X3.303 Y1.058 E27.52451
G1 X3.525 Y0.848 E27.52911
G1 X3.746 Y0.607 E27.53403
G1 X3.943 Y0.362 E27.53876
G1 X4.13 Y0.094 E27.54368
G1 X4.273 Y-.141 E27.54782
G1 X-4.13 Y-.142 E27.67427
G1 X-4.141 Y-.161 E27.6746
G1 X-4.291 Y-.446 E27.67945
G1 X-4.42 Y-.74 E27.68428
G1 X-4.531 Y-1.049 E27.68922
G1 X-4.617 Y-1.342 E27.69381
G1 X4.759 Y-1.341 E27.83491
G1 X4.768 Y-1.369 E27.83535
G1 X4.833 Y-1.671 E27.84
G1 X4.881 Y-1.999 E27.84499
G1 X4.905 Y-2.295 E27.84946
G1 X4.908 Y-2.541 E27.85316
G1 X-4.766 Y-2.542 E27.99874
G1 X-4.767 Y-2.602 E27.99964
G1 X-4.751 Y-2.932 E28.00461
G1 X-4.715 Y-3.25 E28.00943
G1 X-4.658 Y-3.567 E28.01428
G1 X-4.613 Y-3.742 E28.017
G1 X4.757 Y-3.741 E28.158
G1 X4.716 Y-3.901 E28.16048
G1 X4.617 Y-4.206 E28.16531
G1 X4.507 Y-4.476 E28.1697
G1 X4.5 Y-4.494 E28.16999
G1 X4.357 Y-4.789 E28.17492
G1 X4.272 Y-4.942 E28.17756
G1 X-4.128 Y-4.942 E28.30396
G1 X-4.067 Y-5.049 E28.30582
G1 X-3.893 Y-5.315 E28.3106
G1 X-3.697 Y-5.576 E28.31551
G1 X-3.499 Y-5.806 E28.32008
G1 X-3.275 Y-6.035 E28.3249
G1 X-3.156 Y-6.142 E28.32731
G1 X3.301 Y-6.142 E28.42447
G1 X3.162 Y-6.265 E28.42727
G1 X2.901 Y-6.467 E28.43223
G1 X2.647 Y-6.638 E28.43684
G1 X2.358 Y-6.807 E28.44188
G1 X2.08 Y-6.944 E28.44654
G1 X1.787 Y-7.067 E28.45133
G1 X1.489 Y-7.169 E28.45607
G1 X1.169 Y-7.255 E28.46105
G1 X0.864 Y-7.316 E28.46573
G1 X0.664 Y-7.342 E28.46877
G1 X-.516 Y-7.342 E28.48653
G0 F1200 X-.484 Y-7.104
;MESH:NONMESH
G0 X-4.728 Y-1.933
;TIME_ELAPSED:502.949416
;LAYER:24
;MESH:CylinderComplement.stl
G0 X-4.728 Y-1.933 Z4.9
;TYPE:FILL
G1 F300 X-4.728 Y-3.131 E28.50455
G1 X-4.712 Y-3.267 E28.50661
G1 X-4.657 Y-3.572 E28.51128
G1 X-4.575 Y-3.892 E28.51625
G1 X-4.483 Y-4.175 E28.52073
G1 X-4.36 Y-4.484 E28.52573
G1 X-4.224 Y-4.771 E28.53051
G1 X-4.066 Y-5.052 E28.53536
G1 X-3.892 Y-5.318 E28.54015
G1 X-3.696 Y-5.579 E28.54506
G1 X-3.528 Y-5.774 E28.54893
G1 X-3.528 Y0.688 E28.64617
G1 X-3.378 Y0.85 E28.6495
G1 X-3.141 Y1.077 E28.65443
G1 X-2.904 Y1.275 E28.65908
G1 X-2.635 Y1.471 E28.66409
G1 X-2.379 Y1.632 E28.66864
G1 X-2.328 Y1.659 E28.66951
G1 X-2.328 Y-6.741 E28.79592
G1 X-2.235 Y-6.795 E28.79753
G1 X-1.937 Y-6.945 E28.80256
G1 X-1.662 Y-7.061 E28.80705
G1 X-1.349 Y-7.169 E28.81203
G1 X-1.128 Y-7.229 E28.81548
G1 X-1.128 Y2.144 E28.95652
G1 X-.87 Y2.205 E28.96051
G1 X-.562 Y2.256 E28.96521
G1 X-.249 Y2.288 E28.96995
G1 X0.072 Y2.297 E28.97478
G1 X0.072 Y-7.379 E29.12039
G1 X0.217 Y-7.379 E29.12257
G1 X0.555 Y-7.356 E29.12767
G1 X0.868 Y-7.315 E29.13242
G1 X1.173 Y-7.254 E29.1371
G1 X1.272 Y-7.227 E29.13864
G1 X1.272 Y2.146 E29.27969
G1 X1.341 Y2.129 E29.28076
G1 X1.648 Y2.033 E29.2856
G1 X1.951 Y1.919 E29.29047
G1 X2.228 Y1.792 E29.29506
G1 X2.472 Y1.661 E29.29923
G1 X2.472 Y-6.741 E29.42566
G1 X2.65 Y-6.637 E29.42877
G1 X2.913 Y-6.459 E29.43355
G1 X3.17 Y-6.26 E29.43844
G1 X3.405 Y-6.051 E29.44317
G1 X3.631 Y-5.82 E29.44803
G1 X3.672 Y-5.772 E29.44898
G1 X3.672 Y0.689 E29.54621
G1 X3.744 Y0.61 E29.54782
G1 X3.944 Y0.361 E29.55263
G1 X4.132 Y0.092 E29.55756
G1 X4.287 Y-.166 E29.56209
G1 X4.441 Y-.46 E29.56709
G1 X4.568 Y-.753 E29.57189
G1 X4.677 Y-1.053 E29.5767
G1 X4.767 Y-1.367 E29.58161
G1 X4.834 Y-1.674 E29.58634
G1 X4.872 Y-1.934 E29.5903
G1 X4.872 Y-3.135 E29.60837
G0 F1200 X4.634 Y-3.109
;MESH:NONMESH
G0 X0.688 Y2.258
;TIME_ELAPSED:518.292306
;LAYER:25
;MESH:CylinderComplement.stl
G0 X0.688 Y2.258 Z5.1
;TYPE:FILL
G1 F300 X-.536 Y2.258 E29.62679
G1 X-.565 Y2.255 E29.62723
G1 X-.872 Y2.204 E29.63191
G1 X-1.205 Y2.126 E29.63706
G1 X-1.496 Y2.036 E29.64164
G1 X-1.798 Y1.923 E29.64649
G1 X-2.091 Y1.787 E29.65135
G1 X-2.382 Y1.629 E29.65634
G1 X-2.639 Y1.467 E29.66091
G1 X-2.901 Y1.276 E29.66579
G1 X-3.15 Y1.067 E29.67068
G1 X-3.161 Y1.057 E29.6709
G1 X3.303 Y1.058 E29.76818
G1 X3.525 Y0.847 E29.77279
G1 X3.742 Y0.613 E29.77759
G1 X3.938 Y0.368 E29.78231
G1 X4.13 Y0.094 E29.78734
G1 X4.272 Y-.141 E29.79148
G1 X-4.13 Y-.142 E29.91791
G1 X-4.14 Y-.159 E29.91821
G1 X-4.295 Y-.455 E29.92324
G1 X-4.423 Y-.746 E29.92802
G1 X-4.529 Y-1.043 E29.93277
G1 X-4.617 Y-1.342 E29.93746
G1 X4.759 Y-1.341 E30.07855
G1 X4.766 Y-1.365 E30.07893
G1 X4.832 Y-1.665 E30.08355
G1 X4.88 Y-1.992 E30.08852
G1 X4.905 Y-2.291 E30.09304
G1 X4.909 Y-2.541 E30.0968
G1 X-4.765 Y-2.542 E30.24238
G1 X-4.766 Y-2.609 E30.24339
G1 X-4.75 Y-2.939 E30.24836
G1 X-4.714 Y-3.258 E30.25319
G1 X-4.656 Y-3.574 E30.25803
G1 X-4.613 Y-3.742 E30.26064
G1 X4.757 Y-3.741 E30.40164
G1 X4.718 Y-3.892 E30.40399
G1 X4.626 Y-4.177 E30.40849
G1 X4.504 Y-4.484 E30.41346
G1 X4.365 Y-4.775 E30.41832
G1 X4.271 Y-4.942 E30.4212
G1 X-4.127 Y-4.942 E30.54758
G1 X-4.063 Y-5.055 E30.54953
G1 X-3.889 Y-5.321 E30.55432
G1 X-3.692 Y-5.583 E30.55925
G1 X-3.495 Y-5.812 E30.56379
G1 X-3.262 Y-6.049 E30.5688
G1 X-3.157 Y-6.142 E30.57091
G1 X3.302 Y-6.142 E30.6681
G1 X3.172 Y-6.258 E30.67073
G1 X2.915 Y-6.457 E30.67562
G1 X2.652 Y-6.635 E30.6804
G1 X2.364 Y-6.804 E30.68542
G1 X2.078 Y-6.946 E30.69023
G1 X1.802 Y-7.062 E30.69473
G1 X1.496 Y-7.167 E30.6996
G1 X1.176 Y-7.253 E30.70459
G1 X0.873 Y-7.314 E30.70924
G0 F1200 X0.768 Y-7.328
G1 F300 X0.071 Y-7.342 E30.73022
G0 F1200 X-.489 Y-7.104
;MESH:NONMESH
G0 X-4.728 Y-1.935
;TIME_ELAPSED:533.523612
;LAYER:26
;MESH:CylinderComplement.stl
G0 X-4.728 Y-1.935 Z5.3
;TYPE:FILL
G1 F300 X-4.728 Y-3.138 E30.74832
G1 X-4.714 Y-3.261 E30.75019
G1 X-4.658 Y-3.565 E30.75484
G1 X-4.576 Y-3.889 E30.75987
G1 X-4.481 Y-4.181 E30.76449
G1 X-4.353 Y-4.502 E30.76969
G1 X-4.215 Y-4.787 E30.77445
G1 X-4.063 Y-5.057 E30.77912
G1 X-3.889 Y-5.323 E30.7839
G1 X-3.698 Y-5.576 E30.78867
G1 X-3.528 Y-5.773 E30.79259
G1 X-3.528 Y0.688 E30.88981
G1 X-3.38 Y0.85 E30.89312
G1 X-3.147 Y1.071 E30.89795
G1 X-2.904 Y1.275 E30.90272
G1 X-2.638 Y1.469 E30.90768
G1 X-2.354 Y1.646 E30.91271
G1 X-2.328 Y1.66 E30.91316
G1 X-2.328 Y-6.742 E31.03959
G1 X-2.218 Y-6.806 E31.04151
G1 X-1.941 Y-6.943 E31.04616
G1 X-1.648 Y-7.066 E31.05094
G1 X-1.343 Y-7.171 E31.0558
G1 X-1.128 Y-7.229 E31.05915
G1 X-1.128 Y2.145 E31.20021
G1 X-.88 Y2.203 E31.20404
G1 X-.569 Y2.255 E31.20879
G1 X-.256 Y2.287 E31.21352
G1 X0.072 Y2.298 E31.21846
G1 X0.072 Y-7.379 E31.36409
G1 X0.224 Y-7.379 E31.36637
G1 X0.561 Y-7.356 E31.37146
G1 X0.874 Y-7.314 E31.37621
G1 X1.193 Y-7.25 E31.38111
G1 X1.272 Y-7.228 E31.38234
G1 X1.272 Y2.145 E31.52339
G1 X1.345 Y2.127 E31.52452
G1 X1.63 Y2.041 E31.529
G1 X1.943 Y1.922 E31.53404
G1 X2.226 Y1.792 E31.53873
G1 X2.472 Y1.66 E31.54293
G1 X2.472 Y-6.74 E31.66933
G1 X2.649 Y-6.637 E31.67242
G1 X2.923 Y-6.452 E31.67739
G1 X3.172 Y-6.259 E31.68213
G1 X3.408 Y-6.048 E31.6869
G1 X3.642 Y-5.809 E31.69193
G1 X3.672 Y-5.774 E31.69262
G1 X3.672 Y0.689 E31.78988
G1 X3.742 Y0.613 E31.79144
G1 X3.938 Y0.371 E31.79612
G1 X4.117 Y0.115 E31.80082
G1 X4.293 Y-.176 E31.80594
G1 X4.44 Y-.457 E31.81071
G1 X4.566 Y-.747 E31.81547
G1 X4.676 Y-1.053 E31.82036
G1 X4.766 Y-1.363 E31.82522
G1 X4.831 Y-1.662 E31.82983
G1 X4.872 Y-1.938 E31.83402
G1 X4.872 Y-3.128 E31.85193
G0 F1200 X4.634 Y-3.103
;MESH:NONMESH
G0 X0.681 Y2.258
;TIME_ELAPSED:548.864727
;LAYER:27
;MESH:CylinderComplement.stl
G0 X0.681 Y2.258 Z5.5
;TYPE:FILL
G1 F300 X-.542 Y2.258 E31.87034
G1 X-.571 Y2.255 E31.87078
G1 X-.878 Y2.203 E31.87546
G1 X-1.211 Y2.125 E31.88061
G1 X-1.508 Y2.033 E31.88529
G1 X-1.795 Y1.923 E31.88991
G1 X-2.091 Y1.787 E31.89481
G1 X-2.357 Y1.643 E31.89937
G1 X-2.641 Y1.466 E31.9044
G1 X-2.906 Y1.272 E31.90934
G1 X-3.16 Y1.059 E31.91433
G0 F1200 X-3.163 Y1.057
G1 F300 X3.303 Y1.058 E32.01164
G1 X3.521 Y0.852 E32.01615
G1 X3.728 Y0.628 E32.02074
G1 X3.943 Y0.362 E32.02589
G1 X4.122 Y0.106 E32.03059
G1 X4.272 Y-.141 E32.03494
G1 X-4.13 Y-.142 E32.16137
G1 X-4.148 Y-.172 E32.1619
G1 X-4.3 Y-.467 E32.16689
G1 X-4.421 Y-.742 E32.17141
G1 X-4.536 Y-1.063 E32.17655
G1 X-4.617 Y-1.342 E32.18092
G1 X4.759 Y-1.341 E32.32201
G1 X4.765 Y-1.359 E32.3223
G1 X4.831 Y-1.658 E32.3269
G1 X4.88 Y-1.987 E32.33191
G1 X4.905 Y-2.285 E32.33641
G1 X4.909 Y-2.541 E32.34026
G1 X-4.765 Y-2.542 E32.48584
G1 X-4.766 Y-2.615 E32.48694
G1 X-4.751 Y-2.934 E32.49175
G1 X-4.711 Y-3.276 E32.49693
G1 X-4.657 Y-3.567 E32.50138
G1 X-4.612 Y-3.742 E32.5041
G1 X4.758 Y-3.741 E32.6451
G1 X4.72 Y-3.888 E32.64739
G1 X4.628 Y-4.172 E32.65188
G1 X4.506 Y-4.479 E32.65685
G1 X4.363 Y-4.781 E32.66188
G1 X4.272 Y-4.942 E32.66466
G1 X-4.127 Y-4.942 E32.79106
G1 X-4.06 Y-5.06 E32.7931
G1 X-3.886 Y-5.326 E32.79788
G1 X-3.695 Y-5.579 E32.80265
G1 X-3.484 Y-5.823 E32.80751
G1 X-3.258 Y-6.054 E32.81237
G1 X-3.158 Y-6.142 E32.81437
G1 X3.301 Y-6.142 E32.91157
G1 X3.173 Y-6.257 E32.91416
G1 X2.912 Y-6.459 E32.91913
G1 X2.656 Y-6.633 E32.92379
G1 X2.387 Y-6.792 E32.92849
G1 X2.083 Y-6.944 E32.9336
G1 X1.808 Y-7.06 E32.93809
G1 X1.496 Y-7.168 E32.94306
G1 X1.195 Y-7.249 E32.94775
G1 X0.876 Y-7.313 E32.95265
G1 X0.66 Y-7.342 E32.95593
G1 X-.52 Y-7.342 E32.97369
G0 F1200 X-.489 Y-7.104
;MESH:NONMESH
G0 X-4.728 Y-1.933
;TIME_ELAPSED:564.208426
;LAYER:28
;MESH:CylinderComplement.stl
G0 X-4.728 Y-1.933 Z5.7
;TYPE:FILL
G1 F300 X-4.728 Y-3.139 E32.99184
G1 X-4.713 Y-3.268 E32.99379
G1 X-4.653 Y-3.584 E32.99863
G1 X-4.574 Y-3.894 E33.00344
G1 X-4.476 Y-4.195 E33.00821
G1 X-4.355 Y-4.497 E33.0131
G1 X-4.223 Y-4.772 E33.01769
G1 X-4.059 Y-5.063 E33.02272
G1 X-3.892 Y-5.32 E33.02733
G1 X-3.7 Y-5.575 E33.03214
G1 X-3.528 Y-5.774 E33.03609
G1 X-3.528 Y0.688 E33.13334
G1 X-3.389 Y0.841 E33.13645
G1 X-3.151 Y1.068 E33.1414
G1 X-2.914 Y1.268 E33.14606
G1 X-2.645 Y1.464 E33.15107
G1 X-2.388 Y1.626 E33.15564
G1 X-2.328 Y1.658 E33.15667
G1 X-2.328 Y-6.742 E33.28307
G1 X-2.212 Y-6.809 E33.28509
G1 X-1.947 Y-6.94 E33.28954
G1 X-1.63 Y-7.072 E33.29471
G1 X-1.341 Y-7.171 E33.2993
G1 X-1.128 Y-7.229 E33.30263
G1 X-1.128 Y2.144 E33.44367
G1 X-.886 Y2.202 E33.44742
G1 X-.575 Y2.254 E33.45216
G1 X-.26 Y2.287 E33.45693
G1 X0.072 Y2.298 E33.46193
G1 X0.072 Y-7.379 E33.60755
G1 X0.229 Y-7.379 E33.60992
G1 X0.567 Y-7.355 E33.61502
G1 X0.88 Y-7.313 E33.61977
G1 X1.195 Y-7.25 E33.6246
G1 X1.272 Y-7.228 E33.62581
G1 X1.272 Y2.145 E33.76686
G1 X1.34 Y2.129 E33.76791
G1 X1.624 Y2.043 E33.77237
G1 X1.938 Y1.924 E33.77743
G1 X2.22 Y1.795 E33.78209
G1 X2.472 Y1.66 E33.78639
G1 X2.472 Y-6.742 E33.91283
G1 X2.67 Y-6.625 E33.91629
G1 X2.923 Y-6.453 E33.9209
G1 X3.17 Y-6.261 E33.9256
G1 X3.422 Y-6.034 E33.93071
G1 X3.647 Y-5.804 E33.93555
G1 X3.672 Y-5.774 E33.93614
G1 X3.672 Y0.691 E34.03343
G1 X3.731 Y0.627 E34.03474
G1 X3.929 Y0.382 E34.03948
G1 X4.123 Y0.105 E34.04456
G1 X4.29 Y-.17 E34.04941
G1 X4.435 Y-.448 E34.05412
G1 X4.562 Y-.739 E34.0589
G1 X4.671 Y-1.038 E34.06369
G1 X4.764 Y-1.356 E34.06868
G1 X4.83 Y-1.656 E34.0733
G1 X4.872 Y-1.937 E34.07758
G1 X4.872 Y-3.129 E34.09551
G0 F1200 X4.634 Y-3.103
;MESH:NONMESH
G0 X0.685 Y2.258
;TIME_ELAPSED:579.550946
;LAYER:29
;MESH:CylinderComplement.stl
G0 X0.685 Y2.258 Z5.9
;TYPE:FILL
G1 F300 X-.539 Y2.258 E34.11393
G1 X-.576 Y2.254 E34.11449
G1 X-.886 Y2.201 E34.11923
G1 X-1.217 Y2.123 E34.12434
G1 X-1.514 Y2.031 E34.12902
G1 X-1.814 Y1.916 E34.13386
G1 X-2.094 Y1.786 E34.1385
G1 X-2.384 Y1.627 E34.14348
G1 X-2.651 Y1.458 E34.14823
G1 X-2.911 Y1.268 E34.15308
G1 X-3.159 Y1.06 E34.15795
G0 F1200 X-3.163 Y1.057
G1 F300 X3.304 Y1.058 E34.25527
G1 X3.517 Y0.856 E34.25969
G1 X3.732 Y0.624 E34.26445
G1 X3.927 Y0.385 E34.26909
G1 X4.118 Y0.112 E34.2741
G1 X4.273 Y-.141 E34.27857
G1 X-4.13 Y-.142 E34.40502
G1 X-4.157 Y-.188 E34.40582
G1 X-4.299 Y-.464 E34.41049
G1 X-4.427 Y-.758 E34.41532
G1 X-4.538 Y-1.069 E34.42029
G1 X-4.616 Y-1.342 E34.42456
G1 X4.76 Y-1.341 E34.56565
G1 X4.763 Y-1.351 E34.56581
G1 X4.83 Y-1.653 E34.57047
G1 X4.879 Y-1.981 E34.57546
G1 X4.904 Y-2.277 E34.57993
G1 X4.909 Y-2.541 E34.5839
G1 X-4.765 Y-2.542 E34.72948
G1 X-4.766 Y-2.623 E34.7307
G1 X-4.75 Y-2.941 E34.73549
G1 X-4.71 Y-3.282 E34.74066
G1 X-4.656 Y-3.573 E34.74511
G1 X-4.612 Y-3.742 E34.74774
G1 X4.758 Y-3.741 E34.88874
G1 X4.724 Y-3.876 E34.89084
G1 X4.63 Y-4.166 E34.89543
G1 X4.504 Y-4.485 E34.90059
G1 X4.366 Y-4.776 E34.90543
G1 X4.273 Y-4.942 E34.9083
G1 X-4.127 Y-4.942 E35.0347
G1 X-4.064 Y-5.054 E35.03664
G1 X-3.882 Y-5.331 E35.04163
G1 X-3.692 Y-5.584 E35.04639
G1 X-3.487 Y-5.82 E35.05109
G1 X-3.245 Y-6.064 E35.05626
G1 X-3.156 Y-6.142 E35.05804
G1 X3.302 Y-6.142 E35.15523
G1 X3.172 Y-6.259 E35.15786
G1 X2.925 Y-6.451 E35.16257
G1 X2.666 Y-6.627 E35.16728
G1 X2.392 Y-6.789 E35.17207
G1 X2.089 Y-6.941 E35.17717
G1 X1.808 Y-7.06 E35.18176
G1 X1.502 Y-7.166 E35.18663
G1 X1.2 Y-7.248 E35.19134
G1 X0.872 Y-7.314 E35.19638
G1 X0.67 Y-7.342 E35.19945
G1 X-.516 Y-7.342 E35.21729
G0 F1200 X-.487 Y-7.104
;MESH:NONMESH
G0 X-4.728 Y-1.934
;TIME_ELAPSED:594.895242
;LAYER:30
;MESH:CylinderComplement.stl
G0 X-4.728 Y-1.934 Z6.1
;TYPE:FILL
G1 F300 X-4.728 Y-3.136 E35.23538
G1 X-4.712 Y-3.274 E35.23747
G1 X-4.652 Y-3.591 E35.24233
G1 X-4.572 Y-3.9 E35.24713
G1 X-4.476 Y-4.194 E35.25179
G1 X-4.348 Y-4.514 E35.25697
G1 X-4.215 Y-4.787 E35.26154
G1 X-4.051 Y-5.077 E35.26656
G1 X-3.879 Y-5.337 E35.27125
G1 X-3.696 Y-5.58 E35.27583
G1 X-3.528 Y-5.774 E35.27969
G1 X-3.528 Y0.689 E35.37695
G1 X-3.392 Y0.838 E35.37998
G1 X-3.159 Y1.061 E35.38483
G1 X-2.919 Y1.264 E35.38956
G1 X-2.654 Y1.457 E35.3945
G1 X-2.376 Y1.634 E35.39946
G1 X-2.328 Y1.66 E35.40028
G1 X-2.328 Y-6.742 E35.52672
G1 X-2.216 Y-6.806 E35.52866
G1 X-1.935 Y-6.944 E35.53337
G1 X-1.624 Y-7.074 E35.53844
G1 X-1.334 Y-7.173 E35.54305
G1 X-1.128 Y-7.229 E35.54626
G1 X-1.128 Y2.144 E35.68731
G1 X-.894 Y2.201 E35.69094
G1 X-.585 Y2.253 E35.69565
G1 X-.267 Y2.286 E35.70046
G1 X0.058 Y2.298 E35.70536
G1 X0.072 Y2.298 E35.70557
G1 X0.072 Y-7.379 E35.85119
G1 X0.237 Y-7.378 E35.85368
G1 X0.573 Y-7.354 E35.85874
G1 X0.88 Y-7.313 E35.86341
G1 X1.205 Y-7.247 E35.8684
G1 X1.272 Y-7.228 E35.86944
G1 X1.272 Y2.146 E36.01051
G1 X1.333 Y2.131 E36.01145
G1 X1.617 Y2.045 E36.01592
G1 X1.932 Y1.926 E36.02099
G1 X2.225 Y1.792 E36.02583
G1 X2.472 Y1.66 E36.03005
G1 X2.472 Y-6.742 E36.15649
G1 X2.667 Y-6.627 E36.15989
G1 X2.93 Y-6.448 E36.16468
G1 X3.18 Y-6.251 E36.16947
G1 X3.41 Y-6.046 E36.17411
G1 X3.651 Y-5.799 E36.1793
G1 X3.672 Y-5.774 E36.17979
G1 X3.672 Y0.69 E36.27706
G1 X3.73 Y0.627 E36.27835
G1 X3.925 Y0.388 E36.28299
G1 X4.116 Y0.116 E36.288
G1 X4.281 Y-.156 E36.29278
G1 X4.431 Y-.441 E36.29763
G1 X4.565 Y-.742 E36.30259
G1 X4.669 Y-1.032 E36.30722
G1 X4.762 Y-1.349 E36.3122
G1 X4.829 Y-1.651 E36.31685
G1 X4.872 Y-1.932 E36.32113
G1 X4.872 Y-3.13 E36.33916
G0 F1200 X4.634 Y-3.106
;MESH:NONMESH
G0 X0.689 Y2.258
;TIME_ELAPSED:610.238224
;LAYER:31
;MESH:CylinderComplement.stl
G0 X0.689 Y2.258 Z6.3
;TYPE:FILL
G1 F300 X-.535 Y2.258 E36.35758
G1 X-.582 Y2.253 E36.35829
G1 X-.892 Y2.2 E36.36302
G1 X-1.217 Y2.122 E36.36805
G1 X-1.514 Y2.03 E36.37273
G1 X-1.819 Y1.913 E36.37764
G1 X-2.101 Y1.783 E36.38232
G1 X-2.383 Y1.628 E36.38716
G1 X-2.667 Y1.447 E36.39223
G1 X-2.922 Y1.261 E36.39698
G1 X-3.159 Y1.061 E36.40164
G0 F1200 X-3.164 Y1.057
G1 F300 X3.302 Y1.058 E36.49895
G1 X3.512 Y0.861 E36.50328
G1 X3.728 Y0.629 E36.50805
G1 X3.923 Y0.39 E36.51269
G1 X4.118 Y0.112 E36.5178
G1 X4.273 Y-.141 E36.52227
G1 X-4.13 Y-.142 E36.64872
G1 X-4.149 Y-.175 E36.64929
G1 X-4.303 Y-.472 E36.65433
G1 X-4.434 Y-.773 E36.65927
G1 X-4.541 Y-1.074 E36.66407
G1 X-4.617 Y-1.342 E36.66827
G1 X4.761 Y-1.341 E36.80939
G0 F1200 X4.763 Y-1.347
G1 F300 X4.828 Y-1.644 E36.81397
G1 X4.878 Y-1.973 E36.81897
G1 X4.904 Y-2.272 E36.82349
G1 X4.909 Y-2.541 E36.82754
G1 X-4.765 Y-2.542 E36.97312
G1 X-4.766 Y-2.629 E36.97443
G1 X-4.75 Y-2.947 E36.97922
G1 X-4.711 Y-3.276 E36.9842
G1 X-4.651 Y-3.593 E36.98906
G1 X-4.612 Y-3.742 E36.99138
G1 X4.758 Y-3.741 E37.13238
G1 X4.724 Y-3.875 E37.13446
G1 X4.633 Y-4.159 E37.13895
G1 X4.511 Y-4.47 E37.14398
G1 X4.369 Y-4.77 E37.14897
G1 X4.272 Y-4.942 E37.15194
G1 X-4.126 Y-4.942 E37.27832
G1 X-4.048 Y-5.079 E37.28069
G1 X-3.876 Y-5.339 E37.28538
G1 X-3.693 Y-5.583 E37.28997
G1 X-3.483 Y-5.825 E37.29479
G1 X-3.24 Y-6.07 E37.29999
G1 X-3.158 Y-6.142 E37.30163
G1 X3.301 Y-6.142 E37.39883
G1 X3.185 Y-6.246 E37.40117
G1 X2.921 Y-6.453 E37.40622
G1 X2.671 Y-6.623 E37.41077
G1 X2.392 Y-6.789 E37.41566
G1 X2.095 Y-6.938 E37.42066
G1 X1.821 Y-7.054 E37.42513
G1 X1.502 Y-7.165 E37.43022
G1 X1.207 Y-7.246 E37.43482
G1 X0.885 Y-7.312 E37.43977
G1 X0.668 Y-7.342 E37.44306
G1 X-.521 Y-7.342 E37.46095
G0 F1200 X-.491 Y-7.104
;MESH:NONMESH
G0 X-4.728 Y-1.938
;TIME_ELAPSED:625.583719
;LAYER:32
;MESH:CylinderComplement.stl
G0 X-4.728 Y-1.938 Z6.5
;TYPE:FILL
G1 F300 X-4.728 Y-3.138 E37.47901
G1 X-4.711 Y-3.28 E37.48117
G1 X-4.651 Y-3.598 E37.48604
G1 X-4.571 Y-3.908 E37.49085
G1 X-4.467 Y-4.221 E37.49582
G1 X-4.356 Y-4.496 E37.50028
G1 X-4.212 Y-4.793 E37.50525
G1 X-4.061 Y-5.061 E37.50988
G1 X-3.875 Y-5.341 E37.51493
G1 X-3.69 Y-5.586 E37.51955
G1 X-3.528 Y-5.773 E37.52328
G1 X-3.528 Y0.689 E37.62052
G1 X-3.396 Y0.833 E37.62346
G1 X-3.167 Y1.054 E37.62825
G1 X-2.909 Y1.27 E37.63331
G1 X-2.664 Y1.45 E37.63789
G1 X-2.38 Y1.631 E37.64295
G1 X-2.328 Y1.659 E37.64384
G1 X-2.328 Y-6.741 E37.77025
G1 X-2.21 Y-6.809 E37.7723
G1 X-1.928 Y-6.947 E37.77702
G1 X-1.617 Y-7.077 E37.7821
G1 X-1.333 Y-7.174 E37.78661
G1 X-1.128 Y-7.228 E37.7898
G1 X-1.128 Y2.144 E37.93084
G1 X-.906 Y2.199 E37.93428
G1 X-.586 Y2.253 E37.93916
G1 X-.274 Y2.286 E37.94388
G1 X0.052 Y2.298 E37.94879
G1 X0.072 Y2.298 E37.94909
G1 X0.072 Y-7.379 E38.09472
G1 X0.244 Y-7.378 E38.09731
G1 X0.577 Y-7.355 E38.10233
G1 X0.889 Y-7.312 E38.10707
G1 X1.211 Y-7.246 E38.11202
G1 X1.272 Y-7.229 E38.11297
G1 X1.272 Y2.147 E38.25406
G1 X1.318 Y2.136 E38.25477
G1 X1.62 Y2.044 E38.25952
G1 X1.916 Y1.933 E38.26428
G1 X2.219 Y1.795 E38.26929
G1 X2.472 Y1.66 E38.27361
G1 X2.472 Y-6.742 E38.40004
G1 X2.666 Y-6.628 E38.40343
G1 X2.943 Y-6.437 E38.40849
G1 X3.185 Y-6.247 E38.41312
G1 X3.425 Y-6.031 E38.41798
G1 X3.656 Y-5.794 E38.42296
G1 X3.672 Y-5.775 E38.42334
G1 X3.672 Y0.691 E38.52064
G1 X3.726 Y0.632 E38.52184
G1 X3.921 Y0.393 E38.52649
G1 X4.116 Y0.115 E38.5316
G1 X4.278 Y-.149 E38.53626
G1 X4.434 Y-.444 E38.54128
G1 X4.554 Y-.717 E38.54577
G1 X4.671 Y-1.036 E38.55088
G1 X4.759 Y-1.334 E38.55556
G1 X4.828 Y-1.645 E38.56035
G1 X4.872 Y-1.931 E38.5647
G1 X4.872 Y-3.133 E38.58279
G0 F1200 X4.634 Y-3.109
;MESH:NONMESH
G0 X0.688 Y2.258
;TIME_ELAPSED:640.926521
;LAYER:33
;MESH:CylinderComplement.stl
G0 X0.688 Y2.258 Z6.7
;TYPE:FILL
G1 F300 X-.533 Y2.258 E38.60117
G1 X-.588 Y2.252 E38.602
G1 X-.912 Y2.197 E38.60694
G1 X-1.209 Y2.126 E38.61154
G1 X-1.525 Y2.026 E38.61653
G1 X-1.822 Y1.912 E38.62131
G1 X-2.123 Y1.771 E38.62632
G1 X-2.382 Y1.628 E38.63077
G1 X-2.667 Y1.448 E38.63584
G1 X-2.92 Y1.262 E38.64057
G1 X-3.163 Y1.057 E38.64535
G1 X3.306 Y1.058 E38.7427
G1 X3.496 Y0.876 E38.74666
G1 X3.731 Y0.626 E38.75182
G1 X3.92 Y0.393 E38.75634
G1 X4.116 Y0.116 E38.76144
G1 X4.274 Y-.141 E38.76598
G1 X-4.129 Y-.142 E38.89244
G1 X-4.152 Y-.181 E38.89312
G1 X-4.31 Y-.486 E38.89829
G1 X-4.431 Y-.77 E38.90293
G1 X-4.543 Y-1.081 E38.90791
G1 X-4.617 Y-1.342 E38.91199
G1 X4.76 Y-1.341 E39.0531
G1 X4.827 Y-1.64 E39.05771
G1 X4.877 Y-1.967 E39.06269
G1 X4.904 Y-2.266 E39.0672
G1 X4.909 Y-2.541 E39.07134
G1 X-4.765 Y-2.542 E39.21692
G1 X-4.766 Y-2.634 E39.21831
G1 X-4.749 Y-2.954 E39.22313
G1 X-4.71 Y-3.282 E39.2281
G1 X-4.65 Y-3.6 E39.23297
G1 X-4.613 Y-3.742 E39.23518
G1 X4.758 Y-3.741 E39.3762
G1 X4.73 Y-3.848 E39.37786
G1 X4.627 Y-4.176 E39.38303
G1 X4.519 Y-4.452 E39.38749
G1 X4.383 Y-4.741 E39.3923
G1 X4.272 Y-4.942 E39.39576
G1 X-4.127 Y-4.942 E39.52215
G1 X-4.051 Y-5.074 E39.52444
G1 X-3.873 Y-5.343 E39.52929
G1 X-3.687 Y-5.588 E39.53392
G1 X-3.471 Y-5.838 E39.53889
G1 X-3.243 Y-6.067 E39.54376
G1 X-3.157 Y-6.142 E39.54547
G1 X3.302 Y-6.142 E39.64267
G1 X3.187 Y-6.245 E39.645
G1 X2.946 Y-6.435 E39.64961
G1 X2.676 Y-6.621 E39.65455
G1 X2.398 Y-6.786 E39.65941
G1 X2.101 Y-6.935 E39.66441
G1 X1.824 Y-7.053 E39.66894
G1 X1.512 Y-7.162 E39.67392
G1 X1.212 Y-7.245 E39.6786
G1 X0.882 Y-7.313 E39.68367
G1 X0.676 Y-7.342 E39.6868
G1 X-.523 Y-7.342 E39.70485
G0 F1200 X-.494 Y-7.104
;MESH:NONMESH
G0 X-4.728 Y-1.938
;TIME_ELAPSED:656.273116
;LAYER:34
;MESH:CylinderComplement.stl
G0 X-4.728 Y-1.938 Z6.9
;TYPE:FILL
G1 F300 X-4.728 Y-3.134 E39.72284
G1 X-4.708 Y-3.301 E39.72537
G1 X-4.652 Y-3.591 E39.72982
G1 X-4.569 Y-3.914 E39.73484
G1 X-4.465 Y-4.227 E39.7398
G1 X-4.353 Y-4.502 E39.74427
G1 X-4.209 Y-4.799 E39.74924
G1 X-4.05 Y-5.077 E39.75406
G1 X-3.872 Y-5.346 E39.75891
G1 X-3.686 Y-5.591 E39.76354
G1 X-3.528 Y-5.774 E39.76718
G1 X-3.528 Y0.687 E39.86441
G1 X-3.395 Y0.834 E39.86739
G1 X-3.166 Y1.055 E39.87218
G1 X-2.928 Y1.256 E39.87687
G1 X-2.669 Y1.447 E39.88171
G1 X-2.385 Y1.628 E39.88678
G1 X-2.328 Y1.659 E39.88775
G1 X-2.328 Y-6.742 E40.01417
G1 X-2.195 Y-6.818 E40.01648
G1 X-1.925 Y-6.95 E40.021
G1 X-1.612 Y-7.079 E40.0261
G1 X-1.327 Y-7.176 E40.03063
G1 X-1.128 Y-7.229 E40.03373
G1 X-1.128 Y2.144 E40.17478
G1 X-.913 Y2.197 E40.17811
G1 X-.593 Y2.252 E40.18299
G1 X-.279 Y2.286 E40.18775
G1 X0.045 Y2.298 E40.19263
G1 X0.072 Y2.298 E40.19303
G1 X0.072 Y-7.379 E40.33866
G1 X0.262 Y-7.378 E40.34152
G1 X0.581 Y-7.355 E40.34633
G1 X0.885 Y-7.314 E40.35094
G1 X1.215 Y-7.243 E40.35602
G1 X1.272 Y-7.228 E40.35691
G1 X1.272 Y2.145 E40.49796
G1 X1.311 Y2.136 E40.49856
G1 X1.606 Y2.048 E40.50319
G1 X1.92 Y1.931 E40.50824
G1 X2.214 Y1.798 E40.51309
G1 X2.472 Y1.66 E40.5175
G1 X2.472 Y-6.742 E40.64393
G1 X2.681 Y-6.619 E40.64758
G1 X2.941 Y-6.439 E40.65234
G1 X3.182 Y-6.251 E40.65694
G1 X3.428 Y-6.029 E40.66193
G1 X3.652 Y-5.798 E40.66677
G1 X3.672 Y-5.774 E40.66724
G1 X3.672 Y0.69 E40.76451
G1 X3.729 Y0.629 E40.76577
G1 X3.923 Y0.39 E40.7704
G1 X4.115 Y0.119 E40.7754
G1 X4.275 Y-.143 E40.78002
G1 X4.428 Y-.431 E40.78493
G1 X4.554 Y-.717 E40.78963
G1 X4.669 Y-1.029 E40.79463
G1 X4.757 Y-1.327 E40.79931
G1 X4.827 Y-1.638 E40.80411
G1 X4.872 Y-1.931 E40.80857
G1 X4.872 Y-3.136 E40.8267
G0 F1200 X4.633 Y-3.113
;MESH:NONMESH
G0 X0.693 Y2.258
;TIME_ELAPSED:671.616185
;LAYER:35
;MESH:CylinderComplement.stl
G0 X0.693 Y2.258 Z7.1
;TYPE:FILL
G1 F300 X-.531 Y2.258 E40.84512
G1 X-.595 Y2.251 E40.84609
G1 X-.914 Y2.197 E40.85096
G1 X-1.22 Y2.123 E40.8557
G1 X-1.531 Y2.024 E40.86061
G1 X-1.83 Y1.908 E40.86543
G1 X-2.129 Y1.768 E40.8704
G1 X-2.388 Y1.625 E40.87485
G1 X-2.672 Y1.444 E40.87992
G1 X-2.925 Y1.257 E40.88466
G1 X-3.162 Y1.057 E40.88932
G1 X3.302 Y1.058 E40.9866
G1 X3.505 Y0.869 E40.99077
G1 X3.717 Y0.642 E40.99544
G1 X3.928 Y0.382 E41.00048
G1 X4.113 Y0.121 E41.0053
G1 X4.274 Y-.141 E41.00992
G1 X-4.13 Y-.142 E41.13639
G1 X-4.167 Y-.205 E41.13749
G1 X-4.304 Y-.473 E41.14202
G1 X-4.43 Y-.766 E41.14682
G1 X-4.533 Y-1.054 E41.15142
G1 X-4.616 Y-1.342 E41.15593
G1 X4.76 Y-1.341 E41.29703
G1 X4.826 Y-1.632 E41.30152
G1 X4.877 Y-1.962 E41.30654
G1 X4.903 Y-2.259 E41.31103
G1 X4.909 Y-2.541 E41.31527
G1 X-4.766 Y-2.542 E41.46087
G1 X-4.766 Y-2.642 E41.46237
G1 X-4.748 Y-2.975 E41.46739
G1 X-4.71 Y-3.289 E41.47215
G1 X-4.651 Y-3.593 E41.47681
G1 X-4.612 Y-3.742 E41.47913
G1 X4.758 Y-3.741 E41.62013
G1 X4.732 Y-3.842 E41.6217
G1 X4.629 Y-4.17 E41.62688
G1 X4.521 Y-4.446 E41.63134
G1 X4.386 Y-4.735 E41.63614
G1 X4.272 Y-4.942 E41.63969
G1 X-4.126 Y-4.942 E41.76607
G1 X-4.047 Y-5.079 E41.76845
G1 X-3.869 Y-5.349 E41.77331
G1 X-3.683 Y-5.593 E41.77793
G1 X-3.474 Y-5.834 E41.78273
G1 X-3.231 Y-6.079 E41.78792
G1 X-3.159 Y-6.142 E41.78936
G1 X3.303 Y-6.142 E41.88661
G1 X3.184 Y-6.249 E41.88902
G1 X2.943 Y-6.437 E41.89362
G1 X2.683 Y-6.617 E41.89837
G1 X2.406 Y-6.78 E41.90321
G1 X2.118 Y-6.927 E41.90808
G1 X1.823 Y-7.053 E41.9129
G1 X1.519 Y-7.16 E41.91775
G1 X1.219 Y-7.243 E41.92244
G1 X0.89 Y-7.311 E41.92749
G1 X0.673 Y-7.342 E41.93079
G1 X-.524 Y-7.342 E41.94881
G0 F1200 X-.496 Y-7.103
;MESH:NONMESH
G0 X-4.728 Y-1.934
;TIME_ELAPSED:686.963553
;LAYER:36
;MESH:CylinderComplement.stl
G0 X-4.728 Y-1.934 Z7.3
;TYPE:FILL
G1 F300 X-4.728 Y-3.143 E41.967
G1 X-4.708 Y-3.306 E41.96947
G1 X-4.652 Y-3.596 E41.97391
G1 X-4.568 Y-3.916 E41.97889
G1 X-4.463 Y-4.233 E41.98392
G1 X-4.351 Y-4.508 E41.98839
G1 X-4.205 Y-4.807 E41.99339
G1 X-4.047 Y-5.082 E41.99817
G1 X-3.863 Y-5.359 E42.00317
G1 X-3.679 Y-5.6 E42.00773
G1 X-3.528 Y-5.773 E42.01119
G1 X-3.528 Y0.688 E42.10842
G1 X-3.4 Y0.829 E42.11128
G1 X-3.171 Y1.05 E42.11607
G1 X-2.932 Y1.253 E42.12079
G1 X-2.675 Y1.443 E42.1256
G1 X-2.391 Y1.624 E42.13067
G1 X-2.328 Y1.658 E42.13175
G1 X-2.328 Y-6.743 E42.25817
G1 X-2.199 Y-6.817 E42.26041
G1 X-1.914 Y-6.956 E42.26518
G1 X-1.616 Y-7.078 E42.27002
G1 X-1.317 Y-7.178 E42.27477
G1 X-1.128 Y-7.228 E42.27771
G1 X-1.128 Y2.145 E42.41876
G1 X-.928 Y2.194 E42.42186
G1 X-.599 Y2.251 E42.42688
G1 X-.287 Y2.285 E42.43161
G1 X0.038 Y2.298 E42.4365
G1 X0.072 Y2.298 E42.43701
G1 X0.072 Y-7.379 E42.58264
G1 X0.268 Y-7.378 E42.58559
G1 X0.586 Y-7.354 E42.59038
G1 X0.891 Y-7.313 E42.59502
G1 X1.218 Y-7.243 E42.60005
G1 X1.272 Y-7.228 E42.60089
G1 X1.272 Y2.148 E42.74199
G1 X1.3 Y2.141 E42.74242
G1 X1.6 Y2.05 E42.74714
G1 X1.915 Y1.933 E42.75219
G1 X2.2 Y1.805 E42.7569
G1 X2.472 Y1.661 E42.76153
G1 X2.472 Y-6.741 E42.88796
G1 X2.68 Y-6.618 E42.8916
G1 X2.954 Y-6.429 E42.89661
G1 X3.205 Y-6.231 E42.90142
G1 X3.432 Y-6.025 E42.90603
G1 X3.664 Y-5.786 E42.91105
G1 X3.672 Y-5.776 E42.91124
G1 X3.672 Y0.69 E43.00854
G1 X3.713 Y0.646 E43.00945
G1 X3.921 Y0.392 E43.01439
G1 X4.11 Y0.125 E43.01931
G1 X4.272 Y-.136 E43.02393
G1 X4.424 Y-.425 E43.02885
G1 X4.547 Y-.703 E43.03342
G1 X4.667 Y-1.025 E43.03859
G1 X4.755 Y-1.321 E43.04324
G1 X4.825 Y-1.63 E43.04801
G1 X4.872 Y-1.933 E43.05262
G1 X4.872 Y-3.136 E43.07072
G0 F1200 X4.633 Y-3.111
;MESH:NONMESH
G0 X0.691 Y2.258
;TIME_ELAPSED:702.307456
;LAYER:37
;MESH:CylinderComplement.stl
G0 X0.691 Y2.258 Z7.5
;TYPE:FILL
G1 F300 X-.531 Y2.258 E43.08911
G1 X-.603 Y2.25 E43.0902
G1 X-.93 Y2.193 E43.0952
G1 X-1.221 Y2.123 E43.0997
G1 X-1.533 Y2.023 E43.10463
G1 X-1.837 Y1.906 E43.10953
G1 X-2.135 Y1.765 E43.1145
G1 X-2.398 Y1.62 E43.11902
G1 X-2.665 Y1.448 E43.12379
G1 X-2.93 Y1.253 E43.12875
G1 X-3.162 Y1.057 E43.13332
G1 X3.302 Y1.058 E43.23059
G1 X3.491 Y0.881 E43.23449
G1 X3.715 Y0.643 E43.2394
G1 X3.919 Y0.394 E43.24425
G1 X4.108 Y0.127 E43.24917
G1 X4.274 Y-.141 E43.25391
G1 X-4.129 Y-.142 E43.38037
G1 X-4.17 Y-.211 E43.38157
G1 X-4.307 Y-.478 E43.38609
G1 X-4.436 Y-.781 E43.39105
G1 X-4.546 Y-1.093 E43.39602
G1 X-4.615 Y-1.342 E43.39991
G1 X4.76 Y-1.341 E43.54099
G1 X4.825 Y-1.625 E43.54538
G1 X4.876 Y-1.955 E43.5504
G1 X4.903 Y-2.253 E43.5549
G1 X4.91 Y-2.541 E43.55924
G1 X-4.765 Y-2.542 E43.70483
G1 X-4.766 Y-2.648 E43.70643
G1 X-4.747 Y-2.981 E43.71145
G1 X-4.707 Y-3.308 E43.71641
G1 X-4.651 Y-3.598 E43.72085
G1 X-4.613 Y-3.742 E43.72309
G1 X4.759 Y-3.741 E43.86413
G1 X4.735 Y-3.835 E43.86559
G1 X4.631 Y-4.164 E43.87078
G1 X4.524 Y-4.44 E43.87523
G1 X4.384 Y-4.739 E43.8802
G1 X4.273 Y-4.942 E43.88368
G1 X-4.127 Y-4.942 E44.01009
G1 X-4.037 Y-5.099 E44.01281
G1 X-3.86 Y-5.362 E44.01758
G1 X-3.665 Y-5.616 E44.0224
G1 X-3.469 Y-5.84 E44.02688
G1 X-3.227 Y-6.083 E44.03204
G1 X-3.159 Y-6.142 E44.0334
G1 X3.303 Y-6.142 E44.13064
G1 X3.197 Y-6.238 E44.13279
G1 X2.955 Y-6.428 E44.13742
G1 X2.694 Y-6.609 E44.1422
G1 X2.408 Y-6.779 E44.14721
G1 X2.124 Y-6.924 E44.15201
G1 X1.836 Y-7.047 E44.15672
G1 X1.523 Y-7.158 E44.16172
G1 X1.22 Y-7.242 E44.16645
G1 X0.897 Y-7.311 E44.17142
G1 X0.679 Y-7.342 E44.17473
G1 X-.527 Y-7.342 E44.19288
G0 F1200 X-.499 Y-7.103
;MESH:NONMESH
G0 X-4.728 Y-1.934
;TIME_ELAPSED:717.655426
;LAYER:38
;MESH:CylinderComplement.stl
G0 X-4.728 Y-1.934 Z7.7
;TYPE:FILL
G1 F300 X-4.728 Y-3.143 E44.21107
G1 X-4.709 Y-3.3 E44.21345
G1 X-4.65 Y-3.602 E44.21808
G1 X-4.569 Y-3.913 E44.22292
G1 X-4.46 Y-4.24 E44.22811
G1 X-4.343 Y-4.525 E44.23274
G1 X-4.197 Y-4.822 E44.23772
G1 X-4.036 Y-5.102 E44.24258
G1 X-3.859 Y-5.365 E44.24736
G1 X-3.664 Y-5.619 E44.25217
G1 X-3.528 Y-5.775 E44.25529
G1 X-3.528 Y0.688 E44.35255
G1 X-3.404 Y0.825 E44.35533
G1 X-3.176 Y1.045 E44.3601
G1 X-2.934 Y1.251 E44.36488
G1 X-2.675 Y1.443 E44.36973
G1 X-2.408 Y1.615 E44.37451
G1 X-2.328 Y1.659 E44.37588
G1 X-2.328 Y-6.742 E44.5023
G1 X-2.193 Y-6.819 E44.50464
G1 X-1.901 Y-6.961 E44.50953
G1 X-1.613 Y-7.079 E44.51421
G1 X-1.306 Y-7.181 E44.51908
G1 X-1.128 Y-7.228 E44.52185
G1 X-1.128 Y2.145 E44.6629
G1 X-.93 Y2.194 E44.66597
G1 X-.607 Y2.25 E44.6709
G1 X-.289 Y2.285 E44.67572
G1 X0.032 Y2.298 E44.68055
G1 X0.072 Y2.298 E44.68115
G1 X0.072 Y-7.379 E44.82678
G1 X0.274 Y-7.377 E44.82982
G1 X0.592 Y-7.354 E44.83462
G1 X0.908 Y-7.309 E44.83942
G1 X1.219 Y-7.243 E44.8442
G1 X1.272 Y-7.228 E44.84503
G1 X1.272 Y2.148 E44.98613
G1 X1.292 Y2.143 E44.98644
G1 X1.603 Y2.049 E44.99133
G1 X1.91 Y1.936 E44.99625
G1 X2.192 Y1.81 E45.0009
G1 X2.472 Y1.661 E45.00567
G1 X2.472 Y-6.741 E45.13211
G1 X2.68 Y-6.617 E45.13575
G1 X2.959 Y-6.425 E45.14085
G1 X3.2 Y-6.235 E45.14547
G1 X3.445 Y-6.012 E45.15045
G1 X3.661 Y-5.787 E45.15515
G1 X3.672 Y-5.774 E45.1554
G1 X3.672 Y0.691 E45.25269
G1 X3.706 Y0.654 E45.25345
G1 X3.922 Y0.391 E45.25857
G1 X4.108 Y0.13 E45.26339
G1 X4.275 Y-.143 E45.26821
G1 X4.416 Y-.407 E45.27271
G1 X4.549 Y-.706 E45.27763
G1 X4.665 Y-1.019 E45.28266
G1 X4.755 Y-1.318 E45.28736
G1 X4.821 Y-1.615 E45.29194
G1 X4.872 Y-1.929 E45.29672
G1 X4.872 Y-3.139 E45.31493
G0 F1200 X4.633 Y-3.114
;MESH:NONMESH
G0 X0.686 Y2.258
;TIME_ELAPSED:733.001341
;LAYER:39
;MESH:CylinderComplement.stl
G0 X0.686 Y2.258 Z7.9
;TYPE:FILL
G1 F300 X-.539 Y2.258 E45.33337
G1 X-.604 Y2.251 E45.33435
G1 X-.934 Y2.193 E45.33939
G1 X-1.224 Y2.121 E45.34389
G1 X-1.552 Y2.017 E45.34907
G1 X-1.833 Y1.907 E45.35361
G1 X-2.132 Y1.766 E45.35858
G1 X-2.416 Y1.61 E45.36346
G1 X-2.67 Y1.445 E45.36802
G1 X-2.941 Y1.244 E45.37309
G1 X-3.162 Y1.057 E45.37745
G1 X3.303 Y1.058 E45.47474
G1 X3.487 Y0.886 E45.47853
G1 X3.711 Y0.648 E45.48345
G1 X3.92 Y0.393 E45.48841
G1 X4.106 Y0.133 E45.49322
G1 X4.275 Y-.141 E45.49806
G1 X-4.129 Y-.142 E45.62453
G1 X-4.167 Y-.208 E45.62568
G1 X-4.312 Y-.492 E45.63047
G1 X-4.441 Y-.791 E45.63538
G1 X-4.545 Y-1.089 E45.64012
G1 X-4.616 Y-1.342 E45.64408
G1 X4.759 Y-1.341 E45.78516
G1 X4.824 Y-1.623 E45.78951
G1 X4.875 Y-1.948 E45.79446
G1 X4.903 Y-2.248 E45.799
G1 X4.91 Y-2.541 E45.80341
G1 X-4.765 Y-2.542 E45.949
G1 X-4.766 Y-2.655 E45.9507
G1 X-4.747 Y-2.987 E45.95571
G1 X-4.708 Y-3.301 E45.96047
G1 X-4.647 Y-3.618 E45.96533
G1 X-4.614 Y-3.742 E45.96726
G1 X4.759 Y-3.741 E46.10831
G1 X4.737 Y-3.829 E46.10967
G1 X4.634 Y-4.158 E46.11486
G1 X4.517 Y-4.454 E46.11965
G1 X4.392 Y-4.724 E46.12413
G1 X4.272 Y-4.942 E46.12787
G1 X-4.128 Y-4.942 E46.25428
G1 X-4.042 Y-5.09 E46.25685
G1 X-3.864 Y-5.358 E46.2617
G1 X-3.672 Y-5.608 E46.26644
G1 X-3.45 Y-5.861 E46.2715
G1 X-3.232 Y-6.079 E46.27614
G1 X-3.159 Y-6.142 E46.27759
G1 X3.303 Y-6.142 E46.37484
G1 X3.204 Y-6.231 E46.37684
G1 X2.961 Y-6.423 E46.3815
G1 X2.682 Y-6.615 E46.3866
G1 X2.407 Y-6.78 E46.39142
G1 X2.14 Y-6.917 E46.39594
G1 X1.833 Y-7.049 E46.40097
G1 X1.534 Y-7.156 E46.40575
G1 X1.226 Y-7.241 E46.41056
G1 X0.907 Y-7.309 E46.41546
G1 X0.679 Y-7.342 E46.41893
G1 X-.509 Y-7.342 E46.43681
G0 F1200 X-.482 Y-7.105
;MESH:NONMESH
G0 X-4.728 Y-1.939
;TIME_ELAPSED:748.345925
;LAYER:40
;MESH:CylinderComplement.stl
G0 X-4.728 Y-1.939 Z8.1
;TYPE:FILL
G1 F300 X-4.728 Y-3.144 E46.45494
G1 X-4.708 Y-3.305 E46.45738
G1 X-4.649 Y-3.61 E46.46206
G1 X-4.567 Y-3.92 E46.46688
G1 X-4.457 Y-4.246 E46.47206
G1 X-4.339 Y-4.532 E46.47672
G1 X-4.199 Y-4.819 E46.48152
G1 X-4.041 Y-5.094 E46.4863
G1 X-3.863 Y-5.36 E46.49111
G1 X-3.667 Y-5.615 E46.49595
G1 X-3.528 Y-5.774 E46.49913
G1 X-3.528 Y0.688 E46.59637
G1 X-3.407 Y0.823 E46.5991
G1 X-3.177 Y1.046 E46.60392
G1 X-2.947 Y1.241 E46.60846
G1 X-2.676 Y1.444 E46.61355
G1 X-2.418 Y1.61 E46.61817
G1 X-2.328 Y1.659 E46.61971
G1 X-2.328 Y-6.741 E46.74612
G1 X-2.187 Y-6.822 E46.74857
G1 X-1.891 Y-6.966 E46.75352
G1 X-1.613 Y-7.079 E46.75804
G1 X-1.306 Y-7.181 E46.76291
G1 X-1.128 Y-7.228 E46.76568
G1 X-1.128 Y2.146 E46.90674
G1 X-.941 Y2.191 E46.90963
G1 X-.609 Y2.249 E46.91471
G1 X-.297 Y2.284 E46.91943
G1 X0.028 Y2.298 E46.92433
G1 X0.072 Y2.298 E46.92499
G1 X0.072 Y-7.379 E47.07061
G1 X0.282 Y-7.377 E47.07377
G1 X0.598 Y-7.353 E47.07854
G1 X0.906 Y-7.309 E47.08322
G1 X1.232 Y-7.24 E47.08824
G1 X1.272 Y-7.228 E47.08887
G1 X1.272 Y2.148 E47.22996
G1 X1.286 Y2.144 E47.23018
G1 X1.598 Y2.051 E47.23508
G1 X1.899 Y1.94 E47.23991
G1 X2.189 Y1.812 E47.24468
G1 X2.472 Y1.662 E47.2495
G1 X2.472 Y-6.743 E47.37598
G1 X2.703 Y-6.605 E47.38003
G1 X2.946 Y-6.435 E47.38449
G1 X3.205 Y-6.231 E47.38945
G1 X3.451 Y-6.007 E47.39446
G1 X3.669 Y-5.78 E47.39919
G0 F1200 X3.672 Y-5.776
G1 F300 X3.672 Y0.692 E47.49653
G1 X3.711 Y0.65 E47.49739
G1 X3.907 Y0.412 E47.50203
G1 X4.104 Y0.136 E47.50713
G1 X4.266 Y-.128 E47.51179
G1 X4.416 Y-.408 E47.51657
G1 X4.547 Y-.703 E47.52143
G1 X4.659 Y-.999 E47.52619
G1 X4.753 Y-1.311 E47.5311
G1 X4.82 Y-1.609 E47.53569
G1 X4.872 Y-1.929 E47.54057
G1 X4.872 Y-3.141 E47.55881
G0 F1200 X4.632 Y-3.118
;MESH:NONMESH
G0 X0.685 Y2.258
;TIME_ELAPSED:763.692268
;LAYER:41
;MESH:CylinderComplement.stl
G0 X0.685 Y2.258 Z8.3
;TYPE:FILL
G1 F300 X-.533 Y2.258 E47.57714
G1 X-.613 Y2.249 E47.57835
G1 X-.941 Y2.192 E47.58336
G1 X-1.231 Y2.119 E47.58786
G1 X-1.559 Y2.015 E47.59304
G1 X-1.831 Y1.908 E47.59744
G1 X-2.144 Y1.759 E47.60266
G1 X-2.421 Y1.607 E47.60741
G1 X-2.694 Y1.43 E47.61231
G1 X-2.938 Y1.248 E47.61689
G1 X-3.163 Y1.057 E47.62133
G1 X3.303 Y1.058 E47.71863
G1 X3.477 Y0.896 E47.72221
G1 X3.712 Y0.646 E47.72737
G1 X3.905 Y0.413 E47.73193
G1 X4.091 Y0.151 E47.73676
G1 X4.273 Y-.141 E47.74194
G1 X-4.129 Y-.142 E47.86838
G1 X-4.17 Y-.213 E47.86961
G1 X-4.315 Y-.498 E47.87442
G1 X-4.443 Y-.797 E47.87932
G1 X-4.547 Y-1.096 E47.88408
G1 X-4.615 Y-1.342 E47.88792
G1 X4.759 Y-1.341 E48.02898
G1 X4.819 Y-1.606 E48.03307
G1 X4.874 Y-1.943 E48.03821
G1 X4.902 Y-2.242 E48.04273
G1 X4.91 Y-2.541 E48.04723
G1 X-4.766 Y-2.542 E48.19284
G1 X-4.766 Y-2.659 E48.1946
G1 X-4.746 Y-2.993 E48.19964
G1 X-4.707 Y-3.307 E48.2044
G1 X-4.648 Y-3.612 E48.20907
G1 X-4.613 Y-3.742 E48.2111
G1 X4.759 Y-3.741 E48.35213
G1 X4.739 Y-3.823 E48.3534
G1 X4.636 Y-4.151 E48.35858
G1 X4.52 Y-4.448 E48.36337
G1 X4.396 Y-4.718 E48.36785
G1 X4.273 Y-4.942 E48.37169
G1 X-4.127 Y-4.942 E48.4981
G1 X-4.031 Y-5.108 E48.50098
G1 X-3.86 Y-5.363 E48.5056
G1 X-3.664 Y-5.618 E48.51044
G1 X-3.454 Y-5.856 E48.51522
G1 X-3.225 Y-6.084 E48.52008
G1 X-3.158 Y-6.142 E48.52142
G1 X3.302 Y-6.142 E48.61863
G1 X3.206 Y-6.229 E48.62058
G1 X2.948 Y-6.433 E48.62553
G1 X2.705 Y-6.603 E48.62999
G1 X2.418 Y-6.774 E48.63502
G1 X2.127 Y-6.922 E48.63993
G1 X1.839 Y-7.048 E48.64466
G1 X1.54 Y-7.154 E48.64944
G1 X1.227 Y-7.241 E48.65433
G1 X0.911 Y-7.309 E48.65919
G1 X0.678 Y-7.342 E48.66273
G1 X-.519 Y-7.342 E48.68074
G0 F1200 X-.491 Y-7.104
;MESH:NONMESH
G0 X-4.728 Y-1.939
;TIME_ELAPSED:779.037306
;LAYER:42
;MESH:CylinderComplement.stl
G0 X-4.728 Y-1.939 Z8.5
;TYPE:FILL
G1 F300 X-4.728 Y-3.144 E48.69888
G1 X-4.707 Y-3.313 E48.70144
G1 X-4.648 Y-3.615 E48.70607
G1 X-4.565 Y-3.926 E48.71091
G1 X-4.455 Y-4.251 E48.71608
G1 X-4.338 Y-4.537 E48.72073
G1 X-4.191 Y-4.831 E48.72567
G1 X-4.044 Y-5.089 E48.73014
G1 X-3.859 Y-5.365 E48.73514
G1 X-3.663 Y-5.62 E48.73998
G1 X-3.528 Y-5.773 E48.74305
G1 X-3.528 Y0.689 E48.8403
G1 X-3.417 Y0.812 E48.84279
G1 X-3.181 Y1.043 E48.84776
G1 X-2.952 Y1.237 E48.85228
G1 X-2.681 Y1.44 E48.85737
G1 X-2.428 Y1.603 E48.8619
G1 X-2.328 Y1.658 E48.86362
G1 X-2.328 Y-6.742 E48.99002
G1 X-2.182 Y-6.825 E48.99255
G1 X-1.892 Y-6.966 E48.9974
G1 X-1.603 Y-7.084 E49.0021
G1 X-1.302 Y-7.182 E49.00687
G1 X-1.128 Y-7.228 E49.00957
G1 X-1.128 Y2.146 E49.15064
G1 X-.944 Y2.191 E49.15349
G1 X-.617 Y2.249 E49.15849
G1 X-.304 Y2.284 E49.16323
G1 X0.022 Y2.298 E49.16814
G1 X0.072 Y2.297 E49.16889
G1 X0.072 Y-7.379 E49.3145
G1 X0.289 Y-7.377 E49.31776
G1 X0.604 Y-7.353 E49.32252
G1 X0.916 Y-7.308 E49.32726
G1 X1.231 Y-7.24 E49.33211
G1 X1.272 Y-7.228 E49.33275
G1 X1.272 Y2.148 E49.47385
G1 X1.289 Y2.144 E49.47411
G1 X1.585 Y2.057 E49.47875
G1 X1.893 Y1.943 E49.4837
G1 X2.19 Y1.812 E49.48858
G1 X2.472 Y1.662 E49.49339
G1 X2.472 Y-6.742 E49.61985
G1 X2.699 Y-6.606 E49.62384
G1 X2.96 Y-6.426 E49.62861
G1 X3.21 Y-6.227 E49.63342
G1 X3.456 Y-6.002 E49.63843
G1 X3.672 Y-5.777 E49.64313
G1 X3.672 Y0.69 E49.74044
G1 X3.705 Y0.654 E49.74118
G1 X3.912 Y0.406 E49.74604
G1 X4.094 Y0.15 E49.75077
G1 X4.263 Y-.123 E49.7556
G1 X4.415 Y-.406 E49.76043
G1 X4.55 Y-.706 E49.76538
G1 X4.662 Y-1.005 E49.77019
G1 X4.747 Y-1.29 E49.77466
G1 X4.821 Y-1.612 E49.77964
G1 X4.872 Y-1.928 E49.78445
G1 X4.872 Y-3.143 E49.80274
G0 F1200 X4.633 Y-3.119
;MESH:NONMESH
G0 X0.688 Y2.258
;TIME_ELAPSED:794.382589
;LAYER:43
;MESH:CylinderComplement.stl
G0 X0.688 Y2.258 Z8.7
;TYPE:FILL
G1 F300 X-.538 Y2.258 E49.82119
G1 X-.626 Y2.248 E49.82252
G1 X-.942 Y2.191 E49.82735
G1 X-1.248 Y2.117 E49.83209
G1 X-1.553 Y2.017 E49.83692
G1 X-1.848 Y1.902 E49.84168
G1 X-2.144 Y1.76 E49.84662
G1 X-2.419 Y1.609 E49.85134
G1 X-2.691 Y1.431 E49.85624
G1 X-2.942 Y1.244 E49.86095
G1 X-3.162 Y1.057 E49.86529
G1 X3.302 Y1.058 E49.96256
G1 X3.489 Y0.884 E49.96641
G1 X3.704 Y0.657 E49.97111
G1 X3.901 Y0.418 E49.97577
G1 X4.098 Y0.143 E49.98086
G1 X4.26 Y-.117 E49.98547
G1 X4.272 Y-.141 E49.98588
G1 X-4.129 Y-.142 E50.1123
G1 X-4.173 Y-.217 E50.11361
G1 X-4.322 Y-.514 E50.11861
G1 X-4.44 Y-.791 E50.12314
G1 X-4.552 Y-1.111 E50.12824
G1 X-4.616 Y-1.342 E50.13185
G1 X4.758 Y-1.341 E50.27291
G1 X4.823 Y-1.621 E50.27724
G1 X4.872 Y-1.926 E50.28189
G1 X4.902 Y-2.235 E50.28656
G1 X4.911 Y-2.541 E50.29117
G1 X-4.765 Y-2.542 E50.43678
G1 X-4.765 Y-2.668 E50.43867
G1 X-4.746 Y-3.001 E50.44369
G1 X-4.706 Y-3.315 E50.44845
G1 X-4.647 Y-3.617 E50.45308
G1 X-4.613 Y-3.742 E50.45503
G1 X4.759 Y-3.741 E50.59607
G1 X4.738 Y-3.826 E50.59739
G1 X4.642 Y-4.133 E50.60223
G1 X4.527 Y-4.431 E50.60703
G1 X4.387 Y-4.735 E50.61207
G1 X4.274 Y-4.942 E50.61562
G1 X-4.127 Y-4.942 E50.74204
G1 X-4.035 Y-5.101 E50.7448
G1 X-3.856 Y-5.368 E50.74964
G1 X-3.66 Y-5.623 E50.75448
G1 X-3.45 Y-5.861 E50.75926
G1 X-3.221 Y-6.089 E50.76412
G1 X-3.16 Y-6.142 E50.76534
G1 X3.302 Y-6.142 E50.86258
G1 X3.211 Y-6.225 E50.86443
G1 X2.961 Y-6.424 E50.86924
G1 X2.694 Y-6.609 E50.87413
G1 X2.427 Y-6.771 E50.87883
G1 X2.152 Y-6.912 E50.88348
G1 X1.837 Y-7.048 E50.88864
G1 X1.558 Y-7.149 E50.89311
G1 X1.261 Y-7.234 E50.89776
G1 X0.931 Y-7.306 E50.90284
G1 X0.683 Y-7.342 E50.90661
G1 X-.518 Y-7.342 E50.92468
G0 F1200 X-.49 Y-7.104
;MESH:NONMESH
G0 X-4.728 Y-1.938
;TIME_ELAPSED:809.727913
;LAYER:44
;MESH:CylinderComplement.stl
G0 X-4.728 Y-1.938 Z8.9
;TYPE:FILL
G1 F300 X-4.728 Y-3.142 E50.9428
G1 X-4.705 Y-3.317 E50.94546
G1 X-4.643 Y-3.634 E50.95032
G1 X-4.557 Y-3.954 E50.95531
G1 X-4.462 Y-4.235 E50.95977
G1 X-4.33 Y-4.553 E50.96495
G1 X-4.192 Y-4.83 E50.96961
G1 X-4.034 Y-5.104 E50.97437
G1 X-3.853 Y-5.372 E50.97923
G1 X-3.659 Y-5.624 E50.98402
G1 X-3.528 Y-5.772 E50.98699
G1 X-3.528 Y0.688 E51.08421
G1 X-3.414 Y0.814 E51.08676
G1 X-3.195 Y1.029 E51.09138
G1 X-2.944 Y1.243 E51.09635
G1 X-2.695 Y1.43 E51.10103
G1 X-2.425 Y1.604 E51.10587
G1 X-2.328 Y1.658 E51.10754
G1 X-2.328 Y-6.742 E51.23394
G1 X-2.176 Y-6.828 E51.23657
G1 X-1.879 Y-6.972 E51.24154
G1 X-1.602 Y-7.084 E51.24604
G1 X-1.296 Y-7.184 E51.25088
G1 X-1.128 Y-7.228 E51.25349
G1 X-1.128 Y2.145 E51.39454
G1 X-.939 Y2.193 E51.39748
G1 X-.632 Y2.248 E51.40217
G1 X-.312 Y2.282 E51.40701
G1 X0.016 Y2.298 E51.41195
G1 X0.072 Y2.297 E51.4128
G1 X0.072 Y-7.379 E51.55841
G1 X0.292 Y-7.377 E51.56172
G1 X0.609 Y-7.352 E51.5665
G1 X0.922 Y-7.307 E51.57126
G1 X1.198 Y-7.247 E51.57551
G1 X1.272 Y-7.23 E51.57665
G1 X1.272 Y2.148 E51.71778
G1 X1.587 Y2.055 E51.72272
G1 X1.887 Y1.946 E51.72752
G1 X2.177 Y1.817 E51.7323
G1 X2.472 Y1.662 E51.73732
G1 X2.472 Y-6.744 E51.86381
G1 X2.706 Y-6.603 E51.86792
G1 X2.956 Y-6.429 E51.87251
G1 X3.215 Y-6.223 E51.87749
G1 X3.461 Y-5.998 E51.8825
G1 X3.666 Y-5.784 E51.88696
G1 X3.672 Y-5.776 E51.88711
G1 X3.672 Y0.691 E51.98443
G1 X3.698 Y0.663 E51.98501
G1 X3.899 Y0.421 E51.98974
G1 X4.09 Y0.154 E51.99468
G1 X4.265 Y-.125 E51.99964
G1 X4.418 Y-.409 E52.00449
G1 X4.538 Y-.678 E52.00892
G1 X4.659 Y-1 E52.0141
G1 X4.748 Y-1.293 E52.01871
G1 X4.82 Y-1.606 E52.02354
G1 X4.872 Y-1.933 E52.02853
G1 X4.872 Y-3.144 E52.04675
G0 F1200 X4.633 Y-3.12
;MESH:NONMESH
G0 X0.688 Y2.258
;TIME_ELAPSED:825.074190
;LAYER:45
;MESH:CylinderComplement.stl
G0 X0.688 Y2.258 Z9.1
;TYPE:FILL
G1 F300 X-.533 Y2.258 E52.06512
G1 X-.633 Y2.247 E52.06664
G1 X-.941 Y2.192 E52.07135
G1 X-1.259 Y2.112 E52.07628
G1 X-1.557 Y2.015 E52.081
G1 X-1.854 Y1.899 E52.08579
G1 X-2.148 Y1.758 E52.0907
G1 X-2.428 Y1.601 E52.09553
G1 X-2.697 Y1.427 E52.10035
G1 X-2.948 Y1.239 E52.10507
G1 X-3.162 Y1.057 E52.1093
G1 X3.302 Y1.058 E52.20657
G1 X3.486 Y0.888 E52.21034
G1 X3.7 Y0.662 E52.21503
G1 X3.897 Y0.423 E52.21969
G1 X4.088 Y0.156 E52.22463
G1 X4.263 Y-.121 E52.22956
G1 X4.273 Y-.141 E52.22989
G1 X-4.129 Y-.142 E52.35633
G1 X-4.182 Y-.233 E52.35792
G1 X-4.326 Y-.52 E52.36275
G1 X-4.443 Y-.797 E52.36727
G1 X-4.551 Y-1.11 E52.37226
G1 X-4.616 Y-1.342 E52.37588
G1 X4.759 Y-1.341 E52.51696
G1 X4.822 Y-1.613 E52.52116
G1 X4.871 Y-1.918 E52.52581
G1 X4.902 Y-2.229 E52.53051
G1 X4.911 Y-2.541 E52.53521
G1 X-4.765 Y-2.542 E52.68082
G1 X-4.765 Y-2.674 E52.68281
G1 X-4.745 Y-3.006 E52.68781
G1 X-4.704 Y-3.32 E52.69258
G1 X-4.642 Y-3.636 E52.69742
G1 X-4.613 Y-3.742 E52.69908
G1 X4.759 Y-3.741 E52.84011
G1 X4.742 Y-3.811 E52.84119
G1 X4.644 Y-4.128 E52.84619
G1 X4.527 Y-4.429 E52.85105
G1 X4.389 Y-4.731 E52.85604
G1 X4.273 Y-4.942 E52.85967
G1 X-4.128 Y-4.942 E52.98609
G1 X-4.037 Y-5.098 E52.98881
G1 X-3.85 Y-5.375 E52.99384
G1 X-3.656 Y-5.626 E52.99861
G1 X-3.445 Y-5.866 E53.00342
G1 X-3.208 Y-6.102 E53.00845
G1 X-3.161 Y-6.142 E53.00938
G1 X3.304 Y-6.142 E53.10667
G1 X3.226 Y-6.213 E53.10826
G1 X2.958 Y-6.427 E53.11342
G1 X2.708 Y-6.601 E53.118
G1 X2.433 Y-6.768 E53.12284
G1 X2.146 Y-6.915 E53.1277
G1 X1.856 Y-7.041 E53.13245
G1 X1.539 Y-7.155 E53.13752
G1 X1.239 Y-7.239 E53.14221
G1 X0.937 Y-7.305 E53.14686
G1 X0.687 Y-7.342 E53.15067
G1 X-.516 Y-7.342 E53.16877
G0 F1200 X-.489 Y-7.104
;MESH:NONMESH
G0 X-4.728 Y-1.943
;TIME_ELAPSED:840.420300
;LAYER:46
;MESH:CylinderComplement.stl
G0 X-4.728 Y-1.943 Z9.3
;TYPE:FILL
G1 F300 X-4.728 Y-3.145 E53.18686
G1 X-4.705 Y-3.325 E53.18959
G1 X-4.643 Y-3.638 E53.19439
G1 X-4.56 Y-3.946 E53.19919
G1 X-4.46 Y-4.241 E53.20388
G1 X-4.327 Y-4.558 E53.20905
G1 X-4.189 Y-4.836 E53.21372
G1 X-4.031 Y-5.11 E53.21848
G1 X-3.85 Y-5.377 E53.22333
G1 X-3.655 Y-5.629 E53.22813
G1 X-3.528 Y-5.773 E53.23102
G1 X-3.528 Y0.688 E53.32825
G1 X-3.42 Y0.809 E53.33069
G1 X-3.192 Y1.032 E53.33549
G1 X-2.958 Y1.233 E53.34013
G1 X-2.689 Y1.434 E53.34518
G1 X-2.441 Y1.596 E53.34964
G1 X-2.328 Y1.659 E53.35159
G1 X-2.328 Y-6.742 E53.47801
G1 X-2.165 Y-6.834 E53.48083
G1 X-1.876 Y-6.973 E53.48565
G1 X-1.596 Y-7.086 E53.4902
G1 X-1.29 Y-7.186 E53.49504
G1 X-1.128 Y-7.228 E53.49756
G1 X-1.128 Y2.144 E53.63859
G1 X-.944 Y2.192 E53.64145
G1 X-.637 Y2.247 E53.64615
G1 X-.318 Y2.282 E53.65098
G1 X0.009 Y2.298 E53.6559
G1 X0.072 Y2.297 E53.65685
G1 X0.072 Y-7.38 E53.80248
G1 X0.3 Y-7.376 E53.80591
G1 X0.616 Y-7.351 E53.81068
G1 X0.941 Y-7.304 E53.81562
G1 X1.243 Y-7.238 E53.82027
G1 X1.272 Y-7.229 E53.82073
G1 X1.272 Y2.148 E53.96184
G1 X1.585 Y2.056 E53.96675
G1 X1.878 Y1.95 E53.97144
G1 X2.17 Y1.82 E53.97625
G1 X2.472 Y1.661 E53.98138
G1 X2.472 Y-6.744 E54.10786
G1 X2.707 Y-6.602 E54.112
G1 X2.979 Y-6.411 E54.117
G1 X3.23 Y-6.21 E54.12184
G1 X3.465 Y-5.994 E54.12664
G1 X3.672 Y-5.776 E54.13116
G1 X3.672 Y0.693 E54.22851
G1 X3.698 Y0.665 E54.22909
G1 X3.903 Y0.416 E54.23394
G1 X4.079 Y0.171 E54.23848
G1 X4.257 Y-.113 E54.24352
G1 X4.414 Y-.403 E54.24849
G1 X4.54 Y-.681 E54.25308
G1 X4.657 Y-.994 E54.25811
G1 X4.746 Y-1.287 E54.26272
G1 X4.821 Y-1.611 E54.26772
G1 X4.872 Y-1.928 E54.27255
G1 X4.872 Y-3.146 E54.29088
G0 F1200 X4.633 Y-3.123
;MESH:NONMESH
G0 X0.687 Y2.258
;TIME_ELAPSED:855.767358
;LAYER:47
;MESH:CylinderComplement.stl
G0 X0.687 Y2.258 Z9.5
;TYPE:FILL
G1 F300 X-.534 Y2.258 E54.30926
G1 X-.641 Y2.246 E54.31088
G1 X-.947 Y2.191 E54.31555
G1 X-1.265 Y2.111 E54.32049
G1 X-1.562 Y2.014 E54.32519
G1 X-1.867 Y1.892 E54.33013
G1 X-2.151 Y1.757 E54.33487
G1 X-2.431 Y1.599 E54.3397
G1 X-2.704 Y1.424 E54.34458
G1 X-2.952 Y1.236 E54.34927
G1 X-3.161 Y1.057 E54.35341
G1 X3.302 Y1.058 E54.45067
G1 X3.482 Y0.892 E54.45435
G1 X3.695 Y0.667 E54.45901
G1 X3.898 Y0.422 E54.4638
G1 X4.091 Y0.154 E54.46877
G1 X4.254 Y-.105 E54.47338
G1 X4.273 Y-.141 E54.47399
G1 X-4.129 Y-.142 E54.60043
G1 X-4.185 Y-.239 E54.60211
G1 X-4.329 Y-.526 E54.60694
G1 X-4.445 Y-.801 E54.61143
G1 X-4.55 Y-1.106 E54.61629
G1 X-4.616 Y-1.342 E54.61998
G1 X4.757 Y-1.341 E54.76103
G1 X4.821 Y-1.609 E54.76517
G1 X4.87 Y-1.912 E54.76979
G1 X4.901 Y-2.223 E54.77449
G1 X4.911 Y-2.541 E54.77928
G1 X-4.765 Y-2.542 E54.92489
G1 X-4.765 Y-2.68 E54.92697
G1 X-4.745 Y-3.012 E54.93197
G1 X-4.703 Y-3.326 E54.93674
G1 X-4.642 Y-3.64 E54.94155
G1 X-4.614 Y-3.742 E54.94314
G1 X4.758 Y-3.741 E55.08418
G1 X4.737 Y-3.827 E55.08551
G1 X4.647 Y-4.12 E55.09012
G1 X4.53 Y-4.423 E55.09501
G1 X4.398 Y-4.712 E55.09979
G1 X4.273 Y-4.942 E55.10373
G1 X-4.129 Y-4.942 E55.23017
G1 X-4.035 Y-5.103 E55.23297
G1 X-3.845 Y-5.383 E55.23807
G1 X-3.651 Y-5.633 E55.24283
G1 X-3.447 Y-5.863 E55.24745
G1 X-3.203 Y-6.105 E55.25263
G1 X-3.16 Y-6.142 E55.25348
G1 X3.302 Y-6.142 E55.35072
G1 X3.221 Y-6.216 E55.35237
G1 X2.977 Y-6.412 E55.35708
G1 X2.713 Y-6.597 E55.36194
G1 X2.437 Y-6.765 E55.3668
G1 X2.151 Y-6.912 E55.37164
G1 X1.857 Y-7.042 E55.37647
G1 X1.557 Y-7.15 E55.38127
G1 X1.251 Y-7.236 E55.38606
G1 X0.943 Y-7.304 E55.3908
G1 X0.686 Y-7.342 E55.39471
G1 X-.516 Y-7.342 E55.4128
G0 F1200 X-.489 Y-7.105
;MESH:NONMESH
G0 X-4.728 Y-1.942
;TIME_ELAPSED:871.112145
;LAYER:48
;MESH:CylinderComplement.stl
G0 X-4.728 Y-1.942 Z9.7
;TYPE:FILL
G1 F300 X-4.728 Y-3.144 E55.43089
G1 X-4.703 Y-3.331 E55.43373
G1 X-4.641 Y-3.645 E55.43854
G1 X-4.561 Y-3.943 E55.44319
G1 X-4.457 Y-4.247 E55.44802
G1 X-4.325 Y-4.564 E55.45319
G1 X-4.188 Y-4.838 E55.4578
G1 X-4.026 Y-5.117 E55.46265
G1 X-3.844 Y-5.387 E55.46755
G1 X-3.644 Y-5.644 E55.47245
G1 X-3.528 Y-5.775 E55.47509
G1 X-3.528 Y0.689 E55.57236
G1 X-3.424 Y0.805 E55.57471
G1 X-3.203 Y1.021 E55.57936
G1 X-2.956 Y1.234 E55.58426
G1 X-2.707 Y1.423 E55.58897
G1 X-2.434 Y1.599 E55.59386
G1 X-2.328 Y1.658 E55.59568
G1 X-2.328 Y-6.742 E55.72209
G1 X-2.159 Y-6.837 E55.72501
G1 X-1.87 Y-6.976 E55.72983
G1 X-1.585 Y-7.091 E55.73446
G1 X-1.282 Y-7.189 E55.73925
G1 X-1.128 Y-7.228 E55.74164
G1 X-1.128 Y2.145 E55.88269
G1 X-.955 Y2.189 E55.88537
G1 X-.643 Y2.246 E55.89015
G1 X-.325 Y2.281 E55.89496
G1 X0.006 Y2.298 E55.89995
G1 X0.072 Y2.297 E55.90094
G1 X0.072 Y-7.38 E56.04657
G1 X0.306 Y-7.376 E56.05009
G1 X0.622 Y-7.351 E56.05486
G1 X0.949 Y-7.302 E56.05983
G1 X1.245 Y-7.238 E56.06439
G1 X1.272 Y-7.23 E56.06482
G1 X1.272 Y2.147 E56.20592
G1 X1.579 Y2.058 E56.21073
G1 X1.872 Y1.951 E56.21543
G1 X2.171 Y1.82 E56.22034
G1 X2.447 Y1.675 E56.22503
G1 X2.472 Y1.66 E56.22547
G1 X2.472 Y-6.744 E56.35194
G1 X2.712 Y-6.599 E56.35616
G1 X2.981 Y-6.41 E56.36111
G1 X3.235 Y-6.206 E56.36601
G1 X3.46 Y-5.999 E56.37061
G1 X3.672 Y-5.775 E56.37525
G1 X3.672 Y0.694 E56.4726
G1 X3.694 Y0.67 E56.47309
G1 X3.896 Y0.426 E56.47786
G1 X4.082 Y0.168 E56.48264
G1 X4.254 Y-.107 E56.48752
G1 X4.411 Y-.397 E56.49249
G1 X4.533 Y-.667 E56.49694
G1 X4.655 Y-.987 E56.5021
G1 X4.746 Y-1.284 E56.50677
G1 X4.82 Y-1.605 E56.51173
G1 X4.87 Y-1.913 E56.51642
G1 X4.872 Y-1.932 E56.51671
G1 X4.872 Y-3.15 E56.53504
G0 F1200 X4.633 Y-3.127
;MESH:NONMESH
G0 X0.686 Y2.258
;TIME_ELAPSED:886.461119
;LAYER:49
;MESH:CylinderComplement.stl
G0 X0.686 Y2.258 Z9.9
;TYPE:FILL
G1 F300 X-.532 Y2.258 E56.55337
G1 X-.648 Y2.245 E56.55513
G1 X-.954 Y2.19 E56.55981
G1 X-1.268 Y2.11 E56.56468
G1 X-1.563 Y2.014 E56.56935
