;FLAVOR:Marlin
;TIME:630
;Filament used: 0.14314m
;Layer height: 0.2
;Generated with Cura_SteamEngine 3.6.0
M104 S200
M105
M109 S200
M82 ;absolute extrusion mode
G21 ;metric values
G90 ;absolute positioning
M82 ;set extruder to absolute mode
M107 ;start with the fan off
G28 ;move XYZ to min endstops
G1 Z15.0 F9000 ;move the platform down 15mm
G1 F9000
;Put printing message on LCD screen
M117 Printing...
G92 E0
G1 F1500 E-6.5
;LAYER_COUNT:82
;LAYER:41
M106 S255
;MESH:rigid.STL
G0 F1200 X-5.16 Y3.999 Z8.3
;TYPE:FILL
G1 F1500 E0
G1 F900 X-14.84 Y3.999 E0.18209
G1 X-14.84 Y2.999 E0.2009
G1 X-5.16 Y2.999 E0.38298
G1 X-5.16 Y1.999 E0.40179
G1 X-14.84 Y1.999 E0.58388
G1 X-14.84 Y0.999 E0.60269
G1 X-5.16 Y0.999 E0.78478
G1 X-5.16 Y0.00 E0.80357
G1 X-14.84 Y0.00 E0.98565
G1 X-14.84 Y-1 E1.00446
G1 X-5.16 Y-1 E1.18655
G1 X-5.16 Y-2 E1.20536
G1 X-14.84 Y-2 E1.38745
G1 X-14.84 Y-3 E1.40626
G1 X-5.16 Y-3 E1.58834
G1 X-5.16 Y-4 E1.60716
G1 X-14.84 Y-4 E1.78924
G0 F1200 X-14.6 Y-4
G1 F1500 E-4.71076
G0 F1200 X-5.02 Y-3.999
G0 X-4.335 Y-3.999
G0 X4.335 Y-3.999
G0 X5.02 Y-3.999
G0 X5.16 Y-3.999
G1 F1500 E1.78924
G1 F900 X14.84 Y-3.999 E1.97133
G1 X14.84 Y-2.999 E1.99014
G1 X5.16 Y-2.999 E2.17222
G1 X5.16 Y-1.999 E2.19103
G1 X14.84 Y-1.999 E2.37312
G1 X14.84 Y-.999 E2.39193
G1 X5.16 Y-.999 E2.57402
G1 X5.16 Y0.00 E2.59281
G1 X14.84 Y0.00 E2.7749
G1 X14.84 Y1 E2.79371
G1 X5.16 Y1 E2.97579
G1 X5.16 Y2 E2.9946
G1 X14.84 Y2 E3.17669
G1 X14.84 Y3 E3.1955
G1 X5.16 Y3 E3.37759
G1 X5.16 Y4 E3.3964
G1 X14.84 Y4 E3.57848
G0 F1200 X14.6 Y4
G1 F1500 E-2.92152
;MESH:NONMESH
G0 F1200 X5.02 Y-4.84
G0 X4.335 Y-4.84
G0 X-4.335 Y-4.84
G0 X-5.02 Y-4.84
G0 X-6 Y-4.84
;TIME_ELAPSED:22.025415
;LAYER:42
;MESH:rigid.STL
G0 X-6 Y-4.84 Z8.5
;TYPE:FILL
G1 F1500 E3.57848
G1 F900 X-6 Y4.84 E3.76057
G1 X-7 Y4.84 E3.77938
G1 X-7 Y-4.84 E3.96147
G1 X-8 Y-4.84 E3.98028
G1 X-8 Y4.84 E4.16236
G1 X-9 Y4.84 E4.18117
G1 X-9 Y-4.84 E4.36326
G1 X-10 Y-4.84 E4.38207
G1 X-10 Y4.84 E4.56416
G1 X-11 Y4.84 E4.58297
G1 X-11 Y-4.84 E4.76505
G1 X-12 Y-4.84 E4.78386
G1 X-12 Y4.84 E4.96595
G1 X-13 Y4.84 E4.98476
G1 X-13 Y-4.84 E5.16685
G1 X-14 Y-4.84 E5.18566
G1 X-14 Y4.84 E5.36774
G0 F1200 X-14 Y4.6
G1 F1500 E-1.13226
G0 F1200 X-5.02 Y4.84
G0 X-4.335 Y4.84
G0 X4.335 Y4.84
G0 X5.02 Y4.84
G0 X6 Y4.84
G1 F1500 E5.36774
G1 F900 X6 Y-4.84 E5.54983
G1 X7 Y-4.84 E5.56864
G1 X7 Y4.84 E5.75073
G1 X8 Y4.84 E5.76954
G1 X8 Y-4.84 E5.95162
G1 X9 Y-4.84 E5.97043
G1 X9 Y4.84 E6.15252
G1 X10 Y4.84 E6.17133
G1 X10 Y-4.84 E6.35342
G1 X11 Y-4.84 E6.37223
G1 X11 Y4.84 E6.55431
G1 X12 Y4.84 E6.57312
G1 X12 Y-4.84 E6.75521
G1 X13 Y-4.84 E6.77402
G1 X13 Y4.84 E6.95611
G1 X14 Y4.84 E6.97492
G1 X14 Y-4.84 E7.157
G0 F1200 X14 Y-4.6
G1 F1500 E0.657
;MESH:NONMESH
G0 F1200 X5.02 Y3.999
G0 X4.335 Y3.999
G0 X-4.335 Y3.999
G0 X-5.02 Y3.999
G0 X-5.16 Y3.999
;TIME_ELAPSED:37.638554
;LAYER:43
;MESH:rigid.STL
G0 X-5.16 Y3.999 Z8.7
;TYPE:FILL
G1 F1500 E7.157
G1 F900 X-14.84 Y3.999 E7.33909
G1 X-14.84 Y2.999 E7.3579
G1 X-5.16 Y2.999 E7.53999
G1 X-5.16 Y1.999 E7.5588
G1 X-14.84 Y1.999 E7.74088
G1 X-14.84 Y0.999 E7.75969
G1 X-5.16 Y0.999 E7.94178
G1 X-5.16 Y0.00 E7.96057
G1 X-14.84 Y0.00 E8.14266
G1 X-14.84 Y-1 E8.16147
G1 X-5.16 Y-1 E8.34355
G1 X-5.16 Y-2 E8.36236
G1 X-14.84 Y-2 E8.54445
G1 X-14.84 Y-3 E8.56326
G1 X-5.16 Y-3 E8.74535
G1 X-5.16 Y-4 E8.76416
G1 X-14.84 Y-4 E8.94624
G0 F1200 X-14.6 Y-4
G1 F1500 E2.44624
G0 F1200 X-5.02 Y-3.999
G0 X-4.335 Y-3.999
G0 X4.335 Y-3.999
G0 X5.02 Y-3.999
G0 X5.16 Y-3.999
G1 F1500 E8.94624
G1 F900 X14.84 Y-3.999 E9.12833
G1 X14.84 Y-2.999 E9.14714
G1 X5.16 Y-2.999 E9.32923
G1 X5.16 Y-1.999 E9.34804
G1 X14.84 Y-1.999 E9.53012
G1 X14.84 Y-.999 E9.54893
G1 X5.16 Y-.999 E9.73102
G1 X5.16 Y0.00 E9.74981
G1 X14.84 Y0.00 E9.9319
G1 X14.84 Y1 E9.95071
G1 X5.16 Y1 E10.1328
G1 X5.16 Y2 E10.15161
G1 X14.84 Y2 E10.33369
G1 X14.84 Y3 E10.3525
G1 X5.16 Y3 E10.53459
G1 X5.16 Y4 E10.5534
G1 X14.84 Y4 E10.73549
G0 F1200 X14.6 Y4
G1 F1500 E4.23549
;MESH:NONMESH
G0 F1200 X5.02 Y-4.84
G0 X4.335 Y-4.84
G0 X-4.335 Y-4.84
G0 X-5.02 Y-4.84
G0 X-6 Y-4.84
;TIME_ELAPSED:53.311513
;LAYER:44
;MESH:rigid.STL
G0 X-6 Y-4.84 Z8.9
;TYPE:FILL
G1 F1500 E10.73549
G1 F900 X-6 Y4.84 E10.91757
G1 X-7 Y4.84 E10.93638
G1 X-7 Y-4.84 E11.11847
G1 X-8 Y-4.84 E11.13728
G1 X-8 Y4.84 E11.31937
G1 X-9 Y4.84 E11.33818
G1 X-9 Y-4.84 E11.52026
G1 X-10 Y-4.84 E11.53907
G1 X-10 Y4.84 E11.72116
G1 X-11 Y4.84 E11.73997
G1 X-11 Y-4.84 E11.92206
G1 X-12 Y-4.84 E11.94087
G1 X-12 Y4.84 E12.12295
G1 X-13 Y4.84 E12.14176
G1 X-13 Y-4.84 E12.32385
G1 X-14 Y-4.84 E12.34266
G1 X-14 Y4.84 E12.52475
G0 F1200 X-14 Y4.6
G1 F1500 E6.02475
G0 F1200 X-5.02 Y4.84
G0 X-4.335 Y4.84
G0 X4.335 Y4.84
G0 X5.02 Y4.84
G0 X6 Y4.84
G1 F1500 E12.52475
G1 F900 X6 Y-4.84 E12.70683
G1 X7 Y-4.84 E12.72564
G1 X7 Y4.84 E12.90773
G1 X8 Y4.84 E12.92654
G1 X8 Y-4.84 E13.10863
G1 X9 Y-4.84 E13.12744
G1 X9 Y4.84 E13.30952
G1 X10 Y4.84 E13.32833
G1 X10 Y-4.84 E13.51042
G1 X11 Y-4.84 E13.52923
G1 X11 Y4.84 E13.71132
G1 X12 Y4.84 E13.73013
G1 X12 Y-4.84 E13.91221
G1 X13 Y-4.84 E13.93102
G1 X13 Y4.84 E14.11311
G1 X14 Y4.84 E14.13192
G1 X14 Y-4.84 E14.31401
G0 F1200 X14 Y-4.6
G1 F1500 E7.81401
;MESH:NONMESH
G0 F1200 X5.02 Y3.999
G0 X4.335 Y3.999
G0 X-4.335 Y3.999
G0 X-5.02 Y3.999
G0 X-5.16 Y3.999
;TIME_ELAPSED:68.924652
;LAYER:45
;MESH:rigid.STL
G0 X-5.16 Y3.999 Z9.1
;TYPE:FILL
G1 F1500 E14.31401
G1 F900 X-14.84 Y3.999 E14.49609
G1 X-14.84 Y2.999 E14.5149
G1 X-5.16 Y2.999 E14.69699
G1 X-5.16 Y1.999 E14.7158
G1 X-14.84 Y1.999 E14.89789
G1 X-14.84 Y0.999 E14.9167
G1 X-5.16 Y0.999 E15.09878
G1 X-5.16 Y0.00 E15.11757
G1 X-14.84 Y0.00 E15.29966
G1 X-14.84 Y-1 E15.31847
G1 X-5.16 Y-1 E15.50056
G1 X-5.16 Y-2 E15.51937
G1 X-14.84 Y-2 E15.70145
G1 X-14.84 Y-3 E15.72026
G1 X-5.16 Y-3 E15.90235
G1 X-5.16 Y-4 E15.92116
G1 X-14.84 Y-4 E16.10325
G0 F1200 X-14.6 Y-4
G1 F1500 E9.60325
G0 F1200 X-5.02 Y-3.999
G0 X-4.335 Y-3.999
G0 X4.335 Y-3.999
G0 X5.02 Y-3.999
G0 X5.16 Y-3.999
G1 F1500 E16.10325
G1 F900 X14.84 Y-3.999 E16.28533
G1 X14.84 Y-2.999 E16.30414
G1 X5.16 Y-2.999 E16.48623
G1 X5.16 Y-1.999 E16.50504
G1 X14.84 Y-1.999 E16.68713
G1 X14.84 Y-.999 E16.70594
G1 X5.16 Y-.999 E16.88802
G1 X5.16 Y0.00 E16.90682
G1 X14.84 Y0.00 E17.0889
G1 X14.84 Y1 E17.10771
G1 X5.16 Y1 E17.2898
G1 X5.16 Y2 E17.30861
G1 X14.84 Y2 E17.4907
G1 X14.84 Y3 E17.50951
G1 X5.16 Y3 E17.69159
G1 X5.16 Y4 E17.7104
G1 X14.84 Y4 E17.89249
G0 F1200 X14.6 Y4
G1 F1500 E11.39249
;MESH:NONMESH
G0 F1200 X5.02 Y-4.84
G0 X4.335 Y-4.84
G0 X-4.335 Y-4.84
G0 X-5.02 Y-4.84
G0 X-6 Y-4.84
;TIME_ELAPSED:84.597610
;LAYER:46
;MESH:rigid.STL
G0 X-6 Y-4.84 Z9.3
;TYPE:FILL
G1 F1500 E17.89249
G1 F900 X-6 Y4.84 E18.07457
G1 X-7 Y4.84 E18.09339
G1 X-7 Y-4.84 E18.27547
G1 X-8 Y-4.84 E18.29428
G1 X-8 Y4.84 E18.47637
G1 X-9 Y4.84 E18.49518
G1 X-9 Y-4.84 E18.67726
G1 X-10 Y-4.84 E18.69608
G1 X-10 Y4.84 E18.87816
G1 X-11 Y4.84 E18.89697
G1 X-11 Y-4.84 E19.07906
G1 X-12 Y-4.84 E19.09787
G1 X-12 Y4.84 E19.27996
G1 X-13 Y4.84 E19.29877
G1 X-13 Y-4.84 E19.48085
G1 X-14 Y-4.84 E19.49966
G1 X-14 Y4.84 E19.68175
G0 F1200 X-14 Y4.6
G1 F1500 E13.18175
G0 F1200 X-5.02 Y4.84
G0 X-4.335 Y4.84
G0 X4.335 Y4.84
G0 X5.02 Y4.84
G0 X6 Y4.84
G1 F1500 E19.68175
G1 F900 X6 Y-4.84 E19.86383
G1 X7 Y-4.84 E19.88265
G1 X7 Y4.84 E20.06473
G1 X8 Y4.84 E20.08354
G1 X8 Y-4.84 E20.26563
G1 X9 Y-4.84 E20.28444
G1 X9 Y4.84 E20.46653
G1 X10 Y4.84 E20.48534
G1 X10 Y-4.84 E20.66742
G1 X11 Y-4.84 E20.68623
G1 X11 Y4.84 E20.86832
G1 X12 Y4.84 E20.88713
G1 X12 Y-4.84 E21.06922
G1 X13 Y-4.84 E21.08803
G1 X13 Y4.84 E21.27011
G1 X14 Y4.84 E21.28892
G1 X14 Y-4.84 E21.47101
G0 F1200 X14 Y-4.6
G1 F1500 E14.97101
;MESH:NONMESH
G0 F1200 X5.02 Y3.999
G0 X4.335 Y3.999
G0 X-4.335 Y3.999
G0 X-5.02 Y3.999
G0 X-5.16 Y3.999
;TIME_ELAPSED:100.210749
;LAYER:47
;MESH:rigid.STL
G0 X-5.16 Y3.999 Z9.5
;TYPE:FILL
G1 F1500 E21.47101
G1 F900 X-14.84 Y3.999 E21.65309
G1 X-14.84 Y2.999 E21.67191
G1 X-5.16 Y2.999 E21.85399
G1 X-5.16 Y1.999 E21.8728
G1 X-14.84 Y1.999 E22.05489
G1 X-14.84 Y0.999 E22.0737
G1 X-5.16 Y0.999 E22.25579
G1 X-5.16 Y0.00 E22.27458
G1 X-14.84 Y0.00 E22.45666
G1 X-14.84 Y-1 E22.47547
G1 X-5.16 Y-1 E22.65756
G1 X-5.16 Y-2 E22.67637
G1 X-14.84 Y-2 E22.85846
G1 X-14.84 Y-3 E22.87727
G1 X-5.16 Y-3 E23.05935
G1 X-5.16 Y-4 E23.07816
G1 X-14.84 Y-4 E23.26025
G0 F1200 X-14.6 Y-4
G1 F1500 E16.76025
G0 F1200 X-5.02 Y-3.999
G0 X-4.335 Y-3.999
G0 X4.335 Y-3.999
G0 X5.02 Y-3.999
G0 X5.16 Y-3.999
G1 F1500 E23.26025
G1 F900 X14.84 Y-3.999 E23.44234
G1 X14.84 Y-2.999 E23.46115
G1 X5.16 Y-2.999 E23.64323
G1 X5.16 Y-1.999 E23.66204
G1 X14.84 Y-1.999 E23.84413
G1 X14.84 Y-.999 E23.86294
G1 X5.16 Y-.999 E24.04503
G1 X5.16 Y0.00 E24.06382
G1 X14.84 Y0.00 E24.2459
G1 X14.84 Y1 E24.26472
G1 X5.16 Y1 E24.4468
G1 X5.16 Y2 E24.46561
G1 X14.84 Y2 E24.6477
G1 X14.84 Y3 E24.66651
G1 X5.16 Y3 E24.84859
G1 X5.16 Y4 E24.86741
G1 X14.84 Y4 E25.04949
G0 F1200 X14.6 Y4
G1 F1500 E18.54949
;MESH:NONMESH
G0 F1200 X5.02 Y-4.84
G0 X4.335 Y-4.84
G0 X-4.335 Y-4.84
G0 X-5.02 Y-4.84
G0 X-6 Y-4.84
;TIME_ELAPSED:115.883708
;LAYER:48
;MESH:rigid.STL
G0 X-6 Y-4.84 Z9.7
;TYPE:FILL
G1 F1500 E25.04949
G1 F900 X-6 Y4.84 E25.23158
G1 X-7 Y4.84 E25.25039
G1 X-7 Y-4.84 E25.43247
G1 X-8 Y-4.84 E25.45128
G1 X-8 Y4.84 E25.63337
G1 X-9 Y4.84 E25.65218
G1 X-9 Y-4.84 E25.83427
G1 X-10 Y-4.84 E25.85308
G1 X-10 Y4.84 E26.03516
G1 X-11 Y4.84 E26.05398
G1 X-11 Y-4.84 E26.23606
G1 X-12 Y-4.84 E26.25487
G1 X-12 Y4.84 E26.43696
G1 X-13 Y4.84 E26.45577
G1 X-13 Y-4.84 E26.63785
G1 X-14 Y-4.84 E26.65667
G1 X-14 Y4.84 E26.83875
G0 F1200 X-14 Y4.6
G1 F1500 E20.33875
G0 F1200 X-5.02 Y4.84
G0 X-4.335 Y4.84
G0 X4.335 Y4.84
G0 X5.02 Y4.84
G0 X6 Y4.84
G1 F1500 E26.83875
G1 F900 X6 Y-4.84 E27.02084
G1 X7 Y-4.84 E27.03965
G1 X7 Y4.84 E27.22173
G1 X8 Y4.84 E27.24055
G1 X8 Y-4.84 E27.42263
G1 X9 Y-4.84 E27.44144
G1 X9 Y4.84 E27.62353
G1 X10 Y4.84 E27.64234
G1 X10 Y-4.84 E27.82442
G1 X11 Y-4.84 E27.84324
G1 X11 Y4.84 E28.02532
G1 X12 Y4.84 E28.04413
G1 X12 Y-4.84 E28.22622
G1 X13 Y-4.84 E28.24503
G1 X13 Y4.84 E28.42711
G1 X14 Y4.84 E28.44593
G1 X14 Y-4.84 E28.62801
G0 F1200 X14 Y-4.6
G1 F1500 E22.12801
;MESH:NONMESH
G0 F1200 X5.02 Y3.999
G0 X4.335 Y3.999
G0 X-4.335 Y3.999
G0 X-5.02 Y3.999
G0 X-5.16 Y3.999
;TIME_ELAPSED:131.496847
;LAYER:49
;MESH:rigid.STL
G0 X-5.16 Y3.999 Z9.9
;TYPE:FILL
G1 F1500 E28.62801
G1 F900 X-14.84 Y3.999 E28.8101
G1 X-14.84 Y2.999 E28.82891
G1 X-5.16 Y2.999 E29.01099
G1 X-5.16 Y1.999 E29.02981
G1 X-14.84 Y1.999 E29.21189
G1 X-14.84 Y0.999 E29.2307
G1 X-5.16 Y0.999 E29.41279
G1 X-5.16 Y0.00 E29.43158
G1 X-14.84 Y0.00 E29.61367
G1 X-14.84 Y-1 E29.63248
G1 X-5.16 Y-1 E29.81456
G1 X-5.16 Y-2 E29.83337
G1 X-14.84 Y-2 E30.01546
G1 X-14.84 Y-3 E30.03427
G1 X-5.16 Y-3 E30.21636
G1 X-5.16 Y-4 E30.23517
G1 X-14.84 Y-4 E30.41725
G0 F1200 X-14.6 Y-4
G1 F1500 E23.91725
G0 F1200 X-5.02 Y-3.999
G0 X-4.335 Y-3.999
G0 X4.335 Y-3.999
G0 X5.02 Y-3.999
G0 X5.16 Y-3.999
G1 F1500 E30.41725
G1 F900 X14.84 Y-3.999 E30.59934
G1 X14.84 Y-2.999 E30.61815
G1 X5.16 Y-2.999 E30.80024
G1 X5.16 Y-1.999 E30.81905
G1 X14.84 Y-1.999 E31.00113
G1 X14.84 Y-.999 E31.01994
G1 X5.16 Y-.999 E31.20203
G1 X5.16 Y0.00 E31.22082
G1 X14.84 Y0.00 E31.40291
G1 X14.84 Y1 E31.42172
G1 X5.16 Y1 E31.6038
G1 X5.16 Y2 E31.62261
G1 X14.84 Y2 E31.8047
G1 X14.84 Y3 E31.82351
G1 X5.16 Y3 E32.0056
G1 X5.16 Y4 E32.02441
G1 X14.84 Y4 E32.20649
G0 F1200 X14.6 Y4
G1 F1500 E25.70649
;MESH:NONMESH
G0 F1200 X5.02 Y-4.84
G0 X4.335 Y-4.84
G0 X-4.335 Y-4.84
G0 X-5.02 Y-4.84
G0 X-6 Y-4.84
;TIME_ELAPSED:147.169806
;LAYER:50
;MESH:rigid.STL
G0 X-6 Y-4.84 Z10.1
;TYPE:FILL
G1 F1500 E32.20649
G1 F900 X-6 Y4.84 E32.38858
G1 X-7 Y4.84 E32.40739
G1 X-7 Y-4.84 E32.58948
G1 X-8 Y-4.84 E32.60829
G1 X-8 Y4.84 E32.79037
G1 X-9 Y4.84 E32.80918
G1 X-9 Y-4.84 E32.99127
G1 X-10 Y-4.84 E33.01008
G1 X-10 Y4.84 E33.19217
G1 X-11 Y4.84 E33.21098
G1 X-11 Y-4.84 E33.39306
G1 X-12 Y-4.84 E33.41187
G1 X-12 Y4.84 E33.59396
G1 X-13 Y4.84 E33.61277
G1 X-13 Y-4.84 E33.79486
G1 X-14 Y-4.84 E33.81367
G1 X-14 Y4.84 E33.99575
G0 F1200 X-14 Y4.6
G1 F1500 E27.49575
G0 F1200 X-5.02 Y4.84
G0 X-4.335 Y4.84
G0 X4.335 Y4.84
G0 X5.02 Y4.84
G0 X6 Y4.84
G1 F1500 E33.99575
G1 F900 X6 Y-4.84 E34.17784
G1 X7 Y-4.84 E34.19665
G1 X7 Y4.84 E34.37874
G1 X8 Y4.84 E34.39755
G1 X8 Y-4.84 E34.57963
G1 X9 Y-4.84 E34.59844
G1 X9 Y4.84 E34.78053
G1 X10 Y4.84 E34.79934
G1 X10 Y-4.84 E34.98143
G1 X11 Y-4.84 E35.00024
G1 X11 Y4.84 E35.18232
G1 X12 Y4.84 E35.20113
G1 X12 Y-4.84 E35.38322
G1 X13 Y-4.84 E35.40203
G1 X13 Y4.84 E35.58412
G1 X14 Y4.84 E35.60293
G1 X14 Y-4.84 E35.78501
G0 F1200 X14 Y-4.6
G1 F1500 E29.28501
;MESH:NONMESH
G0 F1200 X5.02 Y3.999
G0 X4.335 Y3.999
G0 X-4.335 Y3.999
G0 X-5.02 Y3.999
G0 X-5.16 Y3.999
;TIME_ELAPSED:162.782945
;LAYER:51
;MESH:rigid.STL
G0 X-5.16 Y3.999 Z10.3
;TYPE:FILL
G1 F1500 E35.78501
G1 F900 X-14.84 Y3.999 E35.9671
G1 X-14.84 Y2.999 E35.98591
G1 X-5.16 Y2.999 E36.168
G1 X-5.16 Y1.999 E36.18681
G1 X-14.84 Y1.999 E36.36889
G1 X-14.84 Y0.999 E36.3877
G1 X-5.16 Y0.999 E36.56979
G1 X-5.16 Y0.00 E36.58858
G1 X-14.84 Y0.00 E36.77067
G1 X-14.84 Y-1 E36.78948
G1 X-5.16 Y-1 E36.97157
G1 X-5.16 Y-2 E36.99038
G1 X-14.84 Y-2 E37.17246
G1 X-14.84 Y-3 E37.19127
G1 X-5.16 Y-3 E37.37336
G1 X-5.16 Y-4 E37.39217
G1 X-14.84 Y-4 E37.57426
G0 F1200 X-14.6 Y-4
G1 F1500 E31.07426
G0 F1200 X-5.02 Y-3.999
G0 X-4.335 Y-3.999
G0 X4.335 Y-3.999
G0 X5.02 Y-3.999
G0 X5.16 Y-3.999
G1 F1500 E37.57426
G1 F900 X14.84 Y-3.999 E37.75634
G1 X14.84 Y-2.999 E37.77515
G1 X5.16 Y-2.999 E37.95724
G1 X5.16 Y-1.999 E37.97605
G1 X14.84 Y-1.999 E38.15814
G1 X14.84 Y-.999 E38.17695
G1 X5.16 Y-.999 E38.35903
G1 X5.16 Y0.00 E38.37782
G1 X14.84 Y0.00 E38.55991
G1 X14.84 Y1 E38.57872
G1 X5.16 Y1 E38.76081
G1 X5.16 Y2 E38.77962
G1 X14.84 Y2 E38.9617
G1 X14.84 Y3 E38.98051
G1 X5.16 Y3 E39.1626
G1 X5.16 Y4 E39.18141
G1 X14.84 Y4 E39.3635
G0 F1200 X14.6 Y4
G1 F1500 E32.8635
;MESH:NONMESH
G0 F1200 X5.02 Y-4.84
G0 X4.335 Y-4.84
G0 X-4.335 Y-4.84
G0 X-5.02 Y-4.84
G0 X-6 Y-4.84
;TIME_ELAPSED:178.455903
;LAYER:52
;MESH:rigid.STL
G0 X-6 Y-4.84 Z10.5
;TYPE:FILL
G1 F1500 E39.3635
G1 F900 X-6 Y4.84 E39.54558
G1 X-7 Y4.84 E39.56439
G1 X-7 Y-4.84 E39.74648
G1 X-8 Y-4.84 E39.76529
G1 X-8 Y4.84 E39.94738
G1 X-9 Y4.84 E39.96619
G1 X-9 Y-4.84 E40.14827
G1 X-10 Y-4.84 E40.16708
G1 X-10 Y4.84 E40.34917
G1 X-11 Y4.84 E40.36798
G1 X-11 Y-4.84 E40.55007
G1 X-12 Y-4.84 E40.56888
G1 X-12 Y4.84 E40.75096
G1 X-13 Y4.84 E40.76977
G1 X-13 Y-4.84 E40.95186
G1 X-14 Y-4.84 E40.97067
G1 X-14 Y4.84 E41.15276
G0 F1200 X-14 Y4.6
G1 F1500 E34.65276
G0 F1200 X-5.02 Y4.84
G0 X-4.335 Y4.84
G0 X4.335 Y4.84
G0 X5.02 Y4.84
G0 X6 Y4.84
G1 F1500 E41.15276
G1 F900 X6 Y-4.84 E41.33484
G1 X7 Y-4.84 E41.35365
G1 X7 Y4.84 E41.53574
G1 X8 Y4.84 E41.55455
G1 X8 Y-4.84 E41.73664
G1 X9 Y-4.84 E41.75545
G1 X9 Y4.84 E41.93753
G1 X10 Y4.84 E41.95634
G1 X10 Y-4.84 E42.13843
G1 X11 Y-4.84 E42.15724
G1 X11 Y4.84 E42.33933
G1 X12 Y4.84 E42.35814
G1 X12 Y-4.84 E42.54022
G1 X13 Y-4.84 E42.55903
G1 X13 Y4.84 E42.74112
G1 X14 Y4.84 E42.75993
G1 X14 Y-4.84 E42.94202
G0 F1200 X14 Y-4.6
G1 F1500 E36.44202
;MESH:NONMESH
G0 F1200 X5.02 Y3.999
G0 X4.335 Y3.999
G0 X-4.335 Y3.999
G0 X-5.02 Y3.999
G0 X-5.16 Y3.999
;TIME_ELAPSED:194.069042
;LAYER:53
;MESH:rigid.STL
G0 X-5.16 Y3.999 Z10.7
;TYPE:FILL
G1 F1500 E42.94202
G1 F900 X-14.84 Y3.999 E43.1241
G1 X-14.84 Y2.999 E43.14291
G1 X-5.16 Y2.999 E43.325
G1 X-5.16 Y1.999 E43.34381
G1 X-14.84 Y1.999 E43.5259
G1 X-14.84 Y0.999 E43.54471
G1 X-5.16 Y0.999 E43.72679
G1 X-5.16 Y0.00 E43.74559
G1 X-14.84 Y0.00 E43.92767
G1 X-14.84 Y-1 E43.94648
G1 X-5.16 Y-1 E44.12857
G1 X-5.16 Y-2 E44.14738
G1 X-14.84 Y-2 E44.32947
G1 X-14.84 Y-3 E44.34828
G1 X-5.16 Y-3 E44.53036
G1 X-5.16 Y-4 E44.54917
G1 X-14.84 Y-4 E44.73126
G0 F1200 X-14.6 Y-4
G1 F1500 E38.23126
G0 F1200 X-5.02 Y-3.999
G0 X-4.335 Y-3.999
G0 X4.335 Y-3.999
G0 X5.02 Y-3.999
G0 X5.16 Y-3.999
G1 F1500 E44.73126
G1 F900 X14.84 Y-3.999 E44.91335
G1 X14.84 Y-2.999 E44.93216
G1 X5.16 Y-2.999 E45.11424
G1 X5.16 Y-1.999 E45.13305
G1 X14.84 Y-1.999 E45.31514
G1 X14.84 Y-.999 E45.33395
G1 X5.16 Y-.999 E45.51604
G1 X5.16 Y0.00 E45.53483
