;FLAVOR:Marlin
;TIME:1202
;Filament used: 0.166873m
;Layer height: 0.2
;Generated with Cura_SteamEngine 3.6.0
M104 S200
M105
M109 S200
M82 ;absolute extrusion mode
G21 ;metric values
G90 ;absolute positioning
M82 ;set extruder to absolute mode
M107 ;start with the fan off
G28 ;move XYZ to min endstops
G1 Z15.0 F9000 ;move the platform down 15mm
G1 F9000
;Put printing message on LCD screen
M117 Printing...
G92 E0
;LAYER_COUNT:26
;LAYER:0
M107
;MESH:Box_1_testhybrid.stl
G0 F600 X-12 Y12.34 Z0.2
;TYPE:FILL
G1 F300 X-12 Y-12.34 E0.3714
G1 X-10.5 Y-12.34 E0.39397
G1 X-10.5 Y12.34 E0.76536
G1 X-9 Y12.34 E0.78794
G1 X-9 Y-12.34 E1.15933
G1 X-7.5 Y-12.34 E1.1819
G1 X-7.5 Y12.34 E1.5533
G1 X-6 Y12.34 E1.57587
G1 X-6 Y-12.34 E1.94727
G1 X-4.5 Y-12.34 E1.96984
G1 X-4.5 Y12.34 E2.34124
G1 X-3 Y12.34 E2.36381
G1 X-3 Y-12.34 E2.73521
G1 X-1.5 Y-12.34 E2.75778
G1 X-1.5 Y12.34 E3.12917
G1 X0.00 Y12.34 E3.15175
G1 X0.00 Y-12.34 E3.52314
G1 X1.5 Y-12.34 E3.54571
G1 X1.5 Y12.34 E3.91711
G1 X3 Y12.34 E3.93968
G1 X3 Y-12.34 E4.31108
G1 X4.5 Y-12.34 E4.33365
G1 X4.5 Y12.34 E4.70505
G1 X6 Y12.34 E4.72762
G1 X6 Y-12.34 E5.09902
G1 X7.5 Y-12.34 E5.12159
G1 X7.5 Y12.34 E5.49298
G1 X9 Y12.34 E5.51556
G1 X9 Y-12.34 E5.88695
G1 X10.5 Y-12.34 E5.90952
G1 X10.5 Y12.34 E6.28092
G1 X12 Y12.34 E6.30349
G1 X12 Y-12.34 E6.67489
G0 F600 X12 Y-12.1
;MESH:NONMESH
G0 X12.34 Y12
;TIME_ELAPSED:92.869485
;LAYER:1
M106 S255
;TYPE:FILL
G0 F900 X12.34 Y12 Z0.200000
G1 F450 X-12.34 Y12 E7.046280
G1 X-12.34 Y10.5 E7.068860
G1 X12.34 Y10.5 E7.440250
G1 X12.34 Y9 E7.462830
G1 X-12.34 Y9 E7.834220
G1 X-12.34 Y7.499 E7.856800
G1 X12.34 Y7.5 E8.228190
G1 X12.34 Y6 E8.250770
G1 X-12.34 Y5.999 E8.622160
G1 X-12.34 Y4.499 E8.644740
G1 X12.34 Y4.5 E9.016130
G1 X12.34 Y3 E9.038710
G1 X-12.34 Y2.999 E9.410100
G1 X-12.34 Y1.499 E9.432680
G1 X12.34 Y1.5 E9.804070
G1 X12.34 Y0.00 E9.826650
G1 X-12.34 Y0.00 E10.198040
G1 X-12.34 Y-1.5 E10.220620
G1 X12.34 Y-1.499 E10.592010
G1 X12.34 Y-2.999 E10.614590
G1 X-12.34 Y-3 E10.985980
G1 X-12.34 Y-4.5 E11.008560
G1 X12.34 Y-4.499 E11.379950
G1 X12.34 Y-5.999 E11.402530
G1 X-12.34 Y-6 E11.773920
G1 X-12.34 Y-7.5 E11.796500
G1 X12.34 Y-7.499 E12.167890
G1 X12.34 Y-9 E12.190470
G1 X-12.34 Y-9 E12.561860
G1 X-12.34 Y-10.5 E12.584440
G1 X12.34 Y-10.5 E12.955830
G1 X12.34 Y-12 E12.978410
G1 X-12.34 Y-12 E13.349800
G0 F900 X-12.1 Y-12
G0 F900 X12.34 Y12 Z0.400000
G1 F450 X-12.34 Y12 E13.721190
G1 X-12.34 Y10.5 E13.743770
G1 X12.34 Y10.5 E14.115160
G1 X12.34 Y9 E14.137740
G1 X-12.34 Y9 E14.509130
G1 X-12.34 Y7.499 E14.531710
G1 X12.34 Y7.5 E14.903100
G1 X12.34 Y6 E14.925680
G1 X-12.34 Y5.999 E15.297070
G1 X-12.34 Y4.499 E15.319650
G1 X12.34 Y4.5 E15.691040
G1 X12.34 Y3 E15.713620
G1 X-12.34 Y2.999 E16.085010
G1 X-12.34 Y1.499 E16.107590
G1 X12.34 Y1.5 E16.478980
G1 X12.34 Y0.00 E16.501560
G1 X-12.34 Y0.00 E16.872950
G1 X-12.34 Y-1.5 E16.895530
G1 X12.34 Y-1.499 E17.266920
G1 X12.34 Y-2.999 E17.289500
G1 X-12.34 Y-3 E17.660890
G1 X-12.34 Y-4.5 E17.683470
G1 X12.34 Y-4.499 E18.054860
G1 X12.34 Y-5.999 E18.077440
G1 X-12.34 Y-6 E18.448830
G1 X-12.34 Y-7.5 E18.471410
G1 X12.34 Y-7.499 E18.842800
G1 X12.34 Y-9 E18.865380
G1 X-12.34 Y-9 E19.236770
G1 X-12.34 Y-10.5 E19.259350
G1 X12.34 Y-10.5 E19.630740
G1 X12.34 Y-12 E19.653320
G1 X-12.34 Y-12 E20.024710
G0 F900 X-12.1 Y-12
G0 F900 X12.34 Y12 Z0.600000
G1 F450 X-12.34 Y12 E20.396100
G1 X-12.34 Y10.5 E20.418680
G1 X12.34 Y10.5 E20.790070
G1 X12.34 Y9 E20.812650
G1 X-12.34 Y9 E21.184040
G1 X-12.34 Y7.499 E21.206620
G1 X12.34 Y7.5 E21.578010
G1 X12.34 Y6 E21.600590
G1 X-12.34 Y5.999 E21.971980
G1 X-12.34 Y4.499 E21.994560
G1 X12.34 Y4.5 E22.365950
G1 X12.34 Y3 E22.388530
G1 X-12.34 Y2.999 E22.759920
G1 X-12.34 Y1.499 E22.782500
G1 X12.34 Y1.5 E23.153890
G1 X12.34 Y0.00 E23.176470
G1 X-12.34 Y0.00 E23.547860
G1 X-12.34 Y-1.5 E23.570440
G1 X12.34 Y-1.499 E23.941830
G1 X12.34 Y-2.999 E23.964410
G1 X-12.34 Y-3 E24.335800
G1 X-12.34 Y-4.5 E24.358380
G1 X12.34 Y-4.499 E24.729770
G1 X12.34 Y-5.999 E24.752350
G1 X-12.34 Y-6 E25.123740
G1 X-12.34 Y-7.5 E25.146320
G1 X12.34 Y-7.499 E25.517710
G1 X12.34 Y-9 E25.540290
G1 X-12.34 Y-9 E25.911680
G1 X-12.34 Y-10.5 E25.934260
G1 X12.34 Y-10.5 E26.305650
G1 X12.34 Y-12 E26.328230
G1 X-12.34 Y-12 E26.699620
G0 F900 X-12.1 Y-12
G0 F900 X12.34 Y12 Z0.800000
G1 F450 X-12.34 Y12 E27.071010
G1 X-12.34 Y10.5 E27.093590
G1 X12.34 Y10.5 E27.464980
G1 X12.34 Y9 E27.487560
G1 X-12.34 Y9 E27.858950
G1 X-12.34 Y7.499 E27.881530
G1 X12.34 Y7.5 E28.252920
G1 X12.34 Y6 E28.275500
G1 X-12.34 Y5.999 E28.646890
G1 X-12.34 Y4.499 E28.669470
G1 X12.34 Y4.5 E29.040860
G1 X12.34 Y3 E29.063440
G1 X-12.34 Y2.999 E29.434830
G1 X-12.34 Y1.499 E29.457410
G1 X12.34 Y1.5 E29.828800
G1 X12.34 Y0.00 E29.851380
G1 X-12.34 Y0.00 E30.222770
G1 X-12.34 Y-1.5 E30.245350
G1 X12.34 Y-1.499 E30.616740
G1 X12.34 Y-2.999 E30.639320
G1 X-12.34 Y-3 E31.010710
G1 X-12.34 Y-4.5 E31.033290
G1 X12.34 Y-4.499 E31.404680
G1 X12.34 Y-5.999 E31.427260
G1 X-12.34 Y-6 E31.798650
G1 X-12.34 Y-7.5 E31.821230
G1 X12.34 Y-7.499 E32.192620
G1 X12.34 Y-9 E32.215200
G1 X-12.34 Y-9 E32.586590
G1 X-12.34 Y-10.5 E32.609170
G1 X12.34 Y-10.5 E32.980560
G1 X12.34 Y-12 E33.003140
G1 X-12.34 Y-12 E33.374530
G0 F900 X-12.1 Y-12
